;FLAVOR:Marlin
;TIME:4831
;Filament used: 1.31218m
;Layer height: 0.1
;MINX:54.186
;MINY:114.55
;MINZ:0.3
;MAXX:235.814
;MAXY:157.05
;MAXZ:3.4
;Generated with Cura_SteamEngine 4.6.1
M82 ;absolute extrusion mode
;This G-Code has been generated specifically for the LulzBot TAZ 5 with standard extruder
M75			 ; start GLCD timer
M140 S110.0    ; start bed heating up
G90                      ; absolute positioning
M107                     ; disable fans
M82                      ; set extruder to absolute mode
G28 X0 Y0                ; home X and Y
G28 Z0                   ; home Z
G1 Z15.0 F120 ; move extruder up
M117 Heating...          ; progress indicator message on LCD
M109 R240.0  ; wait for extruder to reach printing temp
M190 R110.0    ; wait for bed to reach printing temp
G92 E0                   ; set extruder position to 0
G1 F200 E0               ; prime the nozzle with filament
G92 E0                   ; re-set extruder position to 0
G1 F120       ; set travel speed
M203 X192 Y208 Z3        ; set limits on travel speed
M117 TAZ 5 Printing...   ; progress indicator message on LCD
G92 E0
G92 E0
G1 F1500 E-6.5
;LAYER_COUNT:32
;LAYER:0
M107
G0 F3600 X60.021 Y115.756 Z0.3
;TYPE:SKIRT
G1 F1500 E0
G1 F1800 X60.729 Y115.412 E0.01851
G1 X61.422 Y115.156 E0.03588
G1 X61.979 Y114.98 E0.04961
G1 X62.741 Y114.781 E0.06813
G1 X63.458 Y114.667 E0.0852
G1 X64.043 Y114.602 E0.09904
G1 X64.899 Y114.555 E0.1192
G1 X215.055 Y114.55 E3.64985
G1 X225.063 Y114.55 E3.88517
G1 X225.808 Y114.586 E3.90271
G1 X226.357 Y114.639 E3.91567
G1 X227.135 Y114.754 E3.93417
G1 X227.759 Y114.906 E3.94927
G1 X228.321 Y115.068 E3.96302
G1 X229.065 Y115.324 E3.98152
G1 X229.755 Y115.642 E3.99938
G1 X230.277 Y115.914 E4.01323
G1 X230.956 Y116.313 E4.03174
G1 X231.547 Y116.743 E4.04893
G1 X232.008 Y117.113 E4.06283
G1 X232.596 Y117.636 E4.08133
G1 X233.082 Y118.162 E4.09817
G1 X233.458 Y118.608 E4.11189
G1 X233.934 Y119.234 E4.13038
G1 X234.323 Y119.867 E4.14785
G1 X234.608 Y120.385 E4.16175
G1 X234.952 Y121.093 E4.18026
G1 X235.207 Y121.782 E4.19753
G1 X235.383 Y122.338 E4.21124
G1 X235.582 Y123.1 E4.22976
G1 X235.696 Y123.82 E4.2469
G1 X235.761 Y124.404 E4.26072
G1 X235.809 Y125.259 E4.28085
G1 X235.814 Y146.297 E4.77553
G1 X235.778 Y147.044 E4.79311
G1 X235.725 Y147.593 E4.80608
G1 X235.61 Y148.371 E4.82457
G1 X235.458 Y148.995 E4.83967
G1 X235.296 Y149.557 E4.85342
G1 X235.04 Y150.301 E4.87192
G1 X234.722 Y150.991 E4.88979
G1 X234.45 Y151.513 E4.90363
G1 X234.051 Y152.192 E4.92215
G1 X233.621 Y152.783 E4.93933
G1 X233.251 Y153.244 E4.95323
G1 X232.728 Y153.832 E4.97174
G1 X232.202 Y154.318 E4.98857
G1 X231.756 Y154.694 E5.00229
G1 X231.13 Y155.17 E5.02078
G1 X230.497 Y155.559 E5.03825
G1 X229.979 Y155.844 E5.05215
G1 X229.271 Y156.188 E5.07066
G1 X228.578 Y156.444 E5.08803
G1 X228.021 Y156.62 E5.10177
G1 X227.259 Y156.819 E5.12029
G1 X226.542 Y156.933 E5.13736
G1 X225.957 Y156.998 E5.1512
G1 X225.101 Y157.045 E5.17135
G1 X74.945 Y157.05 E8.702
G1 X64.937 Y157.05 E8.93732
G1 X64.192 Y157.014 E8.95486
G1 X63.643 Y156.961 E8.96783
G1 X62.865 Y156.846 E8.98632
G1 X62.245 Y156.695 E9.00132
G1 X61.682 Y156.533 E9.0151
G1 X60.938 Y156.277 E9.0336
G1 X60.238 Y155.955 E9.05172
G1 X59.717 Y155.683 E9.06554
G1 X59.039 Y155.284 E9.08403
G1 X58.453 Y154.857 E9.10108
G1 X57.992 Y154.487 E9.11498
G1 X57.404 Y153.964 E9.13348
G1 X56.918 Y153.438 E9.15032
G1 X56.542 Y152.992 E9.16404
G1 X56.066 Y152.366 E9.18253
G1 X55.677 Y151.733 E9.2
G1 X55.392 Y151.215 E9.2139
G1 X55.048 Y150.507 E9.23241
G1 X54.792 Y149.814 E9.24978
G1 X54.616 Y149.257 E9.26352
G1 X54.417 Y148.495 E9.28203
G1 X54.304 Y147.781 E9.29903
G1 X54.239 Y147.198 E9.31283
G1 X54.191 Y146.341 E9.33301
G1 X54.186 Y125.303 E9.82768
G1 X54.222 Y124.558 E9.84522
G1 X54.275 Y124.008 E9.85821
G1 X54.39 Y123.229 E9.87672
G1 X54.543 Y122.601 E9.89192
G1 X54.705 Y122.04 E9.90565
G1 X54.962 Y121.296 E9.92416
G1 X55.278 Y120.609 E9.94194
G1 X55.55 Y120.087 E9.95578
G1 X55.949 Y119.408 E9.9743
G1 X56.379 Y118.817 E9.99148
G1 X56.749 Y118.356 E10.00538
G1 X57.272 Y117.768 E10.02389
G1 X57.798 Y117.282 E10.04073
G1 X58.244 Y116.906 E10.05444
G1 X58.87 Y116.43 E10.07293
G1 X59.503 Y116.041 E10.0904
G1 X60.021 Y115.756 E10.1043
G0 F3600 X60.262 Y116.194
G1 F1800 X60.948 Y115.862 E10.12222
G1 X61.573 Y115.633 E10.13787
G1 X62.13 Y115.457 E10.15161
G1 X62.867 Y115.266 E10.16951
G1 X63.513 Y115.164 E10.18489
G1 X64.098 Y115.099 E10.19873
G1 X64.899 Y115.055 E10.21759
G1 X215.055 Y115.05 E13.74824
G1 X225.063 Y115.05 E13.98356
G1 X225.76 Y115.084 E13.99997
G1 X226.309 Y115.137 E14.01294
G1 X227.062 Y115.249 E14.03084
G1 X227.62 Y115.387 E14.04435
G1 X228.182 Y115.549 E14.0581
G1 X228.902 Y115.798 E14.07602
G1 X229.524 Y116.086 E14.09213
G1 X230.046 Y116.358 E14.10597
G1 X230.702 Y116.744 E14.12387
G1 X231.234 Y117.133 E14.13937
G1 X231.695 Y117.503 E14.15327
G1 X232.263 Y118.01 E14.17117
G1 X232.7 Y118.484 E14.18633
G1 X233.076 Y118.93 E14.20004
G1 X233.536 Y119.537 E14.21795
G1 X233.885 Y120.108 E14.23369
G1 X234.17 Y120.626 E14.24759
G1 X234.502 Y121.312 E14.26551
G1 X234.73 Y121.933 E14.28106
G1 X234.906 Y122.489 E14.29478
G1 X235.097 Y123.226 E14.31268
G1 X235.2 Y123.875 E14.32813
G1 X235.265 Y124.459 E14.34195
G1 X235.309 Y125.259 E14.36078
G1 X235.314 Y146.297 E14.85546
G1 X235.28 Y146.996 E14.87191
G1 X235.227 Y147.545 E14.88488
G1 X235.115 Y148.298 E14.90278
G1 X234.977 Y148.856 E14.9163
G1 X234.815 Y149.418 E14.93005
G1 X234.566 Y150.138 E14.94796
G1 X234.278 Y150.76 E14.96408
G1 X234.006 Y151.282 E14.97792
G1 X233.62 Y151.938 E14.99581
G1 X233.231 Y152.47 E15.01131
G1 X232.861 Y152.931 E15.02521
G1 X232.354 Y153.499 E15.04311
G1 X231.88 Y153.936 E15.05827
G1 X231.434 Y154.312 E15.07199
G1 X230.827 Y154.772 E15.0899
G1 X230.256 Y155.121 E15.10563
G1 X229.738 Y155.406 E15.11953
G1 X229.052 Y155.738 E15.13745
G1 X228.427 Y155.967 E15.1531
G1 X227.87 Y156.143 E15.16684
G1 X227.133 Y156.334 E15.18474
G1 X226.487 Y156.436 E15.20012
G1 X225.902 Y156.501 E15.21396
G1 X225.101 Y156.545 E15.23282
G1 X74.945 Y156.55 E18.76347
G1 X64.937 Y156.55 E18.99879
G1 X64.24 Y156.516 E19.0152
G1 X63.691 Y156.463 E19.02816
G1 X62.938 Y156.351 E19.04606
G1 X62.383 Y156.214 E19.05951
G1 X61.82 Y156.052 E19.07328
G1 X61.101 Y155.804 E19.09116
G1 X60.47 Y155.512 E19.10751
G1 X59.949 Y155.24 E19.12133
G1 X59.293 Y154.853 E19.13924
G1 X58.766 Y154.467 E19.1546
G1 X58.305 Y154.097 E19.1685
G1 X57.737 Y153.59 E19.1864
G1 X57.3 Y153.116 E19.20156
G1 X56.924 Y152.67 E19.21528
G1 X56.464 Y152.063 E19.23319
G1 X56.115 Y151.492 E19.24892
G1 X55.83 Y150.974 E19.26282
G1 X55.498 Y150.288 E19.28074
G1 X55.269 Y149.663 E19.29639
G1 X55.093 Y149.106 E19.31013
G1 X54.902 Y148.369 E19.32803
G1 X54.801 Y147.725 E19.34336
G1 X54.736 Y147.142 E19.35715
G1 X54.691 Y146.341 E19.37601
G1 X54.686 Y125.303 E19.87069
G1 X54.719 Y124.606 E19.88709
G1 X54.772 Y124.056 E19.90008
G1 X54.885 Y123.303 E19.91799
G1 X55.024 Y122.74 E19.93162
G1 X55.186 Y122.179 E19.94535
G1 X55.435 Y121.459 E19.96327
G1 X55.722 Y120.84 E19.97931
G1 X55.994 Y120.318 E19.99315
G1 X56.38 Y119.662 E20.01105
G1 X56.769 Y119.13 E20.02654
G1 X57.139 Y118.669 E20.04044
G1 X57.646 Y118.101 E20.05834
G1 X58.12 Y117.664 E20.0735
G1 X58.566 Y117.288 E20.08722
G1 X59.173 Y116.828 E20.10513
G1 X59.744 Y116.479 E20.12086
G1 X60.262 Y116.194 E20.13476
G0 F3600 X60.503 Y116.632
G1 F1800 X61.165 Y116.313 E20.15204
G1 X61.723 Y116.11 E20.166
G1 X62.28 Y115.934 E20.17974
G1 X62.992 Y115.751 E20.19703
G1 X63.569 Y115.661 E20.21076
G1 X64.154 Y115.596 E20.2246
G1 X64.899 Y115.555 E20.24214
G1 X215.055 Y115.55 E23.77279
G1 X225.063 Y115.55 E24.00811
G1 X225.712 Y115.581 E24.02339
G1 X226.261 Y115.634 E24.03635
G1 X226.987 Y115.745 E24.05362
G1 X227.482 Y115.867 E24.06561
G1 X228.044 Y116.029 E24.07936
G1 X228.737 Y116.271 E24.09662
G1 X229.293 Y116.529 E24.11103
G1 X229.815 Y116.801 E24.12487
G1 X230.447 Y117.175 E24.14214
G1 X230.921 Y117.523 E24.15597
G1 X231.382 Y117.893 E24.16987
G1 X231.929 Y118.383 E24.18714
G1 X232.318 Y118.806 E24.20065
G1 X232.694 Y119.252 E24.21436
G1 X233.136 Y119.839 E24.23164
G1 X233.447 Y120.349 E24.24569
G1 X233.732 Y120.867 E24.25959
G1 X234.051 Y121.529 E24.27687
G1 X234.253 Y122.084 E24.29075
G1 X234.429 Y122.64 E24.30447
G1 X234.613 Y123.351 E24.32174
G1 X234.703 Y123.93 E24.33551
G1 X234.768 Y124.514 E24.34933
G1 X234.809 Y125.259 E24.36687
G1 X234.814 Y146.297 E24.86154
G1 X234.783 Y146.948 E24.87687
G1 X234.73 Y147.497 E24.88984
G1 X234.619 Y148.223 E24.90711
G1 X234.497 Y148.718 E24.91909
G1 X234.335 Y149.28 E24.93285
G1 X234.093 Y149.973 E24.95011
G1 X233.835 Y150.529 E24.96452
G1 X233.563 Y151.051 E24.97836
G1 X233.189 Y151.683 E24.99563
G1 X232.841 Y152.157 E25.00945
G1 X232.471 Y152.618 E25.02335
G1 X231.981 Y153.165 E25.04062
G1 X231.558 Y153.554 E25.05413
G1 X231.112 Y153.93 E25.06785
G1 X230.525 Y154.372 E25.08513
G1 X230.015 Y154.683 E25.09917
G1 X229.497 Y154.968 E25.11307
G1 X228.835 Y155.287 E25.13035
G1 X228.277 Y155.49 E25.14431
G1 X227.72 Y155.666 E25.15805
G1 X227.008 Y155.849 E25.17533
G1 X226.431 Y155.939 E25.18906
G1 X225.846 Y156.004 E25.2029
G1 X225.101 Y156.045 E25.22045
G1 X74.945 Y156.05 E28.7511
G1 X64.937 Y156.05 E28.98642
G1 X64.288 Y156.019 E29.00169
G1 X63.739 Y155.966 E29.01466
G1 X63.013 Y155.855 E29.03193
G1 X62.521 Y155.734 E29.04384
G1 X61.958 Y155.572 E29.05762
G1 X61.265 Y155.331 E29.07487
G1 X60.701 Y155.069 E29.08949
G1 X60.18 Y154.797 E29.10331
G1 X59.548 Y154.422 E29.12059
G1 X59.079 Y154.077 E29.13428
G1 X58.618 Y153.707 E29.14818
G1 X58.071 Y153.217 E29.16545
G1 X57.682 Y152.794 E29.17896
G1 X57.306 Y152.348 E29.19268
G1 X56.864 Y151.761 E29.20996
G1 X56.553 Y151.251 E29.224
G1 X56.268 Y150.733 E29.2379
G1 X55.949 Y150.071 E29.25518
G1 X55.746 Y149.513 E29.26914
G1 X55.57 Y148.956 E29.28288
G1 X55.387 Y148.244 E29.30016
G1 X55.298 Y147.67 E29.31382
G1 X55.233 Y147.087 E29.32761
G1 X55.191 Y146.341 E29.34518
G1 X55.186 Y125.303 E29.83985
G1 X55.217 Y124.654 E29.85513
G1 X55.27 Y124.104 E29.86812
G1 X55.38 Y123.377 E29.88541
G1 X55.504 Y122.878 E29.8975
G1 X55.666 Y122.317 E29.91123
G1 X55.908 Y121.624 E29.92849
G1 X56.165 Y121.071 E29.94283
G1 X56.437 Y120.549 E29.95667
G1 X56.811 Y119.917 E29.97394
G1 X57.159 Y119.443 E29.98776
G1 X57.529 Y118.982 E30.00166
G1 X58.019 Y118.435 E30.01893
G1 X58.442 Y118.046 E30.03244
G1 X58.888 Y117.67 E30.04616
G1 X59.475 Y117.228 E30.06344
G1 X59.985 Y116.917 E30.07748
G1 X60.503 Y116.632 E30.09138
G0 F3600 X60.744 Y117.07
G1 F1800 X61.382 Y116.765 E30.10801
G1 X61.874 Y116.586 E30.12032
G1 X62.431 Y116.41 E30.13406
G1 X63.116 Y116.236 E30.15067
G1 X63.624 Y116.158 E30.16276
G1 X64.209 Y116.093 E30.1766
G1 X64.899 Y116.055 E30.19285
G1 X215.055 Y116.05 E33.7235
G1 X225.063 Y116.05 E33.95882
G1 X225.664 Y116.079 E33.97296
G1 X226.213 Y116.132 E33.98593
G1 X226.911 Y116.24 E34.00254
G1 X227.905 Y116.51 E34.02676
G1 X228.572 Y116.743 E34.04337
G1 X229.062 Y116.972 E34.05609
G1 X229.584 Y117.244 E34.06993
G1 X230.191 Y117.606 E34.08655
G1 X230.608 Y117.913 E34.09872
G1 X231.069 Y118.283 E34.11262
G1 X231.594 Y118.756 E34.12924
G1 X231.935 Y119.129 E34.14112
G1 X232.311 Y119.575 E34.15484
G1 X232.736 Y120.14 E34.17146
G1 X233.009 Y120.59 E34.18384
G1 X233.294 Y121.108 E34.19774
G1 X233.599 Y121.746 E34.21437
G1 X233.777 Y122.235 E34.2266
G1 X233.953 Y122.791 E34.24031
G1 X234.127 Y123.476 E34.25693
G1 X234.206 Y123.986 E34.26907
G1 X234.271 Y124.57 E34.28288
G1 X234.309 Y125.26 E34.29913
G1 X234.314 Y146.298 E34.7938
G1 X234.285 Y146.9 E34.80797
G1 X234.232 Y147.449 E34.82094
G1 X234.124 Y148.147 E34.83755
G1 X233.854 Y149.141 E34.86177
G1 X233.621 Y149.808 E34.87838
G1 X233.392 Y150.298 E34.8911
G1 X233.12 Y150.82 E34.90494
G1 X232.758 Y151.427 E34.92156
G1 X232.451 Y151.844 E34.93373
G1 X232.081 Y152.305 E34.94763
G1 X231.608 Y152.83 E34.96425
G1 X231.235 Y153.171 E34.97613
G1 X230.789 Y153.547 E34.98985
G1 X230.224 Y153.972 E35.00647
G1 X229.774 Y154.245 E35.01885
G1 X229.256 Y154.53 E35.03275
G1 X228.618 Y154.835 E35.04938
G1 X228.126 Y155.014 E35.06169
G1 X227.569 Y155.19 E35.07542
G1 X226.884 Y155.364 E35.09204
G1 X226.376 Y155.442 E35.10412
G1 X225.791 Y155.507 E35.11796
G1 X225.101 Y155.545 E35.13421
G1 X74.945 Y155.55 E38.66486
G1 X64.937 Y155.55 E38.90018
G1 X64.336 Y155.521 E38.91433
G1 X63.787 Y155.468 E38.9273
G1 X63.089 Y155.36 E38.9439
G1 X62.097 Y155.091 E38.96807
G1 X61.43 Y154.858 E38.98468
G1 X60.933 Y154.625 E38.99759
G1 X60.412 Y154.353 E39.01141
G1 X59.804 Y153.991 E39.02805
G1 X59.392 Y153.687 E39.04009
G1 X58.931 Y153.317 E39.05399
G1 X58.406 Y152.844 E39.0706
G1 X58.065 Y152.471 E39.08249
G1 X57.689 Y152.025 E39.0962
G1 X57.264 Y151.46 E39.11283
G1 X56.991 Y151.01 E39.1252
G1 X56.706 Y150.492 E39.1391
G1 X56.401 Y149.854 E39.15573
G1 X56.222 Y149.362 E39.16804
G1 X56.046 Y148.805 E39.18178
G1 X55.872 Y148.12 E39.19839
G1 X55.794 Y147.615 E39.21041
G1 X55.729 Y147.032 E39.2242
G1 X55.691 Y146.34 E39.2405
G1 X55.686 Y125.302 E39.73517
G1 X55.715 Y124.702 E39.74929
G1 X55.768 Y124.152 E39.76229
G1 X55.875 Y123.453 E39.77891
G1 X56.146 Y122.456 E39.80321
G1 X56.381 Y121.789 E39.81983
G1 X56.608 Y121.302 E39.83247
G1 X56.88 Y120.78 E39.84631
G1 X57.242 Y120.173 E39.86293
G1 X57.549 Y119.756 E39.8751
G1 X57.919 Y119.295 E39.889
G1 X58.392 Y118.77 E39.90562
G1 X58.765 Y118.429 E39.9175
G1 X59.211 Y118.053 E39.93122
G1 X59.776 Y117.628 E39.94784
G1 X60.226 Y117.355 E39.96022
G1 X60.744 Y117.07 E39.97412
G0 F3600 X60.985 Y117.508
G1 F1800 X61.597 Y117.217 E39.99005
G1 X62.582 Y116.887 E40.01448
G1 X63.239 Y116.721 E40.03041
G1 X64.264 Y116.59 E40.05471
G1 X64.899 Y116.555 E40.06966
G1 X215.055 Y116.55 E43.60031
G1 X225.063 Y116.55 E43.83563
G1 X225.616 Y116.577 E43.84865
G1 X226.165 Y116.63 E43.86162
G1 X226.834 Y116.734 E43.87753
G1 X227.767 Y116.99 E43.90028
G1 X228.406 Y117.216 E43.91622
G1 X229.353 Y117.688 E43.9411
G1 X229.935 Y118.036 E43.95704
G1 X230.756 Y118.673 E43.98148
G1 X231.259 Y119.127 E43.99741
G1 X231.929 Y119.897 E44.02141
G1 X232.335 Y120.44 E44.03735
G1 X232.856 Y121.349 E44.06199
G1 X233.147 Y121.961 E44.07792
G1 X233.476 Y122.942 E44.10225
G1 X233.642 Y123.599 E44.11818
G1 X233.774 Y124.625 E44.14251
G1 X233.809 Y125.26 E44.15746
G1 X233.814 Y146.298 E44.65213
G1 X233.787 Y146.852 E44.66517
G1 X233.734 Y147.401 E44.67814
G1 X233.63 Y148.07 E44.69406
G1 X233.374 Y149.003 E44.71681
G1 X233.148 Y149.642 E44.73275
G1 X232.676 Y150.589 E44.75763
G1 X232.328 Y151.171 E44.77357
G1 X231.691 Y151.992 E44.798
G1 X231.237 Y152.495 E44.81394
G1 X230.467 Y153.165 E44.83794
G1 X229.924 Y153.571 E44.85388
G1 X229.015 Y154.092 E44.87851
G1 X228.403 Y154.383 E44.89445
G1 X227.418 Y154.713 E44.91887
G1 X226.761 Y154.879 E44.93481
G1 X225.736 Y155.01 E44.9591
G1 X225.101 Y155.045 E44.97406
G1 X74.945 Y155.05 E48.5047
G1 X64.937 Y155.05 E48.74002
G1 X64.384 Y155.023 E48.75304
G1 X63.835 Y154.97 E48.76601
G1 X63.166 Y154.866 E48.78193
G1 X62.235 Y154.611 E48.80463
G1 X61.596 Y154.385 E48.82056
G1 X60.643 Y153.91 E48.8456
G1 X60.061 Y153.562 E48.86155
G1 X59.244 Y152.927 E48.88588
G1 X58.741 Y152.473 E48.90181
G1 X58.071 Y151.703 E48.92581
G1 X57.665 Y151.16 E48.94175
G1 X57.144 Y150.251 E48.96639
G1 X56.853 Y149.639 E48.98232
G1 X56.523 Y148.654 E49.00675
G1 X56.357 Y147.997 E49.02268
G1 X56.226 Y146.976 E49.04688
G1 X56.191 Y146.34 E49.06186
G1 X56.186 Y125.302 E49.55653
G1 X56.213 Y124.749 E49.56955
G1 X56.266 Y124.199 E49.58254
G1 X56.37 Y123.53 E49.59846
G1 X56.627 Y122.595 E49.62126
G1 X56.853 Y121.956 E49.6372
G1 X57.324 Y121.011 E49.66202
G1 X57.672 Y120.429 E49.67797
G1 X58.309 Y119.608 E49.7024
G1 X58.763 Y119.105 E49.71833
G1 X59.533 Y118.435 E49.74233
G1 X60.076 Y118.029 E49.75828
G1 X60.985 Y117.508 E49.78291
G0 F3600 X61.226 Y117.946
G1 F1800 X61.812 Y117.67 E49.79814
G1 X62.732 Y117.364 E49.82094
G1 X63.361 Y117.207 E49.83618
G1 X64.319 Y117.087 E49.85888
G1 X64.899 Y117.055 E49.87254
G1 X215.055 Y117.05 E53.40319
G1 X225.063 Y117.05 E53.63851
G1 X225.567 Y117.074 E53.65037
G1 X226.116 Y117.127 E53.66334
G1 X227.066 Y117.308 E53.68608
