;Generated by Cura LulzBot Edition GCodeWriter Version: 3.6.21
;FLAVOR:Marlin
;TIME:4038
;Filament used: 2.76935m
;Layer height: 0.38
;Generated with Cura_SteamEngine 3.6.21
M82 ;absolute extrusion mode
;This G-Code has been generated specifically for the LulzBot TAZ 5 with standard extruder
M75			 ; start GLCD timer
M140 S110.0    ; start bed heating up
G90                      ; absolute positioning
M107                     ; disable fans
M82                      ; set extruder to absolute mode
G28 X0 Y0                ; home X and Y
G28 Z0                   ; home Z
G1 Z15.0 F175 ; move extruder up
M117 Heating...                     ; progress indicator message on LCD
M109 R245  ; wait for extruder to reach printing temp
M190 R110.0    ; wait for bed to reach printing temp
G92 E0                   ; set extruder position to 0
G1 F200 E0               ; prime the nozzle with filament
G92 E0                   ; re-set extruder position to 0
G1 F175       ; set travel speed
M203 X192 Y208 Z3        ; set limits on travel speed
M117 TAZ 5 Printing...   ; progress indicator message on LCD

M221 S100 T0
G92 E0
G1 F600 E-1
;LAYER_COUNT:106
;LAYER:0
M107
G0 F2625 X74.095 Y98.961 Z0.425
;TYPE:SKIRT
G1 F600 E0
G1 F900 X74.266 Y98.833 E0.00712
G1 X76.319 Y97.401 E0.09049
G1 X76.505 Y97.28 E0.09789
G1 X78.694 Y95.966 E0.18293
G1 X78.886 Y95.86 E0.19024
G1 X81.128 Y94.712 E0.27414
G1 X81.375 Y94.598 E0.2832
G1 X84.866 Y93.165 E0.4089
G1 X85.176 Y93.056 E0.41985
G1 X88.857 Y91.965 E0.54774
G1 X89.071 Y91.91 E0.5551
G1 X90.317 Y91.631 E0.59763
G1 X90.536 Y91.589 E0.60506
G1 X94.292 Y91.015 E0.73162
G1 X94.564 Y90.985 E0.74074
G1 X97.092 Y90.814 E0.82514
G1 X97.311 Y90.807 E0.83244
G1 X99.853 Y90.807 E0.91711
G1 X100.072 Y90.814 E0.92441
G1 X102.579 Y90.983 E1.00811
G1 X102.797 Y91.006 E1.01541
G1 X105.345 Y91.352 E1.10107
G1 X105.563 Y91.389 E1.10843
G1 X108.028 Y91.896 E1.19226
G1 X108.239 Y91.947 E1.19949
G1 X110.654 Y92.615 E1.28296
G1 X110.863 Y92.68 E1.29025
G1 X113.249 Y93.516 E1.37446
G1 X113.456 Y93.596 E1.38185
G1 X115.837 Y94.618 E1.46816
G1 X116.036 Y94.712 E1.4755
G1 X118.286 Y95.864 E1.5597
G1 X118.48 Y95.972 E1.56709
G1 X120.662 Y97.284 E1.6519
G1 X120.775 Y97.355 E1.65635
G1 X124.588 Y99.867 E1.80845
G1 X129.29 Y102.652 E1.99048
G1 X134.169 Y105.181 E2.17354
G1 X139.139 Y107.41 E2.35498
G1 X144.264 Y109.369 E2.53774
G1 X149.489 Y111.034 E2.72041
G1 X154.831 Y112.409 E2.90416
G1 X157.414 Y112.956 E2.99211
G1 X162.856 Y113.874 E3.17594
G1 X168.302 Y114.478 E3.35846
G1 X175.121 Y114.884 E3.58601
G1 X175.563 Y114.941 E3.60085
G1 X177.887 Y115.404 E3.67979
G1 X178.366 Y115.538 E3.69636
G1 X180.734 Y116.402 E3.78032
G1 X181.173 Y116.6 E3.79636
G1 X183.149 Y117.675 E3.87129
G1 X183.483 Y117.884 E3.88442
G1 X184.751 Y118.788 E3.93629
G1 X185.056 Y119.034 E3.94934
G1 X186.763 Y120.593 E4.02635
G1 X187.098 Y120.949 E4.04263
G1 X188.665 Y122.886 E4.12563
G1 X188.948 Y123.298 E4.14227
G1 X190.166 Y125.395 E4.22305
G1 X190.337 Y125.732 E4.23564
G1 X190.857 Y126.929 E4.27911
G1 X190.954 Y127.182 E4.28814
G1 X191.374 Y128.423 E4.33178
G1 X191.459 Y128.719 E4.34204
G1 X191.86 Y130.419 E4.40022
G1 X191.917 Y130.722 E4.41049
G1 X192.088 Y131.964 E4.45225
G1 X192.112 Y132.218 E4.46075
G1 X192.186 Y133.485 E4.50303
G1 X192.191 Y133.744 E4.51166
G1 X192.163 Y135.04 E4.55484
G1 X192.134 Y135.412 E4.56727
G1 X191.815 Y137.735 E4.64537
G1 X191.711 Y138.218 E4.66183
G1 X190.998 Y140.619 E4.74526
G1 X190.844 Y141.031 E4.75991
G1 X190.094 Y142.693 E4.82065
G1 X189.949 Y142.977 E4.83127
G1 X189.3 Y144.105 E4.87462
G1 X189.162 Y144.324 E4.88324
G1 X188.451 Y145.359 E4.92507
G1 X188.22 Y145.656 E4.9376
G1 X186.639 Y147.467 E5.01768
G1 X186.287 Y147.813 E5.03412
G1 X184.407 Y149.4 E5.11608
G1 X184.006 Y149.69 E5.13256
G1 X181.938 Y150.954 E5.2133
G1 X181.637 Y151.117 E5.2247
G1 X180.586 Y151.616 E5.26345
G1 X180.296 Y151.737 E5.27392
G1 X178.92 Y152.234 E5.32265
G1 X178.619 Y152.326 E5.33314
G1 X176.808 Y152.788 E5.39539
G1 X176.436 Y152.86 E5.40802
G1 X174.636 Y153.101 E5.46851
G1 X174.202 Y153.13 E5.483
G1 X167.13 Y153.124 E5.71857
G1 X161.631 Y153.37 E5.90193
G1 X156.209 Y153.922 E6.08347
G1 X150.794 Y154.785 E6.26612
G1 X145.427 Y155.954 E6.44909
G1 X142.813 Y156.641 E6.53912
G1 X137.576 Y158.257 E6.72168
G1 X132.436 Y160.168 E6.90435
G1 X127.438 Y162.356 E7.08609
G1 X122.524 Y164.847 E7.2696
G1 X118.416 Y167.181 E7.42699
G1 X118.293 Y167.247 E7.43164
G1 X116.037 Y168.403 E7.51608
G1 X115.786 Y168.519 E7.52529
G1 X112.229 Y169.975 E7.65331
G1 X111.969 Y170.069 E7.66252
G1 X109.557 Y170.824 E7.74671
G1 X109.347 Y170.882 E7.75397
G1 X106.888 Y171.474 E7.83822
G1 X106.672 Y171.518 E7.84556
G1 X104.15 Y171.947 E7.93078
G1 X103.93 Y171.977 E7.93817
G1 X101.405 Y172.231 E8.02271
G1 X101.189 Y172.245 E8.02992
G1 X98.691 Y172.329 E8.11317
G1 X98.473 Y172.329 E8.12043
G1 X95.949 Y172.244 E8.20456
G1 X95.73 Y172.229 E8.21187
G1 X93.22 Y171.974 E8.29591
G1 X92.948 Y171.935 E8.30506
G1 X89.172 Y171.226 E8.43304
G1 X88.851 Y171.149 E8.44404
G1 X85.236 Y170.081 E8.5696
G1 X84.925 Y169.971 E8.58059
G1 X81.377 Y168.517 E8.70831
G1 X81.129 Y168.403 E8.7174
G1 X78.887 Y167.256 E8.80129
G1 X78.694 Y167.15 E8.80863
G1 X76.505 Y165.836 E8.89367
G1 X76.318 Y165.714 E8.90111
G1 X74.264 Y164.281 E8.98453
G1 X74.094 Y164.154 E8.9916
G1 X72.111 Y162.568 E9.07618
G1 X71.942 Y162.423 E9.0836
G1 X70.059 Y160.692 E9.1688
G1 X69.902 Y160.538 E9.17613
G1 X68.179 Y158.725 E9.25944
G1 X68.034 Y158.561 E9.26673
G1 X66.407 Y156.6 E9.35161
G1 X66.271 Y156.425 E9.35899
G1 X64.782 Y154.358 E9.44385
G1 X64.661 Y154.177 E9.4511
G1 X63.338 Y152.054 E9.53443
G1 X63.23 Y151.867 E9.54162
G1 X62.047 Y149.654 E9.62521
G1 X61.949 Y149.456 E9.63257
G1 X60.892 Y147.107 E9.71837
G1 X60.808 Y146.902 E9.72575
G1 X59.925 Y144.519 E9.8104
G1 X59.856 Y144.31 E9.81773
G1 X59.139 Y141.881 E9.9021
G1 X59.073 Y141.616 E9.91119
G1 X58.314 Y137.928 E10.03662
G1 X58.27 Y137.658 E10.04573
G1 X57.968 Y135.126 E10.13067
G1 X57.949 Y134.908 E10.13796
G1 X57.819 Y132.376 E10.22241
G1 X57.815 Y132.155 E10.22977
G1 X57.857 Y129.614 E10.31443
G1 X57.868 Y129.395 E10.32173
G1 X58.079 Y126.888 E10.40553
G1 X58.105 Y126.673 E10.41275
G1 X58.484 Y124.178 E10.49681
G1 X58.524 Y123.961 E10.50416
G1 X59.078 Y121.467 E10.58926
G1 X59.134 Y121.253 E10.59663
G1 X59.853 Y118.815 E10.6813
G1 X59.922 Y118.605 E10.68866
G1 X60.808 Y116.213 E10.77363
G1 X60.892 Y116.008 E10.78101
G1 X61.949 Y113.659 E10.86681
G1 X62.046 Y113.461 E10.87416
G1 X63.223 Y111.258 E10.95736
G1 X63.332 Y111.071 E10.96457
G1 X64.659 Y108.941 E11.04816
G1 X64.781 Y108.759 E11.05546
G1 X66.273 Y106.69 E11.14043
G1 X66.408 Y106.516 E11.14777
G1 X68.035 Y104.555 E11.23264
G1 X68.18 Y104.391 E11.23993
G1 X69.903 Y102.578 E11.32325
G1 X70.059 Y102.425 E11.33053
G1 X71.942 Y100.693 E11.41575
G1 X72.112 Y100.547 E11.42321
G1 X74.095 Y98.961 E11.5078
G1 F600 E10.5078
;MESH:
G0 F2625 X76.219 Y100.593
G0 X77.077 Y101.742
G0 X106.172 Y120.986
G0 X107.408 Y121.912
G0 X107.341 Y121.985
;TYPE:WALL-INNER
G1 F600 E11.5078
G1 F900 X106.758 Y121.484 E11.5334
G1 X106.149 Y121.018 E11.55894
G1 X105.511 Y120.588 E11.58457
G1 X104.85 Y120.197 E11.61016
G1 X104.166 Y119.846 E11.63576
G1 X103.463 Y119.535 E11.66137
G1 X102.742 Y119.268 E11.68698
G1 X102.009 Y119.044 E11.71251
G1 X101.262 Y118.862 E11.73812
G1 X100.506 Y118.727 E11.7637
G1 X99.743 Y118.635 E11.7893
G1 X98.976 Y118.589 E11.8149
G1 X98.187 Y118.59 E11.84118
G1 X97.421 Y118.636 E11.86674
G1 X96.658 Y118.728 E11.89234
G1 X95.903 Y118.863 E11.91789
G1 X95.156 Y119.045 E11.9435
G1 X94.422 Y119.269 E11.96906
G1 X93.701 Y119.536 E11.99468
G1 X92.999 Y119.847 E12.02025
G1 X92.314 Y120.198 E12.04589
G1 X91.654 Y120.589 E12.07144
G1 X91.016 Y121.019 E12.09707
G1 X90.407 Y121.484 E12.12259
G1 X89.824 Y121.985 E12.1482
G1 X89.273 Y122.52 E12.17378
G1 X88.753 Y123.086 E12.19938
G1 X88.269 Y123.682 E12.22496
G1 X87.821 Y124.307 E12.25057
G1 X87.411 Y124.957 E12.27617
G1 X87.04 Y125.629 E12.30174
G1 X86.709 Y126.322 E12.32733
G1 X86.42 Y127.035 E12.35295
G1 X86.175 Y127.763 E12.37854
G1 X85.971 Y128.502 E12.40408
G1 X85.813 Y129.255 E12.4297
G1 X85.698 Y130.014 E12.45528
G1 X85.63 Y130.78 E12.48089
G1 X85.608 Y131.568 E12.50715
G1 X85.631 Y132.336 E12.53274
G1 X85.699 Y133.101 E12.55833
G1 X85.814 Y133.86 E12.5839
G1 X85.972 Y134.613 E12.60953
G1 X86.176 Y135.352 E12.63506
G1 X86.421 Y136.08 E12.66065
G1 X86.71 Y136.792 E12.68625
G1 X87.041 Y137.486 E12.71186
G1 X87.412 Y138.157 E12.7374
G1 X87.822 Y138.808 E12.76303
G1 X88.27 Y139.431 E12.78859
G1 X88.753 Y140.028 E12.81417
G1 X89.272 Y140.595 E12.83977
G1 X89.822 Y141.131 E12.86535
G1 X90.406 Y141.633 E12.89101
G1 X91.015 Y142.098 E12.91653
G1 X91.653 Y142.528 E12.94216
G1 X92.313 Y142.919 E12.96771
G1 X92.998 Y143.271 E12.99336
G1 X93.7 Y143.58 E13.01891
G1 X94.421 Y143.848 E13.04454
G1 X95.155 Y144.071 E13.07009
G1 X95.902 Y144.253 E13.0957
G1 X96.657 Y144.389 E13.12125
G1 X97.42 Y144.481 E13.14685
G1 X98.187 Y144.527 E13.17245
G1 X98.976 Y144.526 E13.19873
G1 X99.742 Y144.48 E13.22429
G1 X100.505 Y144.388 E13.24989
G1 X101.261 Y144.252 E13.27548
G1 X102.008 Y144.07 E13.30109
G1 X102.741 Y143.847 E13.32661
G1 X103.462 Y143.579 E13.35223
G1 X104.165 Y143.27 E13.37781
G1 X104.849 Y142.918 E13.40344
G1 X105.51 Y142.527 E13.42902
G1 X106.148 Y142.097 E13.45465
G1 X106.757 Y141.632 E13.48017
G1 X107.34 Y141.131 E13.50578
G1 X107.89 Y140.596 E13.53133
G1 X108.41 Y140.03 E13.55694
G1 X108.895 Y139.433 E13.58256
G1 X109.342 Y138.809 E13.60813
G1 X109.752 Y138.158 E13.63375
G1 X110.123 Y137.487 E13.6593
G1 X110.454 Y136.793 E13.68491
G1 X110.743 Y136.081 E13.7105
G1 X110.989 Y135.353 E13.7361
G1 X111.192 Y134.614 E13.76163
G1 X111.35 Y133.861 E13.78726
G1 X111.465 Y133.102 E13.81283
G1 X111.533 Y132.337 E13.83841
G1 X111.556 Y131.548 E13.8647
G1 X111.532 Y130.78 E13.8903
G1 X111.464 Y130.015 E13.91588
G1 X111.349 Y129.256 E13.94145
G1 X111.191 Y128.503 E13.96708
G1 X110.988 Y127.764 E13.99261
G1 X110.742 Y127.036 E14.01821
G1 X110.453 Y126.323 E14.04383
G1 X110.122 Y125.63 E14.06942
G1 X109.751 Y124.958 E14.09499
G1 X109.341 Y124.308 E14.12059
G1 X108.894 Y123.683 E14.14618
G1 X108.409 Y123.087 E14.17178
G1 X107.891 Y122.521 E14.19733
G1 X107.341 Y121.985 E14.22292
G0 F2625 X107.408 Y121.912
G0 X108.925 Y123.659
G0 X109.785 Y124.938
G0 X110.489 Y126.307
G0 X111.026 Y127.753
G0 X111.23 Y128.6
G0 X117.975 Y162.695
G0 X118.027 Y162.779
G1 F900 X116.975 Y163.41 E14.26378
G1 X115.89 Y164.013 E14.30513
G1 X114.784 Y164.579 E14.34651
G1 X113.656 Y165.109 E14.38803
G1 X112.503 Y165.603 E14.42981
G1 X111.368 Y166.045 E14.47038
G1 X110.171 Y166.465 E14.51264
G1 X109.003 Y166.832 E14.55342
G1 X107.796 Y167.166 E14.59514
G1 X106.601 Y167.454 E14.63608
G1 X105.367 Y167.708 E14.67805
G1 X104.165 Y167.914 E14.71867
G1 X102.91 Y168.084 E14.76086
G1 X101.689 Y168.208 E14.80174
G1 X100.454 Y168.291 E14.84297
G1 X99.191 Y168.334 E14.88507
G1 X97.973 Y168.334 E14.92564
G1 X96.708 Y168.291 E14.9678
G1 X95.474 Y168.209 E15.009
G1 X94.253 Y168.083 E15.04988
G1 X92.999 Y167.914 E15.09203
G1 X91.796 Y167.708 E15.13269
G1 X90.562 Y167.454 E15.17466
G1 X89.368 Y167.166 E15.21557
G1 X88.169 Y166.834 E15.25701
G1 X86.977 Y166.46 E15.29863
G1 X85.801 Y166.047 E15.34014
G1 X84.646 Y165.597 E15.38143
G1 X83.511 Y165.11 E15.42257
G1 X82.379 Y164.579 E15.46422
G1 X81.274 Y164.013 E15.50558
G1 X80.188 Y163.41 E15.54696
G1 X79.136 Y162.779 E15.58782
G1 X78.072 Y162.09 E15.63004
G1 X77.066 Y161.39 E15.67087
G1 X76.061 Y160.639 E15.71266
G1 X75.095 Y159.864 E15.75391
G1 X74.145 Y159.049 E15.79561
G1 X73.243 Y158.22 E15.83642
G1 X72.345 Y157.337 E15.87837
G1 X71.496 Y156.443 E15.91944
G1 X70.665 Y155.507 E15.96113
G1 X69.878 Y154.558 E16.0022
G1 X69.121 Y153.58 E16.04339
G1 X68.385 Y152.56 E16.08529
G1 X67.703 Y151.542 E16.12611
G1 X67.036 Y150.473 E16.16808
G1 X66.419 Y149.405 E16.20916
G1 X65.84 Y148.315 E16.25028
G1 X65.284 Y147.185 E16.29223
G1 X64.776 Y146.052 E16.33359
G1 X64.306 Y144.902 E16.37497
G1 X63.88 Y143.752 E16.41582
G1 X63.486 Y142.565 E16.45748
G1 X63.132 Y141.365 E16.49916
G1 X62.821 Y140.163 E16.54052
G1 X62.55 Y138.95 E16.58192
G1 X62.324 Y137.746 E16.62272
G1 X62.136 Y136.517 E16.66414
G1 X61.988 Y135.267 E16.70607
G1 X61.884 Y134.037 E16.74718
G1 X61.822 Y132.804 E16.78831
G1 X61.8 Y131.571 E16.82939
G1 X61.822 Y130.312 E16.87133
G1 X61.884 Y129.079 E16.91245
G1 X61.988 Y127.849 E16.95357
G1 X62.136 Y126.599 E16.9955
G1 X62.324 Y125.37 E17.03692
G1 X62.55 Y124.166 E17.07772
G1 X62.821 Y122.952 E17.11916
G1 X63.132 Y121.75 E17.16051
G1 X63.486 Y120.551 E17.20216
G1 X63.88 Y119.364 E17.24382
G1 X64.306 Y118.214 E17.28467
G1 X64.776 Y117.064 E17.32605
G1 X65.284 Y115.931 E17.36741
G1 X65.84 Y114.801 E17.40936
G1 X66.416 Y113.718 E17.45022
G1 X67.041 Y112.635 E17.49187
G1 X67.703 Y111.574 E17.53353
G1 X68.385 Y110.556 E17.57435
G1 X69.122 Y109.535 E17.61629
G1 X69.878 Y108.558 E17.65744
G1 X70.665 Y107.609 E17.69851
G1 X71.496 Y106.673 E17.7402
G1 X72.345 Y105.779 E17.78127
G1 X73.243 Y104.896 E17.82322
G1 X74.145 Y104.067 E17.86403
G1 X75.095 Y103.252 E17.90572
G1 X76.059 Y102.479 E17.94688
G1 X77.066 Y101.726 E17.98877
G1 X78.072 Y101.026 E18.02959
G1 X79.136 Y100.337 E18.07182
G1 X80.193 Y99.703 E18.11287
G1 X81.274 Y99.103 E18.15406
G1 X82.38 Y98.537 E18.19544
G1 X83.512 Y98.005 E18.23711
G1 X84.661 Y97.513 E18.27874
G1 X85.801 Y97.069 E18.31949
G1 X86.983 Y96.653 E18.36123
G1 X88.161 Y96.284 E18.40235
G1 X89.375 Y95.947 E18.44432
G1 X90.562 Y95.661 E18.48499
G1 X91.796 Y95.408 E18.52695
G1 X93.016 Y95.199 E18.56818
G1 X94.241 Y95.032 E18.60937
G1 X95.474 Y94.907 E18.65065
G1 X96.708 Y94.825 E18.69184
G1 X97.973 Y94.782 E18.73401
G1 X99.191 Y94.782 E18.77458
G1 X100.456 Y94.825 E18.81674
G1 X101.69 Y94.907 E18.85793
G1 X102.918 Y95.032 E18.89905
G1 X104.148 Y95.2 E18.9404
G1 X105.367 Y95.408 E18.9816
G1 X106.601 Y95.661 E19.02356
G1 X107.789 Y95.947 E19.06426
G1 X109.003 Y96.284 E19.10623
G1 X110.18 Y96.653 E19.14731
G1 X111.368 Y97.071 E19.18927
G1 X112.519 Y97.519 E19.23041
G1 X113.653 Y98.006 E19.27152
G1 X114.785 Y98.537 E19.31317
G1 X115.89 Y99.103 E19.35452
G1 X116.97 Y99.703 E19.39568
G1 X118.027 Y100.337 E19.43673
G1 X119.091 Y101.026 E19.47896
G1 X120.105 Y101.731 E19.5201
G1 X121.092 Y102.469 E19.56115
G1 X122.057 Y103.242 E19.60233
G1 X123.019 Y104.067 E19.64455
G1 X123.92 Y104.896 E19.68533
G1 X124.812 Y105.773 E19.727
G1 X125.656 Y106.661 E19.76781
G1 X126.493 Y107.603 E19.80978
G1 X127.286 Y108.558 E19.85113
G1 X128.036 Y109.527 E19.89195
G1 X128.763 Y110.535 E19.93335
G1 X129.461 Y111.574 E19.97504
G1 X130.114 Y112.62 E20.01612
G1 X130.743 Y113.711 E20.05807
G1 X131.324 Y114.8 E20.09918
G1 X131.868 Y115.907 E20.14027
G1 X132.378 Y117.041 E20.18169
G1 X132.849 Y118.191 E20.22308
G1 X133.28 Y119.356 E20.26446
G1 X133.678 Y120.551 E20.30641
G1 X134.025 Y121.725 E20.34719
G1 X134.337 Y122.928 E20.38859
G1 X134.611 Y124.157 E20.43053
G1 X134.839 Y125.37 E20.47165
G1 X135.029 Y126.608 E20.51337
G1 X135.174 Y127.824 E20.55416
G1 X135.279 Y129.062 E20.59555
G1 X135.342 Y130.302 E20.63691
G1 X135.363 Y131.546 E20.67835
G1 X135.342 Y132.804 E20.72026
G1 X135.28 Y134.037 E20.76138
G1 X135.175 Y135.282 E20.803
G1 X135.03 Y136.5 E20.84386
G1 X134.839 Y137.746 E20.88585
G1 X134.613 Y138.951 E20.92669
G1 X134.343 Y140.163 E20.96805
G1 X134.031 Y141.365 E21.00942
G1 X133.677 Y142.565 E21.05109
G1 X133.283 Y143.752 E21.09275
G1 X132.858 Y144.902 E21.13359
G1 X132.388 Y146.052 E21.17497
G1 X131.879 Y147.186 E21.21638
G1 X131.333 Y148.3 E21.2577
G1 X130.743 Y149.405 E21.29943
G1 X130.114 Y150.495 E21.34135
G1 X129.47 Y151.528 E21.3819
G1 X128.777 Y152.561 E21.42333
G1 X128.042 Y153.581 E21.46521
G1 X127.286 Y154.558 E21.50636
G1 X126.498 Y155.507 E21.54745
G1 X125.667 Y156.443 E21.58915
G1 X124.818 Y157.337 E21.63021
G1 X123.92 Y158.22 E21.67216
G1 X123.019 Y159.049 E21.71295
G1 X122.069 Y159.864 E21.75464
G1 X121.092 Y160.647 E21.79635
G1 X120.112 Y161.38 E21.83711
G1 X119.091 Y162.09 E21.87854
G1 X118.027 Y162.779 E21.92076
G0 F2625 X117.975 Y162.695
