;Generated by Cura LulzBot Edition GCodeWriter Version: 3.6.21
;FLAVOR:Marlin
;TIME:790
;Filament used: 0.228625m
;Layer height: 0.18
;Generated with Cura_SteamEngine 3.6.21
M82 ;absolute extrusion mode
;This G-Code has been generated specifically for the LulzBot TAZ 5 with standard extruder
M75			 ; start GLCD timer
M140 S110.0    ; start bed heating up
G90                      ; absolute positioning
M107                     ; disable fans
M82                      ; set extruder to absolute mode
G28 X0 Y0                ; home X and Y
G28 Z0                   ; home Z
G1 Z15.0 F175 ; move extruder up
M117 Heating...                     ; progress indicator message on LCD
M109 R245  ; wait for extruder to reach printing temp
M190 R110.0    ; wait for bed to reach printing temp
G92 E0                   ; set extruder position to 0
G1 F200 E0               ; prime the nozzle with filament
G92 E0                   ; re-set extruder position to 0
G1 F175       ; set travel speed
M203 X192 Y208 Z3        ; set limits on travel speed
M117 TAZ 5 Printing...   ; progress indicator message on LCD

M221 S100 T0
G92 E0
G1 F600 E-1
;LAYER_COUNT:27
;LAYER:0
M107
;MESH:
G0 F2625 X145.642 Y123.011 Z0.425
;TYPE:WALL-INNER
G1 F600 E0
G1 F900 X146.499 Y123.075 E0.02863
G1 X147.331 Y123.188 E0.0566
G1 X148.169 Y123.353 E0.08505
G1 X149.005 Y123.57 E0.11382
G1 X149.8 Y123.829 E0.14167
G1 X150.613 Y124.146 E0.17073
G1 X151.384 Y124.505 E0.19906
G1 X152.122 Y124.902 E0.22698
G1 X152.842 Y125.347 E0.25517
G1 X153.557 Y125.849 E0.28427
G1 X154.215 Y126.375 E0.31233
G1 X154.856 Y126.952 E0.34106
G1 X155.448 Y127.553 E0.36916
G1 X156.006 Y128.19 E0.39737
G1 X156.523 Y128.859 E0.42554
G1 X157.017 Y129.582 E0.4547
G1 X157.446 Y130.3 E0.48256
G1 X157.845 Y131.07 E0.51145
G1 X158.186 Y131.837 E0.53941
G1 X158.483 Y132.628 E0.56756
G1 X158.742 Y133.464 E0.59671
G1 X158.942 Y134.283 E0.62479
G1 X159.098 Y135.145 E0.65397
G1 X159.194 Y135.947 E0.68088
G1 X159.247 Y136.826 E0.71021
G1 X159.247 Y137.667 E0.73823
G1 X159.194 Y138.538 E0.76729
G1 X159.098 Y139.348 E0.79446
G1 X158.944 Y140.2 E0.8233
G1 X158.743 Y141.025 E0.85159
G1 X158.483 Y141.866 E0.88091
G1 X158.19 Y142.648 E0.90873
G1 X157.845 Y143.423 E0.93699
G1 X157.45 Y144.186 E0.96561
G1 X157.024 Y144.899 E0.99327
G1 X156.533 Y145.62 E1.02233
G1 X156.008 Y146.298 E1.05089
G1 X155.449 Y146.938 E1.0792
G1 X154.857 Y147.539 E1.1073
G1 X154.208 Y148.123 E1.13638
G1 X153.551 Y148.648 E1.1644
G1 X152.854 Y149.139 E1.19279
G1 X152.122 Y149.591 E1.22145
G1 X151.391 Y149.984 E1.2491
G1 X150.605 Y150.348 E1.27795
G1 X149.815 Y150.658 E1.30622
G1 X148.991 Y150.926 E1.33508
G1 X148.173 Y151.139 E1.36324
G1 X147.346 Y151.302 E1.39132
G1 X146.484 Y151.418 E1.42029
G1 X145.642 Y151.481 E1.44841
G1 X144.785 Y151.495 E1.47697
G1 X143.942 Y151.456 E1.50508
G1 X143.093 Y151.368 E1.53351
G1 X142.245 Y151.227 E1.56214
G1 X141.42 Y151.038 E1.59034
G1 X140.599 Y150.798 E1.61883
G1 X139.798 Y150.511 E1.64717
G1 X139.02 Y150.179 E1.67535
G1 X138.251 Y149.794 E1.70399
G1 X137.514 Y149.369 E1.73233
G1 X136.794 Y148.893 E1.76108
G1 X136.118 Y148.387 E1.78921
G1 X135.475 Y147.841 E1.81731
G1 X134.837 Y147.231 E1.84671
G1 X134.269 Y146.618 E1.87455
G1 X133.735 Y145.969 E1.90255
G1 X133.226 Y145.267 E1.93143
G1 X132.775 Y144.561 E1.95934
G1 X132.357 Y143.813 E1.98788
G1 X131.98 Y143.029 E2.01686
G1 X131.665 Y142.259 E2.04457
G1 X131.385 Y141.44 E2.0734
G1 X131.162 Y140.629 E2.10142
G1 X130.98 Y139.777 E2.13044
G1 X130.857 Y138.961 E2.15793
G1 X130.78 Y138.102 E2.18666
G1 X130.753 Y137.254 E2.21492
G1 X130.78 Y136.384 E2.24391
G1 X130.858 Y135.523 E2.27271
G1 X130.978 Y134.724 E2.29962
G1 X131.162 Y133.862 E2.32898
G1 X131.385 Y133.053 E2.35694
G1 X131.665 Y132.234 E2.38577
G1 X131.985 Y131.45 E2.41397
G1 X132.352 Y130.69 E2.44209
G1 X132.775 Y129.932 E2.471
G1 X133.232 Y129.217 E2.49927
G1 X133.724 Y128.538 E2.5272
G1 X134.286 Y127.854 E2.55669
G1 X134.837 Y127.261 E2.58365
G1 X135.465 Y126.66 E2.61261
G1 X136.128 Y126.099 E2.64154
G1 X136.794 Y125.6 E2.66926
G1 X137.52 Y125.12 E2.69825
G1 X138.25 Y124.698 E2.72634
G1 X139.007 Y124.32 E2.75452
G1 X139.804 Y123.979 E2.7834
G1 X140.599 Y123.694 E2.81153
G1 X141.42 Y123.455 E2.84001
G1 X142.245 Y123.266 E2.8682
G1 X143.092 Y123.125 E2.89681
G1 X143.943 Y123.036 E2.92531
G1 X144.785 Y122.998 E2.95338
G1 X145.642 Y123.011 E2.98193
G0 F2625 X145.638 Y123.11
G0 X152.492 Y129.479
G0 X153.543 Y130.652
G0 X154.412 Y131.965
G0 X155.082 Y133.392
G0 X155.535 Y134.901
G0 X155.765 Y136.46
G0 X155.765 Y138.032
G0 X155.535 Y139.592
G0 X155.082 Y141.101
G0 X154.412 Y142.527
G0 X153.543 Y143.841
G0 X152.492 Y145.013
G0 X151.282 Y146.021
G0 X150.193 Y146.685
G0 X148.507 Y147.516
G0 X148.475 Y147.422
G1 F900 X149.208 Y147.14 E3.0081
G1 X149.919 Y146.807 E3.03425
G1 X150.604 Y146.422 E3.06042
G1 X151.259 Y145.989 E3.08658
G1 X151.88 Y145.51 E3.1127
G1 X152.465 Y144.985 E3.13888
G1 X153.01 Y144.42 E3.16503
G1 X153.512 Y143.817 E3.19117
G1 X153.969 Y143.178 E3.21734
G1 X154.378 Y142.508 E3.24349
G1 X154.737 Y141.81 E3.26963
G1 X155.045 Y141.087 E3.29581
G1 X155.298 Y140.343 E3.32199
G1 X155.496 Y139.584 E3.34811
G1 X155.639 Y138.811 E3.3743
G1 X155.726 Y138.03 E3.40048
G1 X155.753 Y137.246 E3.42661
G1 X155.726 Y136.462 E3.45274
G1 X155.639 Y135.68 E3.47895
G1 X155.496 Y134.909 E3.50507
G1 X155.298 Y134.149 E3.53123
G1 X155.045 Y133.406 E3.55737
G1 X154.737 Y132.684 E3.58352
G1 X154.378 Y131.984 E3.60973
G1 X153.969 Y131.315 E3.63585
G1 X153.512 Y130.676 E3.66201
G1 X153.01 Y130.072 E3.68818
G1 X152.465 Y129.507 E3.71432
G1 X151.88 Y128.983 E3.74049
G1 X151.259 Y128.503 E3.76663
G1 X150.604 Y128.069 E3.7928
G1 X149.918 Y127.685 E3.81899
G1 X149.208 Y127.353 E3.8451
G1 X148.475 Y127.072 E3.87125
G1 X147.722 Y126.845 E3.89745
G1 X146.956 Y126.675 E3.92358
G1 X146.179 Y126.56 E3.94975
G1 X145.396 Y126.503 E3.9759
G1 X144.611 Y126.503 E4.00205
G1 X143.828 Y126.56 E4.0282
G1 X143.051 Y126.675 E4.05436
G1 X142.285 Y126.845 E4.0805
G1 X141.532 Y127.072 E4.1067
G1 X140.798 Y127.353 E4.13288
G1 X140.088 Y127.685 E4.15898
G1 X139.403 Y128.069 E4.18514
G1 X138.748 Y128.503 E4.21132
G1 X138.127 Y128.983 E4.23746
G1 X137.542 Y129.507 E4.26362
G1 X136.997 Y130.072 E4.28977
G1 X136.494 Y130.676 E4.31595
G1 X136.037 Y131.315 E4.34212
G1 X135.628 Y131.985 E4.36827
G1 X135.27 Y132.683 E4.3944
G1 X134.962 Y133.406 E4.42058
G1 X134.708 Y134.149 E4.44673
G1 X134.511 Y134.91 E4.47292
G1 X134.368 Y135.68 E4.49901
G1 X134.282 Y136.461 E4.52518
G1 X134.253 Y137.246 E4.55134
G1 X134.282 Y138.031 E4.57751
G1 X134.368 Y138.811 E4.60365
G1 X134.511 Y139.583 E4.6298
G1 X134.708 Y140.343 E4.65596
G1 X134.962 Y141.087 E4.68214
G1 X135.27 Y141.81 E4.70832
G1 X135.628 Y142.506 E4.73439
G1 X136.037 Y143.178 E4.7606
G1 X136.494 Y143.817 E4.78677
G1 X136.998 Y144.42 E4.81294
G1 X137.542 Y144.985 E4.83907
G1 X138.127 Y145.51 E4.86525
G1 X138.748 Y145.989 E4.89138
G1 X139.403 Y146.422 E4.91753
G1 X140.088 Y146.807 E4.94371
G1 X140.798 Y147.14 E4.96983
G1 X141.533 Y147.422 E4.99605
G1 X142.285 Y147.647 E5.0222
G1 X143.051 Y147.818 E5.04834
G1 X143.828 Y147.932 E5.0745
G1 X144.611 Y147.99 E5.10066
G1 X145.396 Y147.99 E5.1268
G1 X146.179 Y147.932 E5.15296
G1 X146.956 Y147.818 E5.17912
G1 X147.722 Y147.647 E5.20526
G1 X148.475 Y147.422 E5.23144
G0 F2625 X148.507 Y147.516
G0 X150.624 Y146.456
G0 X151.905 Y145.54
G0 X153.039 Y144.446
G0 X154.002 Y143.2
G0 X154.773 Y141.826
G0 X155.336 Y140.354
G0 X155.826 Y138.015
G0 X155.227 Y137.994
;TYPE:WALL-OUTER
G1 F900 X155.253 Y137.246 E5.25637
G1 X155.227 Y136.498 E5.2813
G1 X155.144 Y135.753 E5.30627
G1 X155.008 Y135.018 E5.33117
G1 X154.819 Y134.293 E5.35613
G1 X154.578 Y133.585 E5.38104
G1 X154.284 Y132.896 E5.40599
G1 X153.942 Y132.229 E5.43096
G1 X153.552 Y131.591 E5.45587
G1 X153.116 Y130.982 E5.48082
G1 X152.637 Y130.406 E5.50577
G1 X152.118 Y129.867 E5.5307
G1 X151.56 Y129.368 E5.55563
G1 X150.968 Y128.91 E5.58056
G1 X150.343 Y128.496 E5.60554
G1 X149.69 Y128.13 E5.63047
G1 X149.012 Y127.813 E5.6554
G1 X148.313 Y127.545 E5.68034
G1 X147.596 Y127.329 E5.70528
G1 X146.865 Y127.167 E5.73022
G1 X146.124 Y127.057 E5.75518
G1 X145.378 Y127.003 E5.78009
G1 X144.629 Y127.003 E5.80504
G1 X143.883 Y127.057 E5.82996
G1 X143.142 Y127.167 E5.85491
G1 X142.411 Y127.329 E5.87985
G1 X141.694 Y127.545 E5.90479
G1 X140.994 Y127.813 E5.92976
G1 X140.317 Y128.13 E5.95466
G1 X139.664 Y128.496 E5.9796
G1 X139.039 Y128.91 E6.00457
G1 X138.447 Y129.368 E6.0295
G1 X137.889 Y129.867 E6.05444
G1 X137.37 Y130.406 E6.07936
G1 X136.89 Y130.982 E6.10434
G1 X136.454 Y131.591 E6.12929
G1 X136.065 Y132.23 E6.15421
G1 X135.723 Y132.896 E6.17914
G1 X135.429 Y133.585 E6.2041
G1 X135.187 Y134.293 E6.22902
G1 X134.999 Y135.018 E6.25397
G1 X134.863 Y135.753 E6.27887
G1 X134.781 Y136.498 E6.30383
G1 X134.753 Y137.246 E6.32877
G1 X134.781 Y137.994 E6.3537
G1 X134.863 Y138.738 E6.37863
G1 X134.999 Y139.475 E6.4036
G1 X135.187 Y140.199 E6.42852
G1 X135.429 Y140.908 E6.45347
G1 X135.723 Y141.597 E6.47842
G1 X136.065 Y142.262 E6.50333
G1 X136.454 Y142.902 E6.52828
G1 X136.89 Y143.511 E6.55323
G1 X137.37 Y144.086 E6.57818
G1 X137.889 Y144.625 E6.6031
G1 X138.447 Y145.125 E6.62806
G1 X139.039 Y145.582 E6.65297
G1 X139.664 Y145.995 E6.67793
G1 X140.317 Y146.362 E6.70288
G1 X140.994 Y146.68 E6.72779
G1 X141.694 Y146.948 E6.75276
G1 X142.411 Y147.163 E6.7777
G1 X143.142 Y147.326 E6.80264
G1 X143.883 Y147.435 E6.82759
G1 X144.629 Y147.49 E6.85251
G1 X145.378 Y147.49 E6.87746
G1 X146.124 Y147.435 E6.90237
G1 X146.865 Y147.326 E6.92732
G1 X147.596 Y147.163 E6.95227
G1 X148.313 Y146.948 E6.97721
G1 X149.012 Y146.68 E7.00214
G1 X149.69 Y146.362 E7.02709
G1 X150.343 Y145.995 E7.05204
G1 X150.968 Y145.582 E7.07699
G1 X151.56 Y145.125 E7.1019
G1 X152.118 Y144.625 E7.12686
G1 X152.637 Y144.086 E7.15179
G1 X153.116 Y143.511 E7.17672
G1 X153.552 Y142.902 E7.20166
G1 X153.942 Y142.263 E7.2266
G1 X154.284 Y141.597 E7.25154
G1 X154.578 Y140.908 E7.27649
G1 X154.819 Y140.199 E7.30144
G1 X155.008 Y139.475 E7.32636
G1 X155.144 Y138.738 E7.35133
G1 X155.227 Y137.994 E7.37626
G0 F2625 X155.235 Y137.744
G0 X155.835 Y137.764
G0 X155.678 Y135.675
G0 X155.336 Y134.138
G0 X154.773 Y132.668
G0 X154.002 Y131.293
G0 X153.039 Y130.046
G0 X151.905 Y128.953
G0 X150.624 Y128.035
G0 X149.223 Y127.317
G0 X139.84 Y124.072
G0 X139.621 Y123.513
G1 F900 X140.438 Y123.22 E7.40517
G1 X141.286 Y122.973 E7.4346
G1 X142.153 Y122.775 E7.46422
G1 X143.024 Y122.63 E7.49363
G1 X143.903 Y122.538 E7.52307
G1 X144.786 Y122.498 E7.55251
G1 X145.67 Y122.511 E7.58196
G1 X146.537 Y122.576 E7.61093
G1 X147.427 Y122.697 E7.64084
G1 X148.278 Y122.864 E7.66973
G1 X149.138 Y123.088 E7.69933
G1 X149.979 Y123.362 E7.7288
G1 X150.801 Y123.683 E7.75819
G1 X151.608 Y124.058 E7.78783
G1 X152.372 Y124.469 E7.81673
G1 X153.123 Y124.933 E7.84614
G1 X153.857 Y125.449 E7.87603
G1 X154.535 Y125.99 E7.90492
G1 X155.202 Y126.59 E7.9348
G1 X155.811 Y127.209 E7.96373
G1 X156.392 Y127.873 E7.99312
G1 X156.932 Y128.571 E8.02251
G1 X157.438 Y129.312 E8.0524
G1 X157.883 Y130.056 E8.08128
G1 X158.296 Y130.853 E8.11118
G1 X158.649 Y131.646 E8.1401
G1 X158.959 Y132.472 E8.16948
G1 X159.224 Y133.33 E8.1994
G1 X159.43 Y134.173 E8.2283
G1 X159.59 Y135.056 E8.2582
G1 X159.693 Y135.917 E8.28708
G1 X159.747 Y136.813 E8.31698
G1 X159.747 Y137.68 E8.34586
G1 X159.693 Y138.576 E8.37576
G1 X159.59 Y139.437 E8.40465
G1 X159.433 Y140.306 E8.43406
G1 X159.224 Y141.163 E8.46344
G1 X158.96 Y142.016 E8.49319
G1 X158.65 Y142.844 E8.52264
G1 X158.296 Y143.64 E8.55166
G1 X157.89 Y144.423 E8.58104
G1 X157.437 Y145.181 E8.61045
G1 X156.934 Y145.919 E8.6402
G1 X156.396 Y146.615 E8.6695
G1 X155.821 Y147.273 E8.69861
G1 X155.192 Y147.911 E8.72846
G1 X154.537 Y148.501 E8.75782
G1 X153.851 Y149.048 E8.78705
G1 X153.136 Y149.552 E8.81619
G1 X152.372 Y150.024 E8.8461
G1 X151.608 Y150.435 E8.875
G1 X150.801 Y150.809 E8.90463
G1 X149.979 Y151.131 E8.93403
G1 X149.139 Y151.404 E8.96345
G1 X148.279 Y151.628 E8.99306
G1 X147.428 Y151.796 E9.02195
G1 X146.538 Y151.916 E9.05187
G1 X145.67 Y151.981 E9.08086
G1 X144.786 Y151.995 E9.11031
G1 X143.903 Y151.954 E9.13975
G1 X143.024 Y151.863 E9.16919
G1 X142.153 Y151.718 E9.1986
G1 X141.286 Y151.52 E9.22823
G1 X140.438 Y151.272 E9.25766
G1 X139.621 Y150.979 E9.28657
G1 X138.81 Y150.633 E9.31594
G1 X138.014 Y150.234 E9.3456
G1 X137.25 Y149.794 E9.37497
G1 X136.507 Y149.303 E9.40463
G1 X135.813 Y148.783 E9.43352
G1 X135.133 Y148.206 E9.46323
G1 X134.491 Y147.592 E9.49282
G1 X133.893 Y146.948 E9.52209
G1 X133.33 Y146.263 E9.55163
G1 X132.821 Y145.561 E9.58051
G1 X132.338 Y144.805 E9.61039
G1 X131.913 Y144.044 E9.63943
G1 X131.525 Y143.238 E9.66923
G1 X131.197 Y142.436 E9.69809
G1 X130.907 Y141.587 E9.72797
G1 X130.676 Y140.749 E9.75693
G1 X130.489 Y139.873 E9.78677
G1 X130.36 Y139.012 E9.81577
G1 X130.28 Y138.129 E9.8453
G1 X130.253 Y137.254 E9.87446
G1 X130.28 Y136.357 E9.90435
G1 X130.36 Y135.478 E9.93375
G1 X130.489 Y134.62 E9.96266
G1 X130.676 Y133.742 E9.99256
G1 X130.907 Y132.906 E10.02145
G1 X131.197 Y132.057 E10.05133
G1 X131.525 Y131.254 E10.08023
G1 X131.915 Y130.446 E10.11011
G1 X132.338 Y129.688 E10.13903
G1 X132.821 Y128.932 E10.16891
G1 X133.33 Y128.229 E10.19782
G1 X133.9 Y127.536 E10.22771
G1 X134.491 Y126.9 E10.25663
G1 X135.133 Y126.286 E10.28622
G1 X135.813 Y125.71 E10.31591
G1 X136.507 Y125.19 E10.34479
G1 X137.256 Y124.695 E10.3747
G1 X138.007 Y124.261 E10.40359
G1 X138.81 Y123.86 E10.43349
G1 X139.621 Y123.513 E10.46288
G0 F2625 X139.856 Y123.429
G0 X140.057 Y123.994
G0 X139.991 Y124.432
;TYPE:SKIN
G1 F900 X140.75 Y124.16 E10.48973
G1 X141.53 Y123.933 E10.51679
G1 X142.336 Y123.748 E10.54434
G1 X143.159 Y123.611 E10.57213
G1 X143.983 Y123.526 E10.59972
G1 X144.799 Y123.488 E10.62693
G1 X145.631 Y123.501 E10.65465
G1 X146.433 Y123.561 E10.68144
G1 X147.265 Y123.674 E10.70941
G1 X148.05 Y123.828 E10.73606
G1 X148.865 Y124.04 E10.76411
G1 X149.629 Y124.289 E10.79088
G1 X150.413 Y124.594 E10.8189
G1 X151.177 Y124.95 E10.84697
G1 X151.872 Y125.323 E10.87325
G1 X152.567 Y125.753 E10.90047
G1 X153.263 Y126.242 E10.92881
G1 X153.898 Y126.749 E10.95587
G1 X154.528 Y127.316 E10.98411
G1 X155.079 Y127.876 E11.01027
G1 X155.627 Y128.501 E11.03796
G1 X156.135 Y129.159 E11.06565
G1 X156.596 Y129.833 E11.09285
G1 X157.025 Y130.551 E11.12071
G1 X157.404 Y131.283 E11.14817
G1 X157.727 Y132.009 E11.17464
G1 X158.019 Y132.786 E11.20229
G1 X158.27 Y133.595 E11.23051
G1 X158.46 Y134.371 E11.25712
G1 X158.616 Y135.233 E11.2863
G1 X158.704 Y135.976 E11.31122
G1 X158.757 Y136.855 E11.34055
G1 X158.757 Y137.637 E11.3666
G1 X158.704 Y138.508 E11.39567
G1 X158.616 Y139.261 E11.42092
G1 X158.468 Y140.084 E11.44878
G1 X158.272 Y140.889 E11.47637
G1 X158.02 Y141.704 E11.50479
G1 X157.733 Y142.47 E11.53204
G1 X157.405 Y143.207 E11.55891
G1 X157.029 Y143.935 E11.5862
G1 X156.612 Y144.633 E11.61329
G1 X156.138 Y145.329 E11.64134
G1 X155.629 Y145.987 E11.66905
G1 X155.09 Y146.605 E11.69636
G1 X154.529 Y147.175 E11.723
G1 X153.884 Y147.755 E11.7519
G1 X153.257 Y148.256 E11.77863
G1 X152.592 Y148.725 E11.80574
G1 X151.872 Y149.17 E11.83393
G1 X151.185 Y149.539 E11.85991
G1 X150.406 Y149.9 E11.88851
G1 X149.65 Y150.196 E11.91555
G1 X148.854 Y150.455 E11.94344
G1 X148.051 Y150.665 E11.97108
G1 X147.281 Y150.816 E11.99722
G1 X146.419 Y150.932 E12.02619
G1 X145.631 Y150.991 E12.05252
G1 X144.8 Y151.005 E12.0802
G1 X143.981 Y150.966 E12.10751
G1 X143.157 Y150.882 E12.1351
G1 X142.339 Y150.745 E12.16273
G1 X141.53 Y150.56 E12.19037
G1 X140.75 Y150.332 E12.21744
G1 X139.985 Y150.058 E12.24451
G1 X139.24 Y149.74 E12.27149
G1 X138.478 Y149.358 E12.29989
G1 X137.766 Y148.948 E12.32725
G1 X137.075 Y148.491 E12.35485
G1 X136.424 Y148.004 E12.38193
G1 X135.808 Y147.48 E12.40887
G1 X135.176 Y146.876 E12.43799
G1 X134.636 Y146.294 E12.46444
G1 X134.122 Y145.669 E12.49139
G1 X133.631 Y144.991 E12.51928
G1 X133.188 Y144.297 E12.5467
G1 X132.789 Y143.584 E12.57392
G1 X132.431 Y142.836 E12.60154
G1 X132.127 Y142.095 E12.62822
G1 X131.849 Y141.281 E12.65687
G1 X131.638 Y140.513 E12.6834
G1 X131.462 Y139.687 E12.71154
