;Generated by Cura LulzBot Edition GCodeWriter Version: 3.6.21
;FLAVOR:Marlin
;TIME:6255
;Filament used: 2.41642m
;Layer height: 0.18
;Generated with Cura_SteamEngine 3.6.21
M82 ;absolute extrusion mode
;This G-Code has been generated specifically for the LulzBot TAZ 5 with standard extruder
M75			 ; start GLCD timer
M140 S110.0    ; start bed heating up
G90                      ; absolute positioning
M107                     ; disable fans
M82                      ; set extruder to absolute mode
G28 X0 Y0                ; home X and Y
G28 Z0                   ; home Z
G1 Z15.0 F175 ; move extruder up
M117 Heating...                     ; progress indicator message on LCD
M109 R245  ; wait for extruder to reach printing temp
M190 R110.0    ; wait for bed to reach printing temp
G92 E0                   ; set extruder position to 0
G1 F200 E0               ; prime the nozzle with filament
G92 E0                   ; re-set extruder position to 0
G1 F175       ; set travel speed
M203 X192 Y208 Z3        ; set limits on travel speed
M117 TAZ 5 Printing...   ; progress indicator message on LCD

M221 S100 T0
G92 E0
G1 F600 E-1
;LAYER_COUNT:95
;LAYER:0
M107
;MESH:
G0 F2625 X113.504 Y188.165 Z0.425
;TYPE:WALL-INNER
G1 F600 E0
G1 F900 X113.914 Y187.538 E0.02495
G1 X114.293 Y186.877 E0.05034
G1 X114.627 Y186.208 E0.07524
G1 X114.921 Y185.519 E0.1002
G1 X115.175 Y184.815 E0.12513
G1 X115.387 Y184.096 E0.1501
G1 X115.556 Y183.366 E0.17506
G1 X115.683 Y182.628 E0.2
G1 X115.765 Y181.883 E0.22497
G1 X115.803 Y181.135 E0.24991
G1 X115.799 Y180.387 E0.27483
G1 X115.75 Y179.638 E0.29983
G1 X115.656 Y178.895 E0.32478
G1 X115.521 Y178.16 E0.34967
G1 X115.343 Y177.431 E0.37467
G1 X115.122 Y176.715 E0.39963
G1 X114.858 Y176.013 E0.42461
G1 X114.554 Y175.33 E0.44952
G1 X114.211 Y174.664 E0.47447
G1 X113.829 Y174.02 E0.49941
G1 X113.41 Y173.398 E0.52439
G1 X112.956 Y172.803 E0.54932
G1 X112.467 Y172.234 E0.57431
G1 X111.945 Y171.697 E0.59926
G1 X111.394 Y171.191 E0.62418
G1 X110.802 Y170.709 E0.64961
G1 X110.193 Y170.272 E0.67458
G1 X109.562 Y169.872 E0.69946
G1 X108.907 Y169.508 E0.72442
G1 X108.232 Y169.184 E0.74937
G1 X107.538 Y168.9 E0.77434
G1 X106.83 Y168.656 E0.79929
G1 X106.108 Y168.455 E0.82425
G1 X105.376 Y168.296 E0.8492
G1 X104.637 Y168.182 E0.87411
G1 X103.891 Y168.109 E0.89908
G1 X103.143 Y168.082 E0.92401
G1 X102.394 Y168.097 E0.94897
G1 X101.642 Y168.158 E0.9741
G1 X100.898 Y168.261 E0.99912
G1 X100.165 Y168.409 E1.02403
G1 X99.441 Y168.599 E1.04896
G1 X98.728 Y168.831 E1.07394
G1 X98.031 Y169.105 E1.09888
G1 X97.351 Y169.419 E1.12383
G1 X96.69 Y169.772 E1.14879
G1 X96.051 Y170.163 E1.17375
G1 X95.437 Y170.591 E1.19868
G1 X94.848 Y171.056 E1.22368
G1 X94.289 Y171.553 E1.24859
G1 X93.758 Y172.08 E1.27351
G1 X93.259 Y172.641 E1.29852
G1 X92.794 Y173.229 E1.32349
G1 X92.367 Y173.841 E1.34835
G1 X91.974 Y174.479 E1.37331
G1 X91.619 Y175.139 E1.39827
G1 X91.303 Y175.82 E1.42328
G1 X91.029 Y176.517 E1.44823
G1 X90.796 Y177.228 E1.47315
G1 X90.604 Y177.951 E1.49807
G1 X90.456 Y178.688 E1.52311
G1 X90.351 Y179.442 E1.54847
G1 X90.29 Y180.189 E1.57343
G1 X90.274 Y180.937 E1.59836
G1 X90.301 Y181.685 E1.62329
G1 X90.372 Y182.431 E1.64825
G1 X90.487 Y183.172 E1.67323
G1 X90.644 Y183.905 E1.6982
G1 X90.845 Y184.625 E1.7231
G1 X91.088 Y185.334 E1.74807
G1 X91.372 Y186.028 E1.77304
G1 X91.695 Y186.702 E1.79794
G1 X92.059 Y187.359 E1.82296
G1 X92.459 Y187.991 E1.84787
G1 X92.895 Y188.599 E1.87279
G1 X93.367 Y189.181 E1.89776
G1 X93.872 Y189.734 E1.9227
G1 X94.409 Y190.257 E1.94767
G1 X94.977 Y190.747 E1.97266
G1 X95.571 Y191.203 E1.9976
G1 X96.19 Y191.623 E2.02252
G1 X96.834 Y192.006 E2.04748
G1 X97.499 Y192.351 E2.07243
G1 X98.184 Y192.656 E2.09741
G1 X98.885 Y192.92 E2.12236
G1 X99.613 Y193.145 E2.14774
G1 X100.34 Y193.325 E2.17269
G1 X101.075 Y193.462 E2.1976
G1 X101.82 Y193.556 E2.22261
G1 X102.567 Y193.605 E2.24755
G1 X103.316 Y193.611 E2.2725
G1 X104.064 Y193.573 E2.29745
G1 X104.808 Y193.491 E2.32238
G1 X105.547 Y193.365 E2.34735
G1 X106.277 Y193.197 E2.3723
G1 X106.995 Y192.986 E2.39723
G1 X107.699 Y192.734 E2.42214
G1 X108.391 Y192.44 E2.44718
G1 X109.061 Y192.107 E2.47211
G1 X109.712 Y191.734 E2.4971
G1 X110.338 Y191.323 E2.52204
G1 X110.939 Y190.879 E2.54693
G1 X111.515 Y190.398 E2.57193
G1 X112.06 Y189.885 E2.59686
G1 X112.575 Y189.34 E2.62184
G1 X113.055 Y188.766 E2.64676
G1 X113.504 Y188.165 E2.67175
G0 F2625 X113.585 Y188.222
G0 X115.26 Y213.805
G0 X115.294 Y213.898
G1 F900 X114.154 Y214.299 E2.71201
G1 X113.019 Y214.655 E2.75163
G1 X111.87 Y214.973 E2.79134
G1 X110.726 Y215.249 E2.83054
G1 X109.542 Y215.492 E2.8708
G1 X108.374 Y215.692 E2.91028
G1 X107.199 Y215.852 E2.94978
G1 X106.019 Y215.972 E2.98929
G1 X104.837 Y216.051 E3.02875
G1 X103.623 Y216.092 E3.06921
G1 X102.457 Y216.092 E3.10805
G1 X101.244 Y216.051 E3.14848
G1 X100.062 Y215.972 E3.18794
G1 X98.886 Y215.852 E3.22731
G1 X97.707 Y215.691 E3.26695
G1 X96.538 Y215.492 E3.30645
G1 X95.355 Y215.249 E3.34668
G1 X94.211 Y214.973 E3.38588
G1 X93.054 Y214.653 E3.42587
G1 X91.928 Y214.299 E3.46519
G1 X90.786 Y213.898 E3.5055
G1 X89.684 Y213.469 E3.54489
G1 X88.598 Y213.002 E3.58427
G1 X87.512 Y212.493 E3.62422
G1 X86.446 Y211.946 E3.66413
G1 X85.418 Y211.376 E3.70329
G1 X84.406 Y210.769 E3.7426
G1 X83.385 Y210.108 E3.78311
G1 X82.408 Y209.428 E3.82276
G1 X81.468 Y208.725 E3.86186
G1 X80.532 Y207.975 E3.90182
G1 X79.622 Y207.194 E3.94176
G1 X78.757 Y206.399 E3.9809
G1 X77.905 Y205.562 E4.02068
G1 X77.083 Y204.696 E4.06045
G1 X76.286 Y203.799 E4.10042
G1 X75.532 Y202.889 E4.13979
G1 X74.807 Y201.953 E4.17923
G1 X74.102 Y200.975 E4.21939
G1 X73.438 Y199.985 E4.25909
G1 X72.822 Y198.996 E4.29791
G1 X72.214 Y197.943 E4.33841
G1 X71.661 Y196.907 E4.37753
G1 X71.133 Y195.831 E4.41745
G1 X70.649 Y194.752 E4.45684
G1 X70.191 Y193.634 E4.49709
G1 X69.784 Y192.533 E4.53619
G1 X69.406 Y191.395 E4.57613
G1 X69.067 Y190.246 E4.61604
G1 X68.768 Y189.093 E4.65571
G1 X68.511 Y187.939 E4.6951
G1 X68.293 Y186.777 E4.73448
G1 X68.112 Y185.6 E4.77415
G1 X67.97 Y184.401 E4.81436
G1 X67.87 Y183.223 E4.85374
G1 X67.811 Y182.041 E4.89317
G1 X67.79 Y180.86 E4.93251
G1 X67.811 Y179.654 E4.97269
G1 X67.87 Y178.472 E5.01211
G1 X67.97 Y177.293 E5.05153
G1 X68.112 Y176.095 E5.09171
G1 X68.293 Y174.918 E5.13138
G1 X68.511 Y173.756 E5.17076
G1 X68.768 Y172.602 E5.21014
G1 X69.067 Y171.449 E5.24982
G1 X69.406 Y170.299 E5.28976
G1 X69.784 Y169.161 E5.3297
G1 X70.191 Y168.061 E5.36877
G1 X70.649 Y166.943 E5.40901
G1 X71.133 Y165.864 E5.44841
G1 X71.661 Y164.788 E5.48833
G1 X72.214 Y163.752 E5.52745
G1 X72.822 Y162.698 E5.56798
G1 X73.438 Y161.709 E5.60679
G1 X74.102 Y160.72 E5.64647
G1 X74.808 Y159.741 E5.68668
G1 X75.532 Y158.806 E5.72607
G1 X76.286 Y157.896 E5.76543
G1 X77.083 Y156.999 E5.8054
G1 X77.908 Y156.129 E5.84534
G1 X78.757 Y155.296 E5.88496
G1 X79.622 Y154.501 E5.9241
G1 X80.532 Y153.72 E5.96404
G1 X81.468 Y152.969 E6.00402
G1 X82.407 Y152.267 E6.04307
G1 X83.385 Y151.587 E6.08275
G1 X84.406 Y150.926 E6.12326
G1 X85.418 Y150.318 E6.16259
G1 X86.446 Y149.748 E6.20174
G1 X87.513 Y149.201 E6.24168
G1 X88.599 Y148.691 E6.28165
G1 X89.7 Y148.22 E6.32154
G1 X90.792 Y147.794 E6.36058
G1 X91.926 Y147.396 E6.40062
G1 X93.062 Y147.04 E6.44027
G1 X94.213 Y146.721 E6.48006
G1 X95.355 Y146.446 E6.51918
G1 X96.538 Y146.203 E6.55941
G1 X97.707 Y146.003 E6.59892
G1 X98.882 Y145.843 E6.63842
G1 X100.062 Y145.723 E6.67793
G1 X101.244 Y145.644 E6.71739
G1 X102.457 Y145.603 E6.75782
G1 X103.623 Y145.603 E6.79666
G1 X104.837 Y145.644 E6.83712
G1 X106.019 Y145.723 E6.87658
G1 X107.195 Y145.843 E6.91596
G1 X108.374 Y146.004 E6.95559
G1 X109.542 Y146.203 E6.99506
G1 X110.726 Y146.446 E7.03532
G1 X111.868 Y146.721 E7.07445
G1 X113.019 Y147.04 E7.11424
G1 X114.155 Y147.396 E7.15389
G1 X115.288 Y147.794 E7.19389
G1 X116.388 Y148.223 E7.23322
G1 X117.499 Y148.699 E7.27348
G1 X118.569 Y149.201 E7.31285
G1 X119.627 Y149.744 E7.35247
G1 X120.662 Y150.319 E7.39191
G1 X121.675 Y150.926 E7.43124
G1 X122.696 Y151.587 E7.47176
G1 X123.667 Y152.262 E7.51115
G1 X124.613 Y152.969 E7.55049
G1 X125.549 Y153.72 E7.59046
G1 X126.459 Y154.501 E7.63041
G1 X127.324 Y155.296 E7.66954
G1 X128.166 Y156.123 E7.70886
G1 X128.987 Y156.987 E7.74856
G1 X129.79 Y157.89 E7.78881
G1 X130.549 Y158.806 E7.82844
G1 X131.268 Y159.735 E7.86757
G1 X131.965 Y160.7 E7.90722
G1 X132.643 Y161.709 E7.94771
G1 X133.259 Y162.698 E7.98652
G1 X133.855 Y163.731 E8.02625
G1 X134.428 Y164.804 E8.06677
G1 X134.94 Y165.849 E8.10553
G1 X135.432 Y166.943 E8.14549
G1 X135.88 Y168.037 E8.18487
G1 X136.294 Y169.152 E8.22449
G1 X136.674 Y170.298 E8.2647
G1 X137.008 Y171.426 E8.30389
G1 X137.311 Y172.594 E8.34409
G1 X137.566 Y173.74 E8.38319
G1 X137.788 Y174.918 E8.42312
G1 X137.97 Y176.104 E8.46309
G1 X138.109 Y177.268 E8.50214
G1 X138.209 Y178.456 E8.54185
G1 X138.27 Y179.644 E8.58148
G1 X138.29 Y180.835 E8.62116
G1 X138.27 Y182.041 E8.66133
G1 X138.21 Y183.223 E8.70076
G1 X138.11 Y184.416 E8.74064
G1 X137.971 Y185.583 E8.77978
G1 X137.788 Y186.777 E8.82002
G1 X137.571 Y187.931 E8.85913
G1 X137.313 Y189.093 E8.89878
G1 X137.011 Y190.257 E8.93884
G1 X136.674 Y191.397 E8.97844
G1 X136.3 Y192.526 E9.01806
G1 X135.889 Y193.635 E9.05745
G1 X135.434 Y194.747 E9.09747
G1 X134.95 Y195.823 E9.13678
G1 X134.419 Y196.907 E9.17698
G1 X133.867 Y197.943 E9.21609
G1 X133.259 Y198.996 E9.25659
G1 X132.643 Y199.985 E9.2954
G1 X131.979 Y200.975 E9.33511
G1 X131.282 Y201.94 E9.37476
G1 X130.538 Y202.902 E9.41527
G1 X129.795 Y203.799 E9.45407
G1 X128.987 Y204.708 E9.49458
G1 X128.184 Y205.553 E9.53341
G1 X127.324 Y206.399 E9.5736
G1 X126.459 Y207.194 E9.61273
G1 X125.549 Y207.975 E9.65268
G1 X124.613 Y208.725 E9.69263
G1 X123.673 Y209.428 E9.73173
G1 X122.696 Y210.108 E9.77138
G1 X121.675 Y210.769 E9.81189
G1 X120.667 Y211.373 E9.85104
G1 X119.628 Y211.95 E9.89063
G1 X118.552 Y212.5 E9.93088
G1 X117.498 Y212.996 E9.96968
G1 X116.38 Y213.475 E10.0102
G1 X115.294 Y213.898 E10.04902
G0 F2625 X115.26 Y213.805
G0 X124.552 Y208.646
G0 X124.926 Y209.115
;TYPE:WALL-OUTER
G1 F900 X123.959 Y209.838 E10.08924
G1 X122.968 Y210.528 E10.12946
G1 X121.947 Y211.189 E10.16998
G1 X120.919 Y211.805 E10.2099
G1 X119.863 Y212.391 E10.25013
G1 X118.78 Y212.945 E10.29065
G1 X117.695 Y213.456 E10.3306
G1 X116.577 Y213.935 E10.37111
G1 X115.46 Y214.37 E10.41104
G1 X114.321 Y214.771 E10.45126
G1 X113.161 Y215.135 E10.49176
G1 X111.999 Y215.456 E10.53192
G1 X110.827 Y215.739 E10.57208
G1 X109.64 Y215.983 E10.61245
G1 X108.458 Y216.185 E10.65239
G1 X107.255 Y216.348 E10.69283
G1 X106.052 Y216.471 E10.73311
G1 X104.856 Y216.551 E10.77304
G1 X103.64 Y216.592 E10.81357
G1 X102.44 Y216.592 E10.85354
G1 X101.225 Y216.551 E10.89403
G1 X100.029 Y216.471 E10.93396
G1 X98.826 Y216.348 E10.97424
G1 X97.623 Y216.184 E11.01469
G1 X96.44 Y215.983 E11.05466
G1 X95.254 Y215.739 E11.09499
G1 X94.082 Y215.456 E11.13515
G1 X92.912 Y215.133 E11.17558
G1 X91.768 Y214.773 E11.21553
G1 X90.62 Y214.37 E11.25606
G1 X89.503 Y213.935 E11.29599
G1 X88.386 Y213.455 E11.33649
G1 X87.3 Y212.946 E11.37644
G1 X86.218 Y212.391 E11.41695
G1 X85.161 Y211.805 E11.4572
G1 X84.134 Y211.189 E11.4971
G1 X83.113 Y210.528 E11.53761
G1 X82.122 Y209.838 E11.57783
G1 X81.155 Y209.115 E11.61805
G1 X80.219 Y208.365 E11.65801
G1 X79.296 Y207.573 E11.69852
G1 X78.407 Y206.756 E11.73874
G1 X77.545 Y205.909 E11.77899
G1 X76.72 Y205.04 E11.81891
G1 X75.912 Y204.131 E11.85942
G1 X75.147 Y203.208 E11.89935
G1 X74.402 Y202.246 E11.93988
G1 X73.696 Y201.267 E11.98009
G1 X73.023 Y200.264 E12.02032
G1 X72.389 Y199.246 E12.06027
G1 X71.781 Y198.193 E12.10077
G1 X71.212 Y197.127 E12.14102
G1 X70.684 Y196.051 E12.18095
G1 X70.186 Y194.942 E12.22144
G1 X69.728 Y193.824 E12.26169
G1 X69.309 Y192.691 E12.30193
G1 X68.931 Y191.553 E12.34187
G1 X68.587 Y190.387 E12.38237
G1 X68.284 Y189.218 E12.42259
G1 X68.023 Y188.048 E12.46252
G1 X67.799 Y186.853 E12.50302
G1 X67.615 Y185.659 E12.54327
G1 X67.473 Y184.46 E12.58348
G1 X67.372 Y183.265 E12.62343
G1 X67.311 Y182.05 E12.66395
G1 X67.29 Y180.851 E12.7039
G1 X67.311 Y179.645 E12.74408
G1 X67.372 Y178.43 E12.7846
G1 X67.473 Y177.234 E12.82458
G1 X67.615 Y176.036 E12.86477
G1 X67.799 Y174.842 E12.90501
G1 X68.023 Y173.647 E12.94551
G1 X68.284 Y172.477 E12.98544
G1 X68.587 Y171.308 E13.02567
G1 X68.931 Y170.141 E13.06619
G1 X69.309 Y169.003 E13.10614
G1 X69.728 Y167.871 E13.14634
G1 X70.186 Y166.753 E13.18659
G1 X70.684 Y165.644 E13.22708
G1 X71.212 Y164.568 E13.26701
G1 X71.781 Y163.502 E13.30726
G1 X72.389 Y162.448 E13.34779
G1 X73.023 Y161.43 E13.38774
G1 X73.696 Y160.428 E13.42795
G1 X74.402 Y159.449 E13.46815
G1 X75.147 Y158.487 E13.50868
G1 X75.912 Y157.564 E13.54862
G1 X76.72 Y156.655 E13.58913
G1 X77.545 Y155.785 E13.62907
G1 X78.407 Y154.939 E13.6693
G1 X79.296 Y154.122 E13.70952
G1 X80.219 Y153.33 E13.75003
G1 X81.155 Y152.579 E13.79
G1 X82.122 Y151.856 E13.83022
G1 X83.113 Y151.167 E13.87043
G1 X84.134 Y150.506 E13.91094
G1 X85.161 Y149.889 E13.95085
G1 X86.218 Y149.303 E13.99111
G1 X87.3 Y148.748 E14.03162
G1 X88.386 Y148.238 E14.07158
G1 X89.503 Y147.76 E14.11205
G1 X90.62 Y147.324 E14.15199
G1 X91.76 Y146.924 E14.19224
G1 X92.92 Y146.56 E14.23273
G1 X94.084 Y146.238 E14.27296
G1 X95.254 Y145.956 E14.31305
G1 X96.44 Y145.712 E14.35339
G1 X97.623 Y145.51 E14.39336
G1 X98.826 Y145.347 E14.4338
G1 X100.029 Y145.224 E14.47408
G1 X101.225 Y145.144 E14.51401
G1 X102.44 Y145.103 E14.55451
G1 X103.64 Y145.103 E14.59448
G1 X104.856 Y145.144 E14.63501
G1 X106.052 Y145.224 E14.67494
G1 X107.255 Y145.347 E14.71522
G1 X108.458 Y145.511 E14.75566
G1 X109.64 Y145.712 E14.7956
G1 X110.827 Y145.956 E14.83596
G1 X111.997 Y146.238 E14.87605
G1 X113.161 Y146.56 E14.91628
G1 X114.321 Y146.924 E14.95678
G1 X115.46 Y147.324 E14.99699
G1 X116.585 Y147.763 E15.03722
G1 X117.696 Y148.239 E15.07748
G1 X118.781 Y148.748 E15.1174
G1 X119.863 Y149.303 E15.15791
G1 X120.919 Y149.89 E15.19815
G1 X121.947 Y150.506 E15.23807
G1 X122.968 Y151.167 E15.27859
G1 X123.952 Y151.851 E15.31851
G1 X124.926 Y152.579 E15.35901
G1 X125.862 Y153.33 E15.39899
G1 X126.785 Y154.122 E15.4395
G1 X127.674 Y154.939 E15.47972
G1 X128.529 Y155.779 E15.51964
G1 X129.361 Y156.655 E15.55989
G1 X130.164 Y157.558 E15.60014
G1 X130.934 Y158.487 E15.64033
G1 X131.673 Y159.442 E15.68056
G1 X132.38 Y160.421 E15.72078
G1 X133.058 Y161.43 E15.76127
G1 X133.692 Y162.448 E15.80122
G1 X134.296 Y163.495 E15.84149
G1 X134.869 Y164.568 E15.882
G1 X135.396 Y165.644 E15.92191
G1 X135.895 Y166.754 E15.96245
G1 X136.349 Y167.863 E16.00237
G1 X136.769 Y168.995 E16.04259
G1 X137.149 Y170.141 E16.08281
G1 X137.492 Y171.3 E16.12307
G1 X137.795 Y172.468 E16.16326
G1 X138.057 Y173.647 E16.20349
G1 X138.282 Y174.842 E16.244
G1 X138.464 Y176.028 E16.28397
G1 X138.607 Y177.226 E16.32416
G1 X138.708 Y178.43 E16.3644
G1 X138.77 Y179.636 E16.40463
G1 X138.79 Y180.843 E16.44484
G1 X138.77 Y182.05 E16.48505
G1 X138.708 Y183.265 E16.52558
G1 X138.608 Y184.459 E16.56549
G1 X138.465 Y185.659 E16.60574
G1 X138.282 Y186.853 E16.64598
G1 X138.059 Y188.04 E16.68621
G1 X137.797 Y189.218 E16.72641
G1 X137.494 Y190.387 E16.76664
G1 X137.149 Y191.554 E16.80717
G1 X136.772 Y192.691 E16.84707
G1 X136.352 Y193.824 E16.88732
G1 X135.895 Y194.941 E16.92753
G1 X135.399 Y196.043 E16.96778
G1 X134.868 Y197.127 E17.00799
G1 X134.3 Y198.193 E17.04822
G1 X133.692 Y199.246 E17.08873
G1 X133.058 Y200.264 E17.12868
G1 X132.385 Y201.267 E17.16891
G1 X131.678 Y202.246 E17.20914
G1 X130.934 Y203.208 E17.24964
G1 X130.169 Y204.131 E17.28958
G1 X129.361 Y205.04 E17.33009
G1 X128.535 Y205.909 E17.37003
G1 X127.674 Y206.756 E17.41026
G1 X126.785 Y207.573 E17.45048
G1 X125.862 Y208.365 E17.49099
G1 X124.926 Y209.115 E17.53094
G0 F2625 X124.726 Y209.264
G0 X124.369 Y208.784
G0 X115.159 Y176.703
G0 X114.59 Y175.313
G0 X113.862 Y173.999
G0 X113.075 Y172.901
G0 X111.447 Y171.106
G0 X111.067 Y171.569
G1 F900 X110.498 Y171.107 E17.55536
G1 X109.913 Y170.687 E17.57935
G1 X109.306 Y170.302 E17.60329
G1 X108.677 Y169.952 E17.62727
G1 X108.029 Y169.641 E17.65121
G1 X107.362 Y169.368 E17.67522
G1 X106.682 Y169.134 E17.69917
