;Generated by Cura LulzBot Edition GCodeWriter Version: 3.6.21
;FLAVOR:Marlin
;TIME:3193
;Filament used: 0.684732m
;Layer height: 0.18
;Generated with Cura_SteamEngine 3.6.21
M82 ;absolute extrusion mode
;This G-Code has been generated specifically for the LulzBot TAZ 5 with standard extruder
M75			 ; start GLCD timer
M140 S110.0    ; start bed heating up
G90                      ; absolute positioning
M107                     ; disable fans
M82                      ; set extruder to absolute mode
G28 X0 Y0                ; home X and Y
G28 Z0                   ; home Z
G1 Z15.0 F175 ; move extruder up
M117 Heating...                     ; progress indicator message on LCD
M109 R245  ; wait for extruder to reach printing temp
M190 R110.0    ; wait for bed to reach printing temp
G92 E0                   ; set extruder position to 0
G1 F200 E0               ; prime the nozzle with filament
G92 E0                   ; re-set extruder position to 0
G1 F175       ; set travel speed
M203 X192 Y208 Z3        ; set limits on travel speed
M117 TAZ 5 Printing...   ; progress indicator message on LCD

M221 S100 T0
G92 E0
G1 F600 E-1
;LAYER_COUNT:138
;LAYER:0
M107
;MESH:
G0 F2625 X100.15 Y132.154 Z0.425
;TYPE:WALL-INNER
G1 F600 E0
G1 F900 X99.833 Y132.51 E0.01588
G1 X99.532 Y132.878 E0.03171
G1 X99.247 Y133.258 E0.04754
G1 X98.979 Y133.652 E0.06341
G1 X98.73 Y134.056 E0.07922
G1 X98.498 Y134.472 E0.09508
G1 X98.285 Y134.897 E0.11092
G1 X98.091 Y135.331 E0.12676
G1 X97.916 Y135.774 E0.14262
G1 X97.762 Y136.224 E0.15846
G1 X97.626 Y136.679 E0.17428
G1 X97.512 Y137.141 E0.19013
G1 X97.418 Y137.607 E0.20597
G1 X97.344 Y138.077 E0.22182
G1 X97.292 Y138.55 E0.23767
G1 X97.26 Y139.025 E0.25353
G1 X97.25 Y139.5 E0.26935
G1 X97.26 Y139.975 E0.28518
G1 X97.292 Y140.45 E0.30104
G1 X97.344 Y140.923 E0.31689
G1 X97.418 Y141.393 E0.33274
G1 X97.512 Y141.859 E0.34857
G1 X97.626 Y142.321 E0.36442
G1 X97.762 Y142.776 E0.38024
G1 X97.916 Y143.226 E0.39608
G1 X98.091 Y143.669 E0.41195
G1 X98.285 Y144.103 E0.42779
G1 X98.498 Y144.528 E0.44362
G1 X98.73 Y144.944 E0.45949
G1 X98.979 Y145.348 E0.4753
G1 X99.247 Y145.742 E0.49117
G1 X99.532 Y146.122 E0.50699
G1 X99.833 Y146.49 E0.52283
G1 X100.15 Y146.846 E0.53871
G1 X100.484 Y147.186 E0.55458
G1 X100.831 Y147.51 E0.5704
G1 X101.192 Y147.819 E0.58622
G1 X101.565 Y148.111 E0.602
G1 X101.953 Y148.388 E0.61788
G1 X102.352 Y148.648 E0.63375
G1 X102.762 Y148.888 E0.64957
G1 X103.183 Y149.111 E0.66544
G1 X103.613 Y149.314 E0.68128
G1 X104.051 Y149.499 E0.69712
G1 X104.498 Y149.663 E0.71298
G1 X104.95 Y149.808 E0.72879
G1 X105.41 Y149.933 E0.74467
G1 X105.874 Y150.037 E0.76051
G1 X106.341 Y150.121 E0.77632
G1 X106.812 Y150.185 E0.79215
G1 X107.287 Y150.227 E0.80803
G1 X107.762 Y150.248 E0.82387
G1 X108.238 Y150.248 E0.83973
G1 X108.713 Y150.227 E0.85556
G1 X109.188 Y150.185 E0.87145
G1 X109.659 Y150.121 E0.88728
G1 X110.126 Y150.037 E0.90309
G1 X110.59 Y149.933 E0.91893
G1 X111.05 Y149.808 E0.93481
G1 X111.502 Y149.663 E0.95062
G1 X111.949 Y149.499 E0.96648
G1 X112.387 Y149.314 E0.98232
G1 X112.817 Y149.111 E0.99815
G1 X113.238 Y148.888 E1.01402
G1 X113.648 Y148.648 E1.02985
G1 X114.047 Y148.388 E1.04571
G1 X114.435 Y148.111 E1.06159
G1 X114.808 Y147.819 E1.07737
G1 X115.169 Y147.51 E1.0932
G1 X115.516 Y147.186 E1.10902
G1 X115.85 Y146.846 E1.12489
G1 X116.167 Y146.49 E1.14077
G1 X116.468 Y146.122 E1.15661
G1 X116.753 Y145.742 E1.17243
G1 X117.021 Y145.348 E1.1883
G1 X117.27 Y144.944 E1.20411
G1 X117.502 Y144.528 E1.21998
G1 X117.715 Y144.103 E1.23581
G1 X117.909 Y143.669 E1.25165
G1 X118.084 Y143.226 E1.26751
G1 X118.238 Y142.776 E1.28336
G1 X118.374 Y142.321 E1.29917
G1 X118.488 Y141.859 E1.31503
G1 X118.582 Y141.393 E1.33086
G1 X118.656 Y140.923 E1.34671
G1 X118.708 Y140.45 E1.36256
G1 X118.74 Y139.975 E1.37842
G1 X118.75 Y139.5 E1.39424
G1 X118.74 Y139.025 E1.41007
G1 X118.708 Y138.55 E1.42593
G1 X118.656 Y138.077 E1.44178
G1 X118.582 Y137.607 E1.45763
G1 X118.488 Y137.141 E1.47346
G1 X118.374 Y136.679 E1.48931
G1 X118.238 Y136.224 E1.50513
G1 X118.084 Y135.774 E1.52098
G1 X117.909 Y135.331 E1.53684
G1 X117.715 Y134.897 E1.55268
G1 X117.502 Y134.472 E1.56851
G1 X117.27 Y134.056 E1.58438
G1 X117.021 Y133.652 E1.60019
G1 X116.753 Y133.258 E1.61606
G1 X116.468 Y132.878 E1.63188
G1 X116.167 Y132.51 E1.64772
G1 X115.85 Y132.154 E1.6636
G1 X115.516 Y131.814 E1.67947
G1 X115.169 Y131.49 E1.69529
G1 X114.808 Y131.181 E1.71112
G1 X114.435 Y130.889 E1.72689
G1 X114.047 Y130.612 E1.74278
G1 X113.648 Y130.352 E1.75864
G1 X113.238 Y130.112 E1.77446
G1 X112.817 Y129.889 E1.79033
G1 X112.387 Y129.686 E1.80617
G1 X111.949 Y129.501 E1.82201
G1 X111.502 Y129.337 E1.83787
G1 X111.05 Y129.192 E1.85368
G1 X110.59 Y129.067 E1.86956
G1 X110.126 Y128.963 E1.8854
G1 X109.659 Y128.879 E1.90121
G1 X109.188 Y128.815 E1.91704
G1 X108.713 Y128.773 E1.93292
G1 X108.238 Y128.752 E1.94876
G1 X107.762 Y128.752 E1.96462
G1 X107.287 Y128.773 E1.98046
G1 X106.812 Y128.815 E1.99634
G1 X106.341 Y128.879 E2.01217
G1 X105.874 Y128.963 E2.02798
G1 X105.41 Y129.067 E2.04382
G1 X104.95 Y129.192 E2.0597
G1 X104.498 Y129.337 E2.07551
G1 X104.051 Y129.501 E2.09137
G1 X103.613 Y129.686 E2.10721
G1 X103.183 Y129.889 E2.12305
G1 X102.762 Y130.112 E2.13892
G1 X102.352 Y130.352 E2.15474
G1 X101.953 Y130.612 E2.1706
G1 X101.565 Y130.889 E2.18648
G1 X101.192 Y131.181 E2.20226
G1 X100.831 Y131.49 E2.21809
G1 X100.484 Y131.814 E2.23391
G1 X100.15 Y132.154 E2.24978
G0 F2625 X100.077 Y132.086
G0 X101.931 Y130.579
G0 X103.166 Y129.854
G0 X104.485 Y129.3
G0 X105.867 Y128.924
G0 X107.285 Y128.734
G0 X108.715 Y128.734
G0 X110.133 Y128.924
G0 X111.515 Y129.3
G0 X112.834 Y129.854
G0 X114.069 Y130.579
G0 X115.195 Y131.461
G0 X116.197 Y132.485
G0 X117.054 Y133.631
G0 X117.751 Y134.88
G0 X118.276 Y136.212
G0 X118.471 Y136.998
G0 X120.36 Y146.336
G0 X120.447 Y146.384
G1 F900 X120.194 Y146.822 E2.26663
G1 X119.916 Y147.268 E2.28414
G1 X119.618 Y147.708 E2.30184
G1 X119.322 Y148.11 E2.31847
G1 X119.013 Y148.5 E2.33504
G1 X118.674 Y148.899 E2.35248
G1 X118.318 Y149.29 E2.3701
G1 X117.975 Y149.638 E2.38637
G1 X117.583 Y150.009 E2.40435
G1 X117.211 Y150.338 E2.42089
G1 X116.807 Y150.669 E2.43829
G1 X116.413 Y150.968 E2.45477
G1 X115.979 Y151.274 E2.47246
G1 X115.555 Y151.55 E2.48931
G1 X115.114 Y151.816 E2.50646
G1 X114.668 Y152.064 E2.52346
G1 X114.205 Y152.299 E2.54076
G1 X113.723 Y152.522 E2.55845
G1 X113.258 Y152.717 E2.57524
G1 X112.775 Y152.898 E2.59243
G1 X112.281 Y153.064 E2.60979
G1 X111.798 Y153.208 E2.62657
G1 X111.304 Y153.336 E2.64357
G1 X110.793 Y153.446 E2.66098
G1 X110.282 Y153.54 E2.67829
G1 X109.784 Y153.611 E2.69505
G1 X109.268 Y153.669 E2.71234
G1 X108.769 Y153.703 E2.729
G1 X108.231 Y153.723 E2.74694
G1 X107.745 Y153.722 E2.76313
G1 X107.22 Y153.702 E2.78063
G1 X106.701 Y153.664 E2.79796
G1 X106.2 Y153.61 E2.81475
G1 X105.69 Y153.535 E2.83192
G1 X105.168 Y153.439 E2.8496
G1 X104.692 Y153.335 E2.86583
G1 X104.178 Y153.201 E2.88352
G1 X103.687 Y153.055 E2.90058
G1 X103.219 Y152.896 E2.91705
G1 X102.712 Y152.704 E2.93511
G1 X102.256 Y152.512 E2.95159
G1 X101.786 Y152.295 E2.96883
G1 X101.315 Y152.055 E2.98644
G1 X100.874 Y151.81 E3.00325
G1 X100.443 Y151.55 E3.02001
G1 X100.01 Y151.268 E3.03722
G1 X99.602 Y150.978 E3.0539
G1 X99.183 Y150.661 E3.0714
G1 X98.789 Y150.338 E3.08837
G1 X98.417 Y150.009 E3.10491
G1 X98.025 Y149.638 E3.12289
G1 X97.682 Y149.29 E3.13917
G1 X97.326 Y148.899 E3.15678
G1 X96.987 Y148.5 E3.17422
G1 X96.679 Y148.111 E3.19075
G1 X96.367 Y147.683 E3.20839
G1 X96.086 Y147.268 E3.22509
G1 X95.807 Y146.822 E3.24261
G1 X95.553 Y146.383 E3.25951
G1 X95.309 Y145.923 E3.27685
G1 X95.082 Y145.456 E3.29415
G1 X94.886 Y145.007 E3.31047
G1 X94.689 Y144.512 E3.32821
G1 X94.516 Y144.028 E3.34533
G1 X94.365 Y143.548 E3.3621
G1 X94.226 Y143.044 E3.37951
G1 X94.106 Y142.544 E3.39664
G1 X94.007 Y142.049 E3.41345
G1 X93.925 Y141.55 E3.4303
G1 X93.858 Y141.024 E3.44796
G1 X93.812 Y140.511 E3.46512
G1 X93.786 Y140.013 E3.48173
G1 X93.776 Y139.514 E3.49835
G1 X93.786 Y138.983 E3.51605
G1 X93.814 Y138.466 E3.53329
G1 X93.86 Y137.96 E3.55022
G1 X93.926 Y137.436 E3.56781
G1 X94.009 Y136.937 E3.58466
G1 X94.108 Y136.443 E3.60144
G1 X94.228 Y135.944 E3.61854
G1 X94.373 Y135.423 E3.63655
G1 X94.519 Y134.96 E3.65272
G1 X94.699 Y134.459 E3.67046
G1 X94.884 Y133.997 E3.68703
G1 X95.09 Y133.529 E3.70407
G1 X95.323 Y133.05 E3.72181
G1 X95.559 Y132.605 E3.73859
G1 X95.821 Y132.153 E3.75599
G1 X96.086 Y131.73 E3.77262
G1 X96.372 Y131.307 E3.78963
G1 X96.682 Y130.884 E3.8071
G1 X96.993 Y130.489 E3.82384
G1 X97.338 Y130.084 E3.84156
G1 X97.677 Y129.713 E3.8583
G1 X98.032 Y129.353 E3.87515
G1 X98.413 Y128.993 E3.89261
G1 X98.797 Y128.654 E3.90967
G1 X99.187 Y128.334 E3.92647
G1 X99.611 Y128.013 E3.94419
G1 X100.03 Y127.718 E3.96126
G1 X100.454 Y127.443 E3.97809
G1 X100.902 Y127.174 E3.9955
G1 X101.344 Y126.929 E4.01233
G1 X101.804 Y126.696 E4.02951
G1 X102.258 Y126.487 E4.04616
G1 X102.732 Y126.289 E4.06327
G1 X103.216 Y126.106 E4.0805
G1 X103.708 Y125.94 E4.0978
G1 X104.191 Y125.796 E4.11459
G1 X104.697 Y125.665 E4.132
G1 X105.181 Y125.559 E4.1485
G1 X105.703 Y125.464 E4.16618
G1 X106.209 Y125.39 E4.18321
G1 X106.719 Y125.334 E4.2003
G1 X107.222 Y125.298 E4.2171
G1 X107.758 Y125.278 E4.23497
G1 X108.243 Y125.278 E4.25112
G1 X108.785 Y125.298 E4.26919
G1 X109.296 Y125.335 E4.28626
G1 X109.781 Y125.388 E4.30251
G1 X110.301 Y125.465 E4.32002
G1 X110.819 Y125.559 E4.33755
G1 X111.303 Y125.665 E4.35406
G1 X111.809 Y125.796 E4.37147
G1 X112.292 Y125.94 E4.38826
G1 X112.784 Y126.106 E4.40555
G1 X113.268 Y126.289 E4.42279
G1 X113.734 Y126.484 E4.43962
G1 X114.216 Y126.707 E4.45731
G1 X114.665 Y126.934 E4.47407
G1 X115.114 Y127.184 E4.49119
G1 X115.541 Y127.442 E4.5078
G1 X116.006 Y127.743 E4.52625
G1 X116.403 Y128.023 E4.54244
G1 X116.824 Y128.343 E4.56005
G1 X117.22 Y128.669 E4.57714
G1 X117.593 Y128.999 E4.59373
G1 X117.978 Y129.363 E4.61138
G1 X118.344 Y129.737 E4.62881
G1 X118.672 Y130.097 E4.64503
G1 X119.022 Y130.509 E4.66304
G1 X119.322 Y130.891 E4.67922
G1 X119.641 Y131.327 E4.69721
G1 X119.915 Y131.732 E4.7135
G1 X120.198 Y132.182 E4.73121
G1 X120.449 Y132.619 E4.74799
G1 X120.682 Y133.058 E4.76455
G1 X120.909 Y133.525 E4.78185
G1 X121.123 Y134.013 E4.7996
G1 X121.307 Y134.473 E4.8161
G1 X121.482 Y134.965 E4.83349
G1 X121.636 Y135.456 E4.85063
G1 X121.776 Y135.96 E4.86806
G1 X121.896 Y136.459 E4.88515
G1 X121.993 Y136.944 E4.90163
G1 X122.076 Y137.451 E4.91874
G1 X122.141 Y137.96 E4.93584
G1 X122.188 Y138.49 E4.95356
G1 X122.215 Y138.984 E4.97004
G1 X122.224 Y139.499 E4.9872
G1 X122.214 Y140.027 E5.00479
G1 X122.187 Y140.526 E5.02143
G1 X122.142 Y141.024 E5.03809
G1 X122.075 Y141.55 E5.05575
G1 X121.993 Y142.049 E5.0726
G1 X121.894 Y142.544 E5.08941
G1 X121.774 Y143.044 E5.10654
G1 X121.635 Y143.548 E5.12396
G1 X121.484 Y144.028 E5.14072
G1 X121.305 Y144.528 E5.15841
G1 X121.122 Y144.989 E5.17493
G1 X120.911 Y145.466 E5.1923
G1 X120.682 Y145.937 E5.20975
G1 X120.447 Y146.384 E5.22657
G0 F2625 X120.36 Y146.336
G0 X118.246 Y149.222
G0 X118.688 Y149.627
;TYPE:WALL-OUTER
G1 F900 X118.319 Y150.001 E5.24407
G1 X117.927 Y150.372 E5.26205
G1 X117.528 Y150.725 E5.2798
G1 X117.124 Y151.056 E5.29719
G1 X116.701 Y151.377 E5.31488
G1 X116.267 Y151.683 E5.33257
G1 X115.813 Y151.978 E5.35061
G1 X115.357 Y152.253 E5.36834
G1 X114.9 Y152.507 E5.38576
G1 X114.415 Y152.753 E5.40387
G1 X113.933 Y152.976 E5.42157
G1 X113.434 Y153.185 E5.43959
G1 X112.944 Y153.369 E5.45702
G1 X112.441 Y153.538 E5.4747
G1 X111.923 Y153.692 E5.4927
G1 X111.41 Y153.825 E5.51035
G1 X110.897 Y153.936 E5.52783
G1 X110.365 Y154.033 E5.54585
G1 X109.848 Y154.107 E5.56324
G1 X109.31 Y154.167 E5.58128
G1 X108.789 Y154.203 E5.59867
G1 X108.249 Y154.223 E5.61667
G1 X107.726 Y154.222 E5.63409
G1 X107.192 Y154.202 E5.65189
G1 X106.664 Y154.163 E5.66953
G1 X106.126 Y154.105 E5.68756
G1 X105.609 Y154.029 E5.70496
G1 X105.077 Y153.931 E5.72298
G1 X104.566 Y153.819 E5.74041
G1 X104.052 Y153.685 E5.7581
G1 X103.534 Y153.531 E5.7761
G1 X103.042 Y153.364 E5.79341
G1 X102.535 Y153.172 E5.81147
G1 X102.052 Y152.969 E5.82892
G1 X101.562 Y152.742 E5.84691
G1 X101.088 Y152.501 E5.86462
G1 X100.631 Y152.247 E5.88204
G1 X100.175 Y151.972 E5.89977
G1 X99.731 Y151.683 E5.91742
G1 X99.3 Y151.377 E5.93503
G1 X98.876 Y151.056 E5.95274
G1 X98.472 Y150.725 E5.97014
G1 X98.073 Y150.372 E5.98789
G1 X97.681 Y150.001 E6.00587
G1 X97.312 Y149.627 E6.02337
G1 X96.956 Y149.236 E6.04098
G1 X96.606 Y148.824 E6.05899
G1 X96.276 Y148.407 E6.0767
G1 X95.963 Y147.978 E6.09439
G1 X95.669 Y147.544 E6.11185
G1 X95.382 Y147.086 E6.12986
G1 X95.12 Y146.634 E6.14726
G1 X94.861 Y146.146 E6.16566
G1 X94.632 Y145.675 E6.18311
G1 X94.421 Y145.192 E6.20066
G1 X94.224 Y144.697 E6.21841
G1 X94.045 Y144.197 E6.2361
G1 X93.888 Y143.698 E6.25353
G1 X93.744 Y143.177 E6.27153
G1 X93.62 Y142.661 E6.28921
G1 X93.517 Y142.147 E6.30667
G1 X93.429 Y141.613 E6.3247
G1 X93.362 Y141.087 E6.34236
G1 X93.314 Y140.556 E6.36012
G1 X93.286 Y140.027 E6.37777
G1 X93.276 Y139.505 E6.39516
G1 X93.286 Y138.974 E6.41285
G1 X93.316 Y138.421 E6.4313
G1 X93.363 Y137.899 E6.44876
G1 X93.43 Y137.373 E6.46642
G1 X93.519 Y136.839 E6.48445
G1 X93.622 Y136.326 E6.50188
G1 X93.746 Y135.81 E6.51956
G1 X93.891 Y135.289 E6.53757
G1 X94.048 Y134.791 E6.55497
G1 X94.228 Y134.29 E6.5727
G1 X94.426 Y133.796 E6.59043
G1 X94.64 Y133.31 E6.60812
G1 X94.873 Y132.831 E6.62586
G1 X95.126 Y132.354 E6.64384
G1 X95.388 Y131.902 E6.66125
G1 X95.672 Y131.45 E6.67903
G1 X95.969 Y131.011 E6.69668
G1 X96.289 Y130.575 E6.7147
G1 X96.612 Y130.165 E6.73209
G1 X96.957 Y129.76 E6.74981
G1 X97.321 Y129.362 E6.76777
G1 X97.689 Y128.989 E6.78523
G1 X98.082 Y128.618 E6.80323
G1 X98.48 Y128.267 E6.82091
G1 X98.885 Y127.935 E6.83835
G1 X99.309 Y127.614 E6.85607
G1 X99.743 Y127.309 E6.87374
G1 X100.197 Y127.014 E6.89177
G1 X100.645 Y126.745 E6.90918
G1 X101.118 Y126.483 E6.92719
G1 X101.578 Y126.25 E6.94436
G1 X102.056 Y126.03 E6.96189
G1 X102.555 Y125.821 E6.97991
G1 X103.045 Y125.636 E6.99736
G1 X103.548 Y125.466 E7.01505
G1 X104.066 Y125.312 E7.03305
G1 X104.572 Y125.181 E7.05046
G1 X105.091 Y125.067 E7.06816
G1 X105.623 Y124.97 E7.08617
G1 X106.14 Y124.895 E7.10357
G1 X106.678 Y124.835 E7.12161
G1 X107.199 Y124.798 E7.139
G1 X107.739 Y124.778 E7.157
G1 X108.261 Y124.778 E7.17439
G1 X108.814 Y124.798 E7.19282
G1 X109.333 Y124.836 E7.21016
G1 X109.854 Y124.893 E7.22762
G1 X110.377 Y124.97 E7.24523
G1 X110.909 Y125.067 E7.26324
G1 X111.428 Y125.181 E7.28094
G1 X111.934 Y125.312 E7.29835
G1 X112.452 Y125.466 E7.31635
G1 X112.955 Y125.636 E7.33404
G1 X113.445 Y125.821 E7.35148
G1 X113.944 Y126.03 E7.36951
G1 X114.426 Y126.253 E7.3872
G1 X114.9 Y126.493 E7.40489
G1 X115.357 Y126.747 E7.42231
G1 X115.813 Y127.022 E7.44005
G1 X116.278 Y127.323 E7.4585
G1 X116.705 Y127.624 E7.4759
G1 X117.127 Y127.945 E7.49356
G1 X117.538 Y128.283 E7.51129
G1 X117.937 Y128.636 E7.52903
G1 X118.322 Y129 E7.54668
G1 X118.701 Y129.387 E7.56473
G1 X119.053 Y129.773 E7.58213
G1 X119.403 Y130.185 E7.60013
G1 X119.726 Y130.596 E7.61755
G1 X120.045 Y131.032 E7.63554
G1 X120.339 Y131.466 E7.653
G1 X120.621 Y131.916 E7.67069
G1 X120.891 Y132.385 E7.68872
G1 X121.132 Y132.84 E7.70587
G1 X121.367 Y133.324 E7.72379
G1 X121.581 Y133.812 E7.74154
G1 X121.778 Y134.305 E7.75923
G1 X121.956 Y134.805 E7.77691
G1 X122.118 Y135.322 E7.79495
G1 X122.258 Y135.826 E7.81238
G1 X122.382 Y136.342 E7.83006
G1 X122.486 Y136.863 E7.84775
G1 X122.572 Y137.388 E7.86547
G1 X122.639 Y137.916 E7.8832
G1 X122.686 Y138.446 E7.90093
G1 X122.715 Y138.976 E7.91861
G1 X122.724 Y139.508 E7.93633
G1 X122.714 Y140.04 E7.95406
G1 X122.685 Y140.571 E7.97177
G1 X122.638 Y141.087 E7.98903
G1 X122.571 Y141.613 E8.00669
G1 X122.483 Y142.147 E8.02472
G1 X122.38 Y142.661 E8.04218
G1 X122.256 Y143.177 E8.05986
G1 X122.112 Y143.698 E8.07786
G1 X121.955 Y144.197 E8.09529
G1 X121.776 Y144.697 E8.11298
G1 X121.579 Y145.191 E8.1307
G1 X121.361 Y145.685 E8.14868
G1 X121.132 Y146.156 E8.16613
G1 X120.88 Y146.634 E8.18413
G1 X120.618 Y147.087 E8.20156
G1 X120.33 Y147.549 E8.21969
