;FLAVOR:Marlin
;TIME:2445
;Filament used: 1.30802m
;Layer height: 0.15
;MINX:143.328
;MINY:123.757
;MINZ:0.3
;MAXX:203.25
;MAXY:179.244
;MAXZ:15
;Generated with Cura_SteamEngine 4.6.1
M82 ;absolute extrusion mode
;This G-Code has been generated specifically for the LulzBot TAZ 5 with standard extruder
M75			 ; start GLCD timer
M140 S110.0    ; start bed heating up
G90                      ; absolute positioning
M107                     ; disable fans
M82                      ; set extruder to absolute mode
G28 X0 Y0                ; home X and Y
G28 Z0                   ; home Z
G1 Z15.0 F120 ; move extruder up
M117 Heating...          ; progress indicator message on LCD
M109 R240.0  ; wait for extruder to reach printing temp
M190 R110.0    ; wait for bed to reach printing temp
G92 E0                   ; set extruder position to 0
G1 F200 E0               ; prime the nozzle with filament
G92 E0                   ; re-set extruder position to 0
G1 F120       ; set travel speed
M203 X192 Y208 Z3        ; set limits on travel speed
M117 TAZ 5 Printing...   ; progress indicator message on LCD
G92 E0
G92 E0
G1 F1500 E-6.5
;LAYER_COUNT:99
;LAYER:0
M107
G0 F3600 X169.551 Y149.876 Z0.3
;TYPE:SKIRT
G1 F1500 E0
G1 F1800 X169.249 Y150.219 E0.01075
G1 X169.019 Y150.629 E0.0218
G1 X168.881 Y151.058 E0.0324
G1 X168.834 Y151.52 E0.04331
G1 X168.88 Y151.976 E0.05409
G1 X169.021 Y152.416 E0.06496
G1 X169.247 Y152.818 E0.0758
G1 X169.551 Y153.163 E0.08661
G1 X169.921 Y153.44 E0.09748
G1 X170.305 Y153.622 E0.10747
G1 X170.755 Y153.493 E0.11848
G1 X171.53 Y153.354 E0.13699
G1 X172.314 Y153.294 E0.15548
G1 X173.101 Y153.313 E0.17399
G1 X173.882 Y153.413 E0.1925
G1 X174.454 Y153.538 E0.20627
G1 X175.054 Y153.693 E0.22084
G1 X175.289 Y153.727 E0.22642
G1 X175.537 Y153.737 E0.23226
G1 X175.768 Y153.722 E0.2377
G1 X176.233 Y153.617 E0.24891
G1 X176.663 Y153.413 E0.2601
G1 X177.02 Y153.142 E0.27064
G1 X177.02 Y149.858 E0.34786
G1 X176.662 Y149.587 E0.35842
G1 X176.456 Y149.476 E0.36392
G1 X175.998 Y149.317 E0.37532
G1 X175.527 Y149.26 E0.38647
G1 X175.066 Y149.303 E0.39736
G1 X174.443 Y149.464 E0.41249
G1 X173.671 Y149.621 E0.43101
G1 X172.888 Y149.7 E0.44952
G1 X172.101 Y149.698 E0.46802
G1 X171.318 Y149.617 E0.48653
G1 X170.547 Y149.457 E0.50505
G1 X170.356 Y149.396 E0.50976
G1 X169.919 Y149.6 E0.5211
G1 X169.551 Y149.876 E0.53192
G0 F3600 X169.209 Y149.51
G1 F1800 X169.011 Y149.714 E0.5386
G1 X168.84 Y149.931 E0.5451
G1 X168.688 Y150.171 E0.55178
G1 X168.561 Y150.425 E0.55846
G1 X168.462 Y150.689 E0.56509
G1 X168.39 Y150.961 E0.5717
G1 X168.347 Y151.24 E0.57834
G1 X168.332 Y151.521 E0.58496
G1 X168.347 Y151.8 E0.59153
G1 X168.391 Y152.083 E0.59826
G1 X168.46 Y152.345 E0.60463
G1 X168.56 Y152.612 E0.61133
G1 X168.691 Y152.874 E0.61822
G1 X168.838 Y153.107 E0.6247
G1 X169.011 Y153.324 E0.63122
G1 X169.209 Y153.529 E0.63793
G1 X169.421 Y153.705 E0.6444
G1 X169.665 Y153.87 E0.65133
G1 X169.908 Y154 E0.65781
G1 X170.276 Y154.15 E0.66715
G1 X171.137 Y153.923 E0.68809
G1 X171.891 Y153.818 E0.70599
G1 X172.652 Y153.792 E0.7239
G1 X173.411 Y153.847 E0.74179
G1 X174.329 Y154.022 E0.76376
G1 X174.959 Y154.185 E0.77906
G1 X175.243 Y154.226 E0.78581
G1 X175.54 Y154.238 E0.7928
G1 X175.829 Y154.219 E0.79961
G1 X176.128 Y154.168 E0.80674
G1 X176.398 Y154.09 E0.81335
G1 X176.656 Y153.984 E0.81991
G1 X176.925 Y153.84 E0.82708
G1 X177.169 Y153.673 E0.83403
G1 X177.52 Y153.345 E0.84533
G1 X177.52 Y149.655 E0.93209
G1 X177.17 Y149.328 E0.94336
G1 X176.93 Y149.163 E0.9502
G1 X176.669 Y149.023 E0.95717
G1 X176.406 Y148.915 E0.96385
G1 X176.115 Y148.83 E0.97098
G1 X175.826 Y148.78 E0.97788
G1 X175.541 Y148.76 E0.9846
G1 X174.96 Y148.813 E0.99831
G1 X174.318 Y148.979 E1.01391
G1 X173.572 Y149.131 E1.03181
G1 X172.814 Y149.203 E1.04971
G1 X172.052 Y149.195 E1.06763
G1 X171.296 Y149.107 E1.08552
G1 X170.553 Y148.941 E1.10343
G1 X170.331 Y148.866 E1.10894
G1 X169.915 Y149.036 E1.1195
G1 X169.66 Y149.172 E1.1263
G1 X169.421 Y149.334 E1.13309
G1 X169.209 Y149.51 E1.13957
G0 F3600 X168.867 Y149.145
G1 F1800 X168.636 Y149.383 E1.14736
G1 X168.434 Y149.638 E1.15501
G1 X168.249 Y149.93 E1.16314
G1 X168.101 Y150.227 E1.17094
G1 X167.985 Y150.534 E1.17866
G1 X167.901 Y150.855 E1.18646
G1 X167.849 Y151.186 E1.19434
G1 X167.832 Y151.511 E1.20199
G1 X167.849 Y151.854 E1.21007
G1 X167.9 Y152.18 E1.21783
G1 X167.986 Y152.506 E1.22575
G1 X168.101 Y152.813 E1.23346
G1 X168.25 Y153.111 E1.2413
G1 X168.433 Y153.399 E1.24932
G1 X168.636 Y153.656 E1.25702
G1 X168.867 Y153.894 E1.26482
G1 X169.127 Y154.111 E1.27278
G1 X169.401 Y154.296 E1.28055
G1 X169.694 Y154.453 E1.28837
G1 X170.262 Y154.685 E1.3028
G1 X170.792 Y154.514 E1.31589
G1 X171.512 Y154.366 E1.33318
G1 X172.243 Y154.296 E1.35044
G1 X172.978 Y154.307 E1.36773
G1 X173.707 Y154.397 E1.385
G1 X174.203 Y154.506 E1.39694
G1 X174.86 Y154.676 E1.4129
G1 X175.198 Y154.725 E1.42093
G1 X175.544 Y154.739 E1.42907
G1 X175.892 Y154.716 E1.43727
G1 X176.231 Y154.658 E1.44536
G1 X176.563 Y154.562 E1.45348
G1 X176.875 Y154.434 E1.46141
G1 X177.184 Y154.268 E1.46966
G1 X177.473 Y154.071 E1.47788
G1 X177.728 Y153.852 E1.48579
G1 X178.02 Y153.532 E1.49597
G1 X178.02 Y149.469 E1.59151
G1 X177.731 Y149.15 E1.60163
G1 X177.476 Y148.932 E1.60952
G1 X177.191 Y148.737 E1.61764
G1 X176.88 Y148.569 E1.62595
G1 X176.569 Y148.442 E1.63385
G1 X176.226 Y148.342 E1.64225
G1 X175.892 Y148.283 E1.65022
G1 X175.547 Y148.259 E1.65835
G1 X174.865 Y148.322 E1.67446
G1 X174.193 Y148.495 E1.69077
G1 X173.473 Y148.64 E1.70804
G1 X172.741 Y148.705 E1.72532
G1 X172.007 Y148.69 E1.74258
G1 X171.278 Y148.596 E1.75987
G1 X170.564 Y148.423 E1.77714
G1 X170.314 Y148.333 E1.78339
G1 X169.696 Y148.586 E1.79909
G1 X169.398 Y148.745 E1.80703
G1 X169.127 Y148.928 E1.81472
G1 X168.867 Y149.145 E1.82268
G0 F3600 X168.526 Y148.779
G1 F1800 X168.256 Y149.057 E1.8318
G1 X168.024 Y149.35 E1.84058
G1 X167.821 Y149.67 E1.84949
G1 X167.645 Y150.023 E1.85877
G1 X167.507 Y150.388 E1.86794
G1 X167.41 Y150.756 E1.87689
G1 X167.352 Y151.133 E1.88586
G1 X167.332 Y151.52 E1.89497
G1 X167.352 Y151.907 E1.90409
G1 X167.411 Y152.29 E1.9132
G1 X167.504 Y152.644 E1.9218
G1 X167.645 Y153.017 E1.93118
G1 X167.82 Y153.368 E1.9404
G1 X168.022 Y153.686 E1.94926
G1 X168.257 Y153.983 E1.95816
G1 X168.526 Y154.26 E1.96724
G1 X168.821 Y154.507 E1.97629
G1 X169.153 Y154.731 E1.98571
G1 X169.483 Y154.907 E1.9945
G1 X170.14 Y155.176 E2.01119
G1 X170.247 Y155.227 E2.01398
G1 X170.498 Y155.125 E2.02035
G1 X171.179 Y154.935 E2.03698
G1 X171.877 Y154.823 E2.0536
G1 X172.583 Y154.791 E2.07022
G1 X173.289 Y154.839 E2.08685
G1 X174.078 Y154.99 E2.10574
G1 X174.764 Y155.168 E2.12241
G1 X175.144 Y155.223 E2.13144
G1 X175.556 Y155.24 E2.14113
G1 X175.943 Y155.214 E2.15025
G1 X176.353 Y155.143 E2.16003
G1 X176.728 Y155.035 E2.16921
G1 X177.083 Y154.89 E2.17823
G1 X177.451 Y154.692 E2.18805
G1 X177.767 Y154.476 E2.19705
G1 X178.073 Y154.215 E2.20651
G1 X178.354 Y153.918 E2.21612
G1 X178.52 Y153.7 E2.22257
G1 X178.52 Y149.301 E2.326
G1 X178.351 Y149.079 E2.33256
G1 X178.081 Y148.792 E2.34183
G1 X177.777 Y148.533 E2.35122
G1 X177.449 Y148.307 E2.36058
G1 X177.095 Y148.116 E2.37004
G1 X176.735 Y147.969 E2.37918
G1 X176.343 Y147.855 E2.38878
G1 X175.947 Y147.785 E2.39824
G1 X175.552 Y147.758 E2.40755
G1 X174.769 Y147.83 E2.42604
G1 X174.068 Y148.011 E2.44306
G1 X173.375 Y148.149 E2.45967
G1 X172.67 Y148.207 E2.47631
G1 X171.964 Y148.185 E2.49292
G1 X171.264 Y148.084 E2.50955
G1 X170.581 Y147.904 E2.52615
G1 X170.285 Y147.79 E2.53361
G1 X169.49 Y148.13 E2.55394
G1 X169.144 Y148.314 E2.56316
G1 X168.821 Y148.532 E2.57232
G1 X168.526 Y148.779 E2.58137
G0 F3600 X168.189 Y148.408
G1 F1800 X167.881 Y148.725 E2.59176
G1 X167.615 Y149.061 E2.60183
G1 X167.38 Y149.432 E2.61216
G1 X167.186 Y149.822 E2.6224
G1 X167.029 Y150.236 E2.63281
G1 X166.921 Y150.65 E2.64287
G1 X166.853 Y151.089 E2.65332
G1 X166.83 Y151.52 E2.66347
G1 X166.853 Y151.951 E2.67362
G1 X166.92 Y152.387 E2.68399
G1 X167.03 Y152.805 E2.69415
G1 X167.186 Y153.218 E2.70453
G1 X167.381 Y153.609 E2.71481
G1 X167.613 Y153.975 E2.725
G1 X167.882 Y154.315 E2.73519
G1 X168.189 Y154.631 E2.74555
G1 X168.521 Y154.908 E2.75572
G1 X168.885 Y155.154 E2.76605
G1 X169.265 Y155.357 E2.77618
G1 X169.951 Y155.638 E2.79361
G1 X170.223 Y155.769 E2.80071
G1 X170.897 Y155.523 E2.81758
G1 X171.558 Y155.371 E2.83352
G1 X172.232 Y155.298 E2.84946
G1 X172.91 Y155.305 E2.86541
G1 X173.582 Y155.391 E2.88134
G1 X174.659 Y155.657 E2.90742
G1 X175.109 Y155.722 E2.91811
G1 X175.56 Y155.741 E2.92873
G1 X176.004 Y155.711 E2.93919
G1 X176.458 Y155.633 E2.95002
G1 X176.893 Y155.508 E2.96066
G1 X177.302 Y155.34 E2.97106
G1 X177.704 Y155.124 E2.98179
G1 X178.077 Y154.869 E2.99241
G1 X178.424 Y154.573 E3.00314
G1 X178.732 Y154.247 E3.01368
G1 X179.02 Y153.864 E3.02495
G1 X179.02 Y149.136 E3.13612
G1 X178.735 Y148.757 E3.14727
G1 X178.427 Y148.43 E3.15783
G1 X178.083 Y148.137 E3.16846
G1 X177.71 Y147.88 E3.17911
G1 X177.313 Y147.666 E3.18971
G1 X176.892 Y147.494 E3.20041
G1 X176.46 Y147.368 E3.21099
G1 X176.012 Y147.289 E3.22168
G1 X175.557 Y147.258 E3.23241
G1 X175.109 Y147.276 E3.24295
G1 X174.674 Y147.339 E3.25329
G1 X173.943 Y147.527 E3.27103
G1 X173.278 Y147.657 E3.28697
G1 X172.602 Y147.708 E3.30291
G1 X171.925 Y147.679 E3.31884
G1 X171.255 Y147.571 E3.3348
G1 X170.604 Y147.384 E3.35072
G1 X170.273 Y147.246 E3.35915
G1 X169.268 Y147.681 E3.3849
G1 X168.882 Y147.887 E3.39519
G1 X168.521 Y148.131 E3.40544
G1 X168.189 Y148.408 E3.4156
G0 F3600 X167.847 Y148.042
G1 F1800 X167.51 Y148.388 E3.42696
G1 X167.206 Y148.773 E3.43849
G1 X166.946 Y149.183 E3.44991
G1 X166.724 Y149.629 E3.46162
G1 X166.555 Y150.075 E3.47284
G1 X166.43 Y150.553 E3.48446
G1 X166.355 Y151.034 E3.4959
G1 X166.33 Y151.521 E3.50737
G1 X166.355 Y152.006 E3.51879
G1 X166.431 Y152.493 E3.53038
G1 X166.553 Y152.957 E3.54166
G1 X166.724 Y153.411 E3.55306
G1 X166.947 Y153.858 E3.56481
G1 X167.204 Y154.264 E3.57611
G1 X167.511 Y154.652 E3.58774
G1 X167.847 Y154.997 E3.59907
G1 X168.21 Y155.301 E3.6102
G1 X168.629 Y155.583 E3.62207
G1 X169.063 Y155.815 E3.63365
G1 X169.761 Y156.101 E3.65138
G1 X170.224 Y156.325 E3.66348
G1 X170.669 Y156.125 E3.67495
G1 X171.289 Y155.936 E3.69019
G1 X171.927 Y155.824 E3.70542
G1 X172.573 Y155.791 E3.72063
G1 X173.22 Y155.839 E3.73588
G1 X173.828 Y155.958 E3.75045
G1 X174.565 Y156.149 E3.76835
G1 X175.054 Y156.22 E3.77997
G1 X175.573 Y156.241 E3.79218
G1 X176.065 Y156.208 E3.80378
G1 X176.573 Y156.12 E3.8159
G1 X177.053 Y155.983 E3.82764
G1 X177.513 Y155.794 E3.83933
G1 X177.967 Y155.55 E3.85145
G1 X178.387 Y155.263 E3.86341
G1 X178.76 Y154.945 E3.87494
G1 X179.113 Y154.571 E3.88703
G1 X179.42 Y154.169 E3.89892
G1 X179.52 Y154.003 E3.90348
G1 X179.52 Y148.996 E4.02121
G1 X179.425 Y148.839 E4.02552
G1 X179.117 Y148.434 E4.03749
G1 X178.773 Y148.068 E4.0493
G1 X178.383 Y147.735 E4.06136
G1 X177.978 Y147.457 E4.07291
G1 X177.525 Y147.212 E4.08502
G1 X177.058 Y147.022 E4.09687
G1 X176.57 Y146.879 E4.10883
G1 X176.075 Y146.792 E4.12065
G1 X175.563 Y146.757 E4.13271
G1 X175.074 Y146.776 E4.14422
G1 X174.571 Y146.849 E4.15617
G1 X173.819 Y147.043 E4.17443
G1 X173.182 Y147.165 E4.18968
G1 X172.536 Y147.209 E4.20491
G1 X171.889 Y147.172 E4.22014
G1 X171.252 Y147.057 E4.23536
G1 X170.634 Y146.863 E4.25059
G1 X170.26 Y146.693 E4.26025
G1 X169.061 Y147.225 E4.2911
G1 X168.628 Y147.456 E4.30264
G1 X168.21 Y147.738 E4.31449
G1 X167.847 Y148.042 E4.32563
G0 F3600 X167.506 Y147.676
G1 F1800 X167.131 Y148.062 E4.33828
G1 X166.8 Y148.48 E4.35082
G1 X166.505 Y148.946 E4.36378
G1 X166.267 Y149.424 E4.37634
G1 X166.076 Y149.929 E4.38903
G1 X165.941 Y150.443 E4.40153
G1 X165.857 Y150.981 E4.41433
G1 X165.83 Y151.521 E4.42705
G1 X165.857 Y152.058 E4.43969
G1 X165.94 Y152.591 E4.45237
G1 X166.078 Y153.114 E4.46509
G1 X166.267 Y153.616 E4.4777
G1 X166.506 Y154.095 E4.49029
G1 X166.798 Y154.556 E4.50312
G1 X167.132 Y154.978 E4.51578
G1 X167.506 Y155.363 E4.5284
G1 X167.922 Y155.71 E4.54113
G1 X168.367 Y156.01 E4.55375
G1 X168.849 Y156.268 E4.56661
G1 X169.572 Y156.564 E4.58498
G1 X170.126 Y156.834 E4.59947
G1 X170.217 Y156.894 E4.60203
G1 X170.499 Y156.739 E4.6096
G1 X171.072 Y156.515 E4.62406
G1 X171.67 Y156.366 E4.63855
G1 X172.282 Y156.297 E4.65304
G1 X172.898 Y156.307 E4.66752
G1 X173.703 Y156.442 E4.68671
G1 X174.469 Y156.64 E4.70532
G1 X175.009 Y156.719 E4.71815
G1 X175.568 Y156.742 E4.7313
G1 X176.126 Y156.705 E4.74445
G1 X176.687 Y156.608 E4.75784
G1 X177.218 Y156.455 E4.77083
G1 X177.732 Y156.244 E4.7839
G1 X178.226 Y155.979 E4.79708
G1 X178.686 Y155.665 E4.81018
G1 X179.109 Y155.303 E4.82327
G1 X179.499 Y154.89 E4.83662
G1 X179.831 Y154.455 E4.84949
G1 X180.02 Y154.143 E4.85807
G1 X180.02 Y148.859 E4.98231
G1 X179.835 Y148.55 E4.99078
G1 X179.5 Y148.11 E5.00378
G1 X179.115 Y147.701 E5.01699
G1 X178.696 Y147.343 E5.02995
G1 X178.236 Y147.028 E5.04306
G1 X177.74 Y146.76 E5.05631
G1 X177.233 Y146.553 E5.06919
G1 X176.678 Y146.391 E5.08278
G1 X176.131 Y146.295 E5.09584
G1 X175.569 Y146.256 E5.10909
G1 X175.031 Y146.277 E5.12175
G1 X174.474 Y146.358 E5.13498
G1 X173.694 Y146.559 E5.15392
G1 X173.088 Y146.673 E5.16842
G1 X172.473 Y146.709 E5.18291
G1 X171.859 Y146.664 E5.19738
G1 X171.255 Y146.541 E5.21188
G1 X170.673 Y146.34 E5.22635
G1 X170.248 Y146.129 E5.23751
G1 X169.576 Y146.474 E5.25527
G1 X168.843 Y146.775 E5.2739
G1 X168.366 Y147.029 E5.28661
G1 X167.922 Y147.329 E5.29921
G1 X167.506 Y147.676 E5.31195
G0 F3600 X167.169 Y147.306
G1 F1800 X166.751 Y147.736 E5.32605
G1 X166.39 Y148.192 E5.33972
G1 X166.073 Y148.693 E5.35366
G1 X165.806 Y149.227 E5.3677
G1 X165.599 Y149.777 E5.38152
G1 X165.452 Y150.337 E5.39513
G1 X165.358 Y150.937 E5.40941
G1 X165.328 Y151.521 E5.42316
G1 X165.358 Y152.103 E5.43687
G1 X165.451 Y152.7 E5.45107
G1 X165.599 Y153.264 E5.46478
G1 X165.805 Y153.809 E5.47848
G1 X166.076 Y154.352 E5.49275
G1 X166.387 Y154.843 E5.50642
G1 X166.753 Y155.305 E5.52028
G1 X167.169 Y155.733 E5.53431
G1 X167.622 Y156.111 E5.54818
G1 X168.104 Y156.437 E5.56187
G1 X168.635 Y156.721 E5.57602
G1 X169.383 Y157.027 E5.59503
G1 X169.906 Y157.284 E5.60873
G1 X170.203 Y157.485 E5.61716
G1 X170.389 Y157.36 E5.62243
G1 X170.913 Y157.104 E5.63614
G1 X171.467 Y156.922 E5.64986
G1 X172.04 Y156.817 E5.66355
G1 X172.622 Y156.792 E5.67725
G1 X173.202 Y156.847 E5.69095
G1 X174.37 Y157.131 E5.71921
G1 X174.955 Y157.217 E5.73312
G1 X175.581 Y157.242 E5.74785
G1 X176.187 Y157.202 E5.76213
G1 X176.8 Y157.096 E5.77675
G1 X177.383 Y156.928 E5.79102
G1 X177.94 Y156.7 E5.80517
G1 X178.489 Y156.405 E5.81983
G1 X178.989 Y156.063 E5.83407
G1 X179.455 Y155.665 E5.84848
G1 X179.877 Y155.219 E5.86292
G1 X180.247 Y154.734 E5.87726
G1 X180.52 Y154.282 E5.88968
G1 X180.52 Y148.719 E6.02048
G1 X180.254 Y148.277 E6.03261
G1 X179.878 Y147.783 E6.04721
G1 X179.465 Y147.344 E6.06138
G1 X178.997 Y146.944 E6.07585
G1 X178.49 Y146.596 E6.09031
G1 X177.958 Y146.309 E6.10453
G1 X177.398 Y146.081 E6.11874
G1 X176.787 Y145.902 E6.13371
G1 X176.196 Y145.798 E6.14782
G1 X175.583 Y145.756 E6.16227
G1 X174.978 Y145.779 E6.17651
G1 X174.37 Y145.868 E6.19096
G1 X173.569 Y146.074 E6.2104
G1 X172.996 Y146.181 E6.22411
G1 X172.414 Y146.208 E6.23781
G1 X171.833 Y146.155 E6.25153
G1 X171.266 Y146.023 E6.26521
G1 X170.721 Y145.815 E6.27893
G1 X170.229 Y145.545 E6.29213
G1 X169.709 Y145.862 E6.30645
G1 X168.628 Y146.322 E6.33407
G1 X168.107 Y146.6 E6.34796
G1 X167.622 Y146.928 E6.36172
G1 X167.169 Y147.306 E6.37559
G0 F3600 X166.827 Y146.94
G1 F1800 X166.376 Y147.404 E6.39081
G1 X165.981 Y147.903 E6.40577
G1 X165.639 Y148.444 E6.42082
G1 X165.35 Y149.023 E6.43604
G1 X165.122 Y149.628 E6.45124
G1 X164.961 Y150.24 E6.46612
G1 X164.861 Y150.883 E6.48142
G1 X164.828 Y151.52 E6.49642
G1 X164.861 Y152.157 E6.51142
G1 X164.96 Y152.797 E6.52664
G1 X165.122 Y153.413 E6.54162
G1 X165.352 Y154.021 E6.55691
G1 X165.637 Y154.593 E6.57193
G1 X165.978 Y155.132 E6.58693
G1 X166.378 Y155.637 E6.60208
G1 X166.827 Y156.099 E6.61723
G1 X167.316 Y156.508 E6.63222
G1 X167.854 Y156.871 E6.64748
G1 X168.416 Y157.171 E6.66245
G1 X169.193 Y157.489 E6.6822
G1 X169.683 Y157.733 E6.69507
