;FLAVOR:Marlin
;TIME:13140
;Filament used: 1.57743m
;Layer height: 0.06
;MINX:115.75
;MINY:82.364
;MINZ:0.3
;MAXX:162.192
;MAXY:193.25
;MAXZ:9.66
;Generated with Cura_SteamEngine 4.6.1
M82 ;absolute extrusion mode
;This G-Code has been generated specifically for the LulzBot TAZ 5 with standard extruder
M75			 ; start GLCD timer
M140 S110.0    ; start bed heating up
G90                      ; absolute positioning
M107                     ; disable fans
M82                      ; set extruder to absolute mode
G28 X0 Y0                ; home X and Y
G28 Z0                   ; home Z
G1 Z15.0 F120 ; move extruder up
M117 Heating...          ; progress indicator message on LCD
M109 R240.0  ; wait for extruder to reach printing temp
M190 R110.0    ; wait for bed to reach printing temp
G92 E0                   ; set extruder position to 0
G1 F200 E0               ; prime the nozzle with filament
G92 E0                   ; re-set extruder position to 0
G1 F120       ; set travel speed
M203 X192 Y208 Z3        ; set limits on travel speed
M117 TAZ 5 Printing...   ; progress indicator message on LCD
G92 E0
G92 E0
G1 F1500 E-6.5
;LAYER_COUNT:162
;LAYER:0
M107
G0 F3600 X117.146 Y86.062 Z0.3
;TYPE:SKIRT
G1 F1500 E0
G1 F1800 X117.629 Y85.441 E0.0185
G1 X118.173 Y84.871 E0.03703
G1 X118.771 Y84.36 E0.05552
G1 X119.418 Y83.912 E0.07402
G1 X120.108 Y83.532 E0.09255
G1 X120.832 Y83.224 E0.11105
G1 X121.584 Y82.991 E0.12956
G1 X122.355 Y82.835 E0.14805
G1 X123.5 Y82.75 E0.17505
G1 X137.283 Y82.75 E0.49913
G1 X137.751 Y82.605 E0.51065
G1 X138.522 Y82.449 E0.52915
G1 X139.667 Y82.364 E0.55615
G1 X154.441 Y82.364 E0.90353
G1 X155.227 Y82.404 E0.92203
G1 X156.005 Y82.523 E0.94054
G1 X156.767 Y82.721 E0.95905
G1 X157.505 Y82.995 E0.97756
G1 X158.211 Y83.343 E0.99607
G1 X158.879 Y83.76 E1.01459
G1 X159.5 Y84.243 E1.03308
G1 X160.07 Y84.787 E1.05161
G1 X160.581 Y85.385 E1.07011
G1 X161.029 Y86.032 E1.08861
G1 X161.409 Y86.722 E1.10713
G1 X161.717 Y87.446 E1.12563
G1 X161.95 Y88.198 E1.14414
G1 X162.106 Y88.969 E1.16264
G1 X162.191 Y90.109 E1.18952
G1 X162.192 Y91.534 E1.22303
G1 X162.191 Y185.114 E3.42339
G1 X162.151 Y185.9 E3.4419
G1 X162.031 Y186.678 E3.46041
G1 X161.834 Y187.44 E3.47891
G1 X161.56 Y188.178 E3.49742
G1 X161.212 Y188.884 E3.51593
G1 X160.795 Y189.552 E3.53444
G1 X160.312 Y190.173 E3.55294
G1 X159.768 Y190.743 E3.57147
G1 X159.17 Y191.254 E3.58997
G1 X158.523 Y191.702 E3.60847
G1 X157.833 Y192.082 E3.62699
G1 X157.109 Y192.39 E3.64549
G1 X156.357 Y192.623 E3.664
G1 X155.586 Y192.779 E3.6825
G1 X154.441 Y192.864 E3.7095
G1 X140.658 Y192.864 E4.03358
G1 X140.19 Y193.009 E4.0451
G1 X139.419 Y193.165 E4.06359
G1 X138.274 Y193.25 E4.09059
G1 X123.5 Y193.25 E4.43797
G1 X122.714 Y193.21 E4.45648
G1 X121.936 Y193.091 E4.47499
G1 X121.174 Y192.893 E4.4935
G1 X120.436 Y192.619 E4.51201
G1 X119.73 Y192.271 E4.53052
G1 X119.062 Y191.854 E4.54903
G1 X118.441 Y191.371 E4.56753
G1 X117.871 Y190.827 E4.58606
G1 X117.36 Y190.229 E4.60455
G1 X116.912 Y189.582 E4.62306
G1 X116.532 Y188.892 E4.64158
G1 X116.224 Y188.168 E4.66008
G1 X115.991 Y187.416 E4.67859
G1 X115.835 Y186.645 E4.69708
G1 X115.75 Y185.5 E4.72408
G1 X115.75 Y90.5 E6.95783
G1 X115.79 Y89.714 E6.97634
G1 X115.909 Y88.936 E6.99485
G1 X116.107 Y88.174 E7.01336
G1 X116.381 Y87.436 E7.03187
G1 X116.729 Y86.73 E7.05038
G1 X117.146 Y86.062 E7.06889
G0 F3600 X117.643 Y86.227
G1 F1800 X118.124 Y85.636 E7.08681
G1 X118.663 Y85.099 E7.1047
G1 X119.256 Y84.622 E7.12259
G1 X119.896 Y84.209 E7.1405
G1 X120.576 Y83.866 E7.15841
G1 X121.288 Y83.596 E7.17632
G1 X122.024 Y83.402 E7.19421
G1 X122.776 Y83.286 E7.2121
G1 X123.5 Y83.25 E7.22915
G1 X137.35 Y83.25 E7.55481
G1 X138.191 Y83.016 E7.57533
G1 X138.943 Y82.9 E7.59322
G1 X139.667 Y82.864 E7.61027
G1 X154.441 Y82.864 E7.95765
G1 X155.201 Y82.904 E7.97555
G1 X155.953 Y83.023 E7.99345
G1 X156.688 Y83.221 E8.01135
G1 X157.399 Y83.495 E8.02926
G1 X158.077 Y83.841 E8.04716
G1 X158.714 Y84.257 E8.06505
G1 X159.305 Y84.738 E8.08297
G1 X159.842 Y85.277 E8.10086
G1 X160.319 Y85.87 E8.11875
G1 X160.732 Y86.51 E8.13666
G1 X161.075 Y87.19 E8.15457
G1 X161.345 Y87.902 E8.17247
G1 X161.539 Y88.638 E8.19037
G1 X161.655 Y89.39 E8.20826
G1 X161.691 Y90.109 E8.22519
G1 X161.692 Y91.534 E8.25869
G1 X161.691 Y185.114 E10.45906
G1 X161.651 Y185.874 E10.47695
G1 X161.532 Y186.626 E10.49486
G1 X161.334 Y187.361 E10.51275
G1 X161.06 Y188.072 E10.53067
G1 X160.714 Y188.75 E10.54857
G1 X160.298 Y189.387 E10.56646
G1 X159.817 Y189.978 E10.58437
G1 X159.278 Y190.515 E10.60226
G1 X158.685 Y190.992 E10.62016
G1 X158.045 Y191.405 E10.63807
G1 X157.365 Y191.748 E10.65598
G1 X156.653 Y192.018 E10.67388
G1 X155.917 Y192.212 E10.69178
G1 X155.165 Y192.328 E10.70967
G1 X154.441 Y192.364 E10.72671
G1 X140.591 Y192.364 E11.05237
G1 X139.75 Y192.598 E11.0729
G1 X138.998 Y192.714 E11.09079
G1 X138.274 Y192.75 E11.10783
G1 X123.5 Y192.75 E11.45522
G1 X122.74 Y192.71 E11.47311
G1 X121.988 Y192.591 E11.49101
G1 X121.253 Y192.393 E11.50891
G1 X120.542 Y192.119 E11.52683
G1 X119.864 Y191.773 E11.54473
G1 X119.227 Y191.357 E11.56261
G1 X118.636 Y190.876 E11.58053
G1 X118.099 Y190.337 E11.59842
G1 X117.622 Y189.744 E11.61632
G1 X117.209 Y189.104 E11.63423
G1 X116.866 Y188.424 E11.65213
G1 X116.596 Y187.712 E11.67004
G1 X116.402 Y186.976 E11.68794
G1 X116.286 Y186.224 E11.70583
G1 X116.25 Y185.5 E11.72287
G1 X116.25 Y90.5 E13.95662
G1 X116.29 Y89.74 E13.97452
G1 X116.409 Y88.988 E13.99242
G1 X116.607 Y88.253 E14.01032
G1 X116.881 Y87.542 E14.02824
G1 X117.227 Y86.864 E14.04613
G1 X117.643 Y86.227 E14.06402
G0 F3600 X118.14 Y86.397
G1 F1800 X118.617 Y85.839 E14.08128
G1 X119.153 Y85.336 E14.09857
G1 X119.74 Y84.894 E14.11584
G1 X120.371 Y84.519 E14.1331
G1 X121.039 Y84.214 E14.15037
G1 X121.737 Y83.984 E14.16765
G1 X122.456 Y83.831 E14.18494
G1 X123.5 Y83.75 E14.20956
G1 X137.443 Y83.75 E14.5374
G1 X137.904 Y83.598 E14.54881
G1 X138.623 Y83.445 E14.5661
G1 X139.667 Y83.364 E14.59072
G1 X154.441 Y83.364 E14.9381
G1 X155.174 Y83.404 E14.95537
G1 X155.899 Y83.523 E14.97264
G1 X156.607 Y83.721 E14.98993
G1 X157.289 Y83.994 E15.0072
G1 X157.937 Y84.34 E15.02447
G1 X158.544 Y84.754 E15.04175
G1 X159.102 Y85.231 E15.05901
G1 X159.605 Y85.767 E15.07629
G1 X160.047 Y86.354 E15.09357
G1 X160.422 Y86.985 E15.11083
G1 X160.727 Y87.653 E15.1281
G1 X160.957 Y88.351 E15.14538
G1 X161.11 Y89.07 E15.16266
G1 X161.191 Y90.109 E15.18717
G1 X161.192 Y91.534 E15.22067
G1 X161.191 Y185.114 E17.42104
G1 X161.151 Y185.848 E17.43832
G1 X161.032 Y186.572 E17.45557
G1 X160.834 Y187.28 E17.47286
G1 X160.561 Y187.962 E17.49013
G1 X160.215 Y188.61 E17.5074
G1 X159.801 Y189.217 E17.52468
G1 X159.324 Y189.775 E17.54194
G1 X158.788 Y190.278 E17.55922
G1 X158.201 Y190.72 E17.5765
G1 X157.57 Y191.095 E17.59376
G1 X156.901 Y191.4 E17.61105
G1 X156.204 Y191.63 E17.62831
G1 X155.485 Y191.783 E17.64559
G1 X154.441 Y191.864 E17.67021
G1 X140.498 Y191.864 E17.99806
G1 X140.037 Y192.016 E18.00947
G1 X139.318 Y192.169 E18.02676
G1 X138.274 Y192.25 E18.05138
G1 X123.5 Y192.25 E18.39876
G1 X122.767 Y192.21 E18.41602
G1 X122.042 Y192.091 E18.4333
G1 X121.334 Y191.893 E18.45058
G1 X120.652 Y191.62 E18.46786
G1 X120.004 Y191.274 E18.48513
G1 X119.397 Y190.86 E18.50241
G1 X118.839 Y190.383 E18.51967
G1 X118.336 Y189.847 E18.53695
G1 X117.894 Y189.26 E18.55423
G1 X117.519 Y188.629 E18.57149
G1 X117.214 Y187.961 E18.58875
G1 X116.984 Y187.263 E18.60603
G1 X116.831 Y186.544 E18.62332
G1 X116.75 Y185.5 E18.64794
G1 X116.75 Y90.5 E20.88169
G1 X116.79 Y89.767 E20.89895
G1 X116.909 Y89.042 E20.91623
G1 X117.107 Y88.334 E20.93352
G1 X117.38 Y87.652 E20.95079
G1 X117.726 Y87.004 E20.96806
G1 X118.14 Y86.397 E20.98534
G0 F3600 X118.224 Y87.15
G1 F1800 X118.636 Y86.575 E21.00197
G1 X119.11 Y86.051 E21.01858
G1 X119.641 Y85.584 E21.03521
G1 X120.22 Y85.18 E21.05181
G1 X120.842 Y84.843 E21.06844
G1 X121.498 Y84.579 E21.08507
G1 X122.179 Y84.391 E21.10168
G1 X122.877 Y84.281 E21.1183
G1 X123.5 Y84.25 E21.13296
G1 X137.523 Y84.25 E21.46269
G1 X137.665 Y84.193 E21.46629
G1 X138.346 Y84.005 E21.4829
G1 X139.044 Y83.895 E21.49951
G1 X139.667 Y83.864 E21.51418
G1 X154.441 Y83.864 E21.86157
G1 X155.147 Y83.904 E21.87819
G1 X155.843 Y84.023 E21.89479
G1 X156.522 Y84.221 E21.91143
G1 X157.174 Y84.493 E21.92804
G1 X157.791 Y84.838 E21.94466
G1 X158.366 Y85.25 E21.96129
G1 X158.89 Y85.724 E21.9779
G1 X159.357 Y86.255 E21.99453
G1 X159.761 Y86.834 E22.01113
G1 X160.098 Y87.456 E22.02777
G1 X160.362 Y88.112 E22.04439
G1 X160.55 Y88.793 E22.061
G1 X160.66 Y89.491 E22.07762
G1 X160.691 Y90.11 E22.09219
G1 X160.692 Y91.535 E22.1257
G1 X160.691 Y185.114 E24.32604
G1 X160.651 Y185.82 E24.34267
G1 X160.532 Y186.516 E24.35927
G1 X160.334 Y187.195 E24.3759
G1 X160.062 Y187.847 E24.39251
G1 X159.717 Y188.464 E24.40913
G1 X159.305 Y189.039 E24.42576
G1 X158.831 Y189.563 E24.44238
G1 X158.3 Y190.03 E24.45901
G1 X157.721 Y190.434 E24.47561
G1 X157.099 Y190.771 E24.49224
G1 X156.443 Y191.035 E24.50887
G1 X155.762 Y191.223 E24.52548
G1 X155.064 Y191.333 E24.54209
G1 X154.441 Y191.364 E24.55676
G1 X140.418 Y191.364 E24.88649
G1 X140.276 Y191.421 E24.89008
G1 X139.595 Y191.609 E24.9067
G1 X138.897 Y191.719 E24.92331
G1 X138.274 Y191.75 E24.93798
G1 X123.5 Y191.75 E25.28536
G1 X122.794 Y191.71 E25.30199
G1 X122.098 Y191.591 E25.31859
G1 X121.419 Y191.393 E25.33522
G1 X120.767 Y191.121 E25.35183
G1 X120.15 Y190.776 E25.36845
G1 X119.575 Y190.364 E25.38509
G1 X119.051 Y189.89 E25.4017
G1 X118.584 Y189.359 E25.41833
G1 X118.18 Y188.78 E25.43493
G1 X117.843 Y188.158 E25.45156
G1 X117.579 Y187.502 E25.46819
G1 X117.391 Y186.821 E25.4848
G1 X117.281 Y186.123 E25.50141
G1 X117.25 Y185.5 E25.51608
G1 X117.25 Y90.5 E27.74984
G1 X117.29 Y89.794 E27.76646
G1 X117.409 Y89.098 E27.78306
G1 X117.607 Y88.419 E27.7997
G1 X117.879 Y87.767 E27.81631
G1 X118.224 Y87.15 E27.83293
G0 F3600 X118.722 Y87.302
G1 F1800 X119.131 Y86.761 E27.84887
G1 X119.602 Y86.273 E27.86482
G1 X120.126 Y85.844 E27.88075
G1 X120.698 Y85.479 E27.8967
G1 X121.308 Y85.184 E27.91263
G1 X121.949 Y84.963 E27.92857
G1 X122.611 Y84.819 E27.9445
G1 X123.5 Y84.75 E27.96547
G1 X137.614 Y84.75 E28.29734
G1 X138.116 Y84.577 E28.30982
G1 X138.778 Y84.433 E28.32575
G1 X139.667 Y84.364 E28.34672
G1 X154.441 Y84.364 E28.6941
G1 X155.118 Y84.404 E28.71005
G1 X155.785 Y84.523 E28.72598
G1 X156.434 Y84.72 E28.74193
G1 X157.055 Y84.992 E28.75787
G1 X157.639 Y85.336 E28.7738
G1 X158.18 Y85.745 E28.78975
G1 X158.668 Y86.216 E28.8057
G1 X159.097 Y86.74 E28.82162
G1 X159.462 Y87.312 E28.83757
G1 X159.757 Y87.922 E28.85351
G1 X159.978 Y88.563 E28.86945
G1 X160.122 Y89.225 E28.88538
G1 X160.191 Y90.11 E28.90625
G1 X160.192 Y91.535 E28.93976
G1 X160.191 Y185.114 E31.1401
G1 X160.151 Y185.791 E31.15605
G1 X160.032 Y186.458 E31.17198
G1 X159.835 Y187.107 E31.18792
G1 X159.563 Y187.728 E31.20387
G1 X159.219 Y188.312 E31.2198
G1 X158.81 Y188.853 E31.23575
G1 X158.339 Y189.341 E31.2517
G1 X157.815 Y189.77 E31.26762
G1 X157.243 Y190.135 E31.28357
G1 X156.633 Y190.43 E31.29951
G1 X155.992 Y190.651 E31.31545
G1 X155.329 Y190.795 E31.3314
G1 X154.441 Y190.864 E31.35234
G1 X140.327 Y190.864 E31.68421
G1 X139.825 Y191.037 E31.69669
G1 X139.162 Y191.181 E31.71265
G1 X138.274 Y191.25 E31.73359
G1 X123.5 Y191.25 E32.08097
G1 X122.823 Y191.21 E32.09692
G1 X122.156 Y191.091 E32.11285
G1 X121.507 Y190.894 E32.1288
G1 X120.886 Y190.622 E32.14474
G1 X120.302 Y190.278 E32.16068
G1 X119.761 Y189.869 E32.17662
G1 X119.273 Y189.398 E32.19257
G1 X118.844 Y188.874 E32.20849
G1 X118.479 Y188.302 E32.22445
G1 X118.184 Y187.692 E32.24038
G1 X117.963 Y187.051 E32.25632
G1 X117.819 Y186.389 E32.27225
G1 X117.75 Y185.5 E32.29322
G1 X117.75 Y90.5 E34.52697
G1 X117.79 Y89.823 E34.54292
G1 X117.909 Y89.156 E34.55885
G1 X118.106 Y88.507 E34.5748
G1 X118.378 Y87.886 E34.59074
G1 X118.722 Y87.302 E34.60667
G0 F3600 X119.219 Y87.461
G1 F1800 X119.626 Y86.957 E34.62191
G1 X120.092 Y86.507 E34.63714
G1 X120.609 Y86.118 E34.65235
G1 X121.171 Y85.795 E34.66759
G1 X121.768 Y85.544 E34.68282
G1 X122.392 Y85.368 E34.69807
G1 X123.032 Y85.271 E34.71329
G1 X123.5 Y85.25 E34.7243
G1 X137.716 Y85.25 E35.05856
G1 X137.935 Y85.158 E35.06415
G1 X138.559 Y84.982 E35.07939
G1 X139.199 Y84.885 E35.09462
G1 X139.667 Y84.864 E35.10563
G1 X154.441 Y84.864 E35.45301
G1 X155.088 Y84.904 E35.46826
G1 X155.724 Y85.023 E35.48347
G1 X156.341 Y85.22 E35.4987
G1 X156.93 Y85.491 E35.51394
G1 X157.48 Y85.833 E35.52917
G1 X157.984 Y86.24 E35.54441
G1 X158.434 Y86.706 E35.55964
G1 X158.823 Y87.223 E35.57485
G1 X159.146 Y87.785 E35.59009
G1 X159.397 Y88.382 E35.60532
G1 X159.573 Y89.006 E35.62056
G1 X159.67 Y89.646 E35.63578
G1 X159.691 Y90.11 E35.64671
G1 X159.692 Y91.535 E35.68021
G1 X159.691 Y185.114 E37.88055
G1 X159.651 Y185.761 E37.8958
G1 X159.532 Y186.397 E37.91101
G1 X159.335 Y187.014 E37.92624
G1 X159.064 Y187.603 E37.94148
G1 X158.722 Y188.153 E37.95671
G1 X158.315 Y188.657 E37.97194
G1 X157.849 Y189.107 E37.98718
G1 X157.332 Y189.497 E38.0024
G1 X156.77 Y189.819 E38.01763
G1 X156.173 Y190.07 E38.03286
G1 X155.549 Y190.246 E38.04811
G1 X154.909 Y190.343 E38.06333
G1 X154.441 Y190.364 E38.07434
G1 X140.225 Y190.364 E38.4086
G1 X140.006 Y190.456 E38.41419
G1 X139.382 Y190.632 E38.42943
G1 X138.742 Y190.729 E38.44465
G1 X138.274 Y190.75 E38.45567
G1 X123.5 Y190.75 E38.80305
G1 X122.853 Y190.71 E38.8183
G1 X122.217 Y190.591 E38.83351
G1 X121.6 Y190.394 E38.84874
G1 X121.011 Y190.123 E38.86398
G1 X120.461 Y189.781 E38.87921
G1 X119.957 Y189.374 E38.89444
G1 X119.507 Y188.908 E38.90968
G1 X119.118 Y188.391 E38.92489
G1 X118.795 Y187.829 E38.94013
G1 X118.544 Y187.232 E38.95536
G1 X118.368 Y186.608 E38.9706
G1 X118.271 Y185.968 E38.98582
G1 X118.25 Y185.5 E38.99684
G1 X118.25 Y90.5 E41.23059
G1 X118.29 Y89.853 E41.24583
G1 X118.409 Y89.217 E41.26105
G1 X118.606 Y88.6 E41.27628
G1 X118.877 Y88.011 E41.29152
G1 X119.219 Y87.461 E41.30675
G0 F3600 X119.716 Y87.629
G1 F1800 X120.119 Y87.163 E41.32124
G1 X120.579 Y86.754 E41.33571
G1 X121.089 Y86.407 E41.35021
G1 X121.639 Y86.13 E41.36469
G1 X122.22 Y85.926 E41.37917
G1 X122.823 Y85.798 E41.39367
G1 X123.5 Y85.75 E41.40963
G1 X137.794 Y85.75 E41.74572
G1 X138.387 Y85.54 E41.76052
G1 X138.99 Y85.412 E41.77501
G1 X139.667 Y85.364 E41.79097
G1 X154.441 Y85.364 E42.13835
G1 X155.056 Y85.404 E42.15284
G1 X155.66 Y85.523 E42.16732
G1 X156.244 Y85.72 E42.18181
G1 X156.798 Y85.99 E42.1963
G1 X157.312 Y86.33 E42.21079
G1 X157.778 Y86.733 E42.22528
G1 X158.187 Y87.193 E42.23975
G1 X158.534 Y87.703 E42.25426
G1 X158.811 Y88.253 E42.26874
G1 X159.015 Y88.834 E42.28321
G1 X159.143 Y89.437 E42.29771
G1 X159.191 Y90.111 E42.3136
G1 X159.192 Y91.536 E42.3471
G1 X159.191 Y185.114 E44.54742
G1 X159.151 Y185.729 E44.56191
G1 X159.032 Y186.333 E44.57639
G1 X158.835 Y186.917 E44.59088
G1 X158.565 Y187.471 E44.60537
G1 X158.225 Y187.985 E44.61986
G1 X157.822 Y188.451 E44.63435
G1 X157.362 Y188.86 E44.64882
G1 X156.852 Y189.207 E44.66332
G1 X156.302 Y189.484 E44.6778
G1 X155.721 Y189.688 E44.69228
G1 X155.118 Y189.816 E44.70678
G1 X154.441 Y189.864 E44.72274
G1 X140.147 Y189.864 E45.05883
G1 X139.554 Y190.074 E45.07362
G1 X138.951 Y190.202 E45.08812
G1 X138.274 Y190.25 E45.10408
G1 X123.5 Y190.25 E45.45146
G1 X122.885 Y190.21 E45.46595
G1 X122.281 Y190.091 E45.48043
G1 X121.697 Y189.894 E45.49492
G1 X121.143 Y189.624 E45.50941
G1 X120.629 Y189.284 E45.5239
G1 X120.163 Y188.881 E45.53839
G1 X119.754 Y188.421 E45.55286
G1 X119.407 Y187.911 E45.56736
G1 X119.13 Y187.361 E45.58184
G1 X118.926 Y186.78 E45.59632
G1 X118.798 Y186.177 E45.61082
G1 X118.75 Y185.5 E45.62678
G1 X118.75 Y90.5 E47.86053
G1 X118.79 Y89.885 E47.87502
G1 X118.909 Y89.281 E47.8895
G1 X119.106 Y88.697 E47.90399
G1 X119.376 Y88.143 E47.91848
G1 X119.716 Y87.629 E47.93297
G0 F3600 X119.874 Y88.283
G1 F1800 X120.212 Y87.807 E47.9467
G1 X120.611 Y87.383 E47.96039
G1 X121.065 Y87.017 E47.9741
G1 X121.564 Y86.717 E47.98779
G1 X122.1 Y86.487 E48.0015
G1 X122.662 Y86.333 E48.0152
G1 X123.5 Y86.25 E48.035
G1 X137.92 Y86.25 E48.37407
G1 X138.267 Y86.101 E48.38294
G1 X138.829 Y85.947 E48.39665
