;Generated by Cura LulzBot Edition GCodeWriter Version: 3.6.21
;FLAVOR:Marlin
;TIME:4046
;Filament used: 1.20748m
;Layer height: 0.18
;Generated with Cura_SteamEngine 3.6.21
M82 ;absolute extrusion mode
;This G-Code has been generated specifically for the LulzBot TAZ 5 with standard extruder
M75			 ; start GLCD timer
M140 S85.0    ; start bed heating up
G90                      ; absolute positioning
M107                     ; disable fans
M82                      ; set extruder to absolute mode
G28 X0 Y0                ; home X and Y
G28 Z0                   ; home Z
G1 Z15.0 F175 ; move extruder up
M117 Heating...                     ; progress indicator message on LCD
M109 R245  ; wait for extruder to reach printing temp
M190 R85.0    ; wait for bed to reach printing temp
G92 E0                   ; set extruder position to 0
G1 F200 E0               ; prime the nozzle with filament
G92 E0                   ; re-set extruder position to 0
G1 F175       ; set travel speed
M203 X192 Y208 Z3        ; set limits on travel speed
M117 TAZ 5 Printing...   ; progress indicator message on LCD

M221 S100 T0
G92 E0
G1 F600 E-1
;LAYER_COUNT:138
;LAYER:0
M107
G0 F2625 X197.826 Y60.899 Z0.425
;TYPE:SKIRT
G1 F600 E0
G1 F900 X198.021 Y60.388 E0.01822
G1 X198.289 Y59.91 E0.03647
G1 X198.624 Y59.477 E0.05471
G1 X199.018 Y59.097 E0.07294
G1 X199.463 Y58.778 E0.09118
G1 X199.95 Y58.528 E0.10942
G1 X200.468 Y58.351 E0.12765
G1 X201.006 Y58.252 E0.14587
G1 X201.417 Y58.229 E0.15958
G1 X211.399 Y58.23 E0.49209
G1 X211.945 Y58.27 E0.51032
G1 X212.48 Y58.389 E0.52858
G1 X212.991 Y58.585 E0.54681
G1 X213.468 Y58.852 E0.56502
G1 X213.901 Y59.187 E0.58326
G1 X214.281 Y59.581 E0.60149
G1 X214.6 Y60.026 E0.61973
G1 X214.85 Y60.513 E0.63796
G1 X215.027 Y61.031 E0.6562
G1 X215.126 Y61.569 E0.67442
G1 X215.149 Y61.981 E0.68816
G1 X215.147 Y71.982 E1.0213
G1 X215.111 Y72.497 E1.0385
G1 X214.812 Y74.647 E1.11081
G1 X214.266 Y80.156 E1.29521
G1 X214.14 Y82.211 E1.36379
G1 X214.111 Y82.497 E1.37337
G1 X213.812 Y84.647 E1.44567
G1 X213.266 Y90.156 E1.63008
G1 X213.14 Y92.211 E1.69866
G1 X213.111 Y92.497 E1.70824
G1 X212.812 Y94.647 E1.78054
G1 X212.266 Y100.156 E1.96495
G1 X212.14 Y102.211 E2.03353
G1 X212.111 Y102.497 E2.04311
G1 X211.812 Y104.647 E2.11541
G1 X211.266 Y110.156 E2.29982
G1 X211.14 Y112.211 E2.3684
G1 X211.111 Y112.497 E2.37798
G1 X210.812 Y114.647 E2.45028
G1 X210.266 Y120.156 E2.63469
G1 X210.14 Y122.211 E2.70327
G1 X210.111 Y122.497 E2.71285
G1 X209.812 Y124.647 E2.78515
G1 X209.266 Y130.156 E2.96956
G1 X209.14 Y132.211 E3.03814
G1 X209.111 Y132.497 E3.04771
G1 X208.812 Y134.647 E3.12002
G1 X208.266 Y140.156 E3.30443
G1 X208.14 Y142.211 E3.37301
G1 X208.111 Y142.497 E3.38258
G1 X207.812 Y144.647 E3.45489
G1 X207.266 Y150.156 E3.6393
G1 X207.14 Y152.211 E3.70788
G1 X207.111 Y152.497 E3.71745
G1 X206.812 Y154.647 E3.78976
G1 X206.266 Y160.157 E3.9742
G1 X206.141 Y162.191 E4.04208
G1 X206.067 Y162.734 E4.06033
G1 X205.916 Y163.26 E4.07856
G1 X205.689 Y163.758 E4.09679
G1 X205.393 Y164.218 E4.11502
G1 X205.032 Y164.63 E4.13326
G1 X204.616 Y164.985 E4.15148
G1 X204.152 Y165.276 E4.16972
G1 X203.651 Y165.496 E4.18795
G1 X203.123 Y165.64 E4.20618
G1 X202.398 Y165.711 E4.23045
G1 X201.417 Y165.711 E4.26312
G1 X200.871 Y165.671 E4.28136
G1 X200.337 Y165.552 E4.29958
G1 X199.826 Y165.357 E4.3178
G1 X199.348 Y165.089 E4.33606
G1 X198.915 Y164.754 E4.35429
G1 X198.535 Y164.36 E4.37253
G1 X198.216 Y163.915 E4.39076
G1 X197.966 Y163.428 E4.409
G1 X197.789 Y162.91 E4.42723
G1 X197.69 Y162.372 E4.44546
G1 X197.667 Y161.961 E4.45917
G1 X197.667 Y61.979 E7.7896
G1 X197.707 Y61.433 E7.80784
G1 X197.826 Y60.899 E7.82606
G0 F2625 X198.326 Y60.976
G1 F900 X198.521 Y60.505 E7.84304
G1 X198.787 Y60.07 E7.86003
G1 X199.117 Y59.683 E7.87697
G1 X199.504 Y59.351 E7.89396
G1 X199.939 Y59.085 E7.91094
G1 X200.409 Y58.889 E7.9279
G1 X200.904 Y58.77 E7.94486
G1 X201.417 Y58.729 E7.962
G1 X211.399 Y58.73 E8.29451
G1 X211.907 Y58.77 E8.31148
G1 X212.403 Y58.889 E8.32847
G1 X212.873 Y59.084 E8.34542
G1 X213.308 Y59.35 E8.36241
G1 X213.696 Y59.68 E8.37937
G1 X214.027 Y60.068 E8.39636
G1 X214.293 Y60.502 E8.41332
G1 X214.489 Y60.972 E8.43028
G1 X214.608 Y61.468 E8.44727
G1 X214.649 Y61.981 E8.46441
G1 X214.647 Y71.982 E8.79755
G1 X214.616 Y72.428 E8.81244
G1 X214.314 Y74.604 E8.88562
G1 X213.769 Y80.105 E9.06976
G1 X213.641 Y82.18 E9.13901
G1 X213.616 Y82.428 E9.14731
G1 X213.314 Y84.604 E9.22049
G1 X212.769 Y90.105 E9.40463
G1 X212.641 Y92.18 E9.47388
G1 X212.616 Y92.428 E9.48218
G1 X212.314 Y94.604 E9.55536
G1 X211.769 Y100.105 E9.7395
G1 X211.641 Y102.18 E9.80875
G1 X211.616 Y102.428 E9.81705
G1 X211.314 Y104.604 E9.89023
G1 X210.769 Y110.105 E10.07436
G1 X210.641 Y112.18 E10.14362
G1 X210.616 Y112.428 E10.15192
G1 X210.314 Y114.604 E10.2251
G1 X209.769 Y120.105 E10.40923
G1 X209.641 Y122.18 E10.47848
G1 X209.616 Y122.428 E10.48679
G1 X209.314 Y124.604 E10.55996
G1 X208.769 Y130.105 E10.7441
G1 X208.641 Y132.18 E10.81335
G1 X208.616 Y132.428 E10.82166
G1 X208.314 Y134.604 E10.89483
G1 X207.769 Y140.105 E11.07897
G1 X207.641 Y142.18 E11.14822
G1 X207.616 Y142.428 E11.15652
G1 X207.314 Y144.604 E11.2297
G1 X206.769 Y150.105 E11.41384
G1 X206.641 Y152.18 E11.48309
G1 X206.616 Y152.428 E11.49139
G1 X206.314 Y154.604 E11.56457
G1 X205.769 Y160.103 E11.74864
G1 X205.642 Y162.161 E11.81732
G1 X205.571 Y162.665 E11.83428
G1 X205.422 Y163.153 E11.85128
G1 X205.198 Y163.61 E11.86823
G1 X204.906 Y164.028 E11.88521
G1 X204.552 Y164.394 E11.90217
G1 X204.145 Y164.701 E11.91916
G1 X203.696 Y164.941 E11.93612
G1 X203.214 Y165.107 E11.9531
G1 X202.712 Y165.196 E11.97008
G1 X202.398 Y165.211 E11.98055
G1 X201.417 Y165.211 E12.01323
G1 X200.909 Y165.171 E12.0302
G1 X200.414 Y165.052 E12.04716
G1 X199.943 Y164.857 E12.06414
G1 X199.508 Y164.591 E12.08113
G1 X199.121 Y164.261 E12.09807
G1 X198.789 Y163.874 E12.11505
G1 X198.523 Y163.439 E12.13204
G1 X198.327 Y162.969 E12.149
G1 X198.208 Y162.474 E12.16596
G1 X198.167 Y161.961 E12.1831
G1 X198.167 Y61.979 E15.51354
G1 X198.207 Y61.471 E15.53051
G1 X198.326 Y60.976 E15.54747
G1 F600 E14.54747
;MESH:
G0 F2625 X200.743 Y62.734
G0 X202.172 Y62.734
G0 X209.588 Y71.15
G0 X209.658 Y71.22
;TYPE:WALL-INNER
G1 F600 E15.54747
G1 F900 X209.658 Y81.22 E15.88057
G1 X208.658 Y81.22 E15.91388
G1 X208.658 Y91.22 E16.24699
G1 X207.658 Y91.22 E16.2803
G1 X207.658 Y101.22 E16.6134
G1 X206.658 Y101.22 E16.64671
G1 X206.658 Y111.22 E16.97981
G1 X205.658 Y111.22 E17.01312
G1 X205.658 Y121.22 E17.34623
G1 X204.658 Y121.22 E17.37954
G1 X204.658 Y131.22 E17.71264
G1 X203.658 Y131.22 E17.74595
G1 X203.658 Y141.22 E18.07906
G1 X202.658 Y141.22 E18.11237
G1 X202.658 Y151.22 E18.44547
G1 X202.158 Y151.22 E18.46212
G1 X202.158 Y141.22 E18.79523
G1 X202.158 Y62.72 E21.41009
G1 X210.658 Y62.72 E21.69323
G1 X210.658 Y71.22 E21.97637
G1 X209.658 Y71.22 E22.00968
G0 F2625 X210.158 Y71.72
;TYPE:WALL-OUTER
G1 F900 X210.158 Y81.72 E22.34278
G1 X209.158 Y81.72 E22.37609
G1 X209.158 Y91.72 E22.7092
G1 X208.158 Y91.72 E22.74251
G1 X208.158 Y101.72 E23.07561
G1 X207.158 Y101.72 E23.10892
G1 X207.158 Y111.72 E23.44202
G1 X206.158 Y111.72 E23.47533
G1 X206.158 Y121.72 E23.80844
G1 X205.158 Y121.72 E23.84175
G1 X205.158 Y131.72 E24.17485
G1 X204.158 Y131.72 E24.20816
G1 X204.158 Y141.72 E24.54127
G1 X203.158 Y141.72 E24.57458
G1 X203.158 Y151.72 E24.90768
G1 X202.158 Y151.72 E24.94099
G1 X202.158 Y161.72 E25.27409
G1 X201.658 Y161.72 E25.29075
G1 X201.658 Y151.72 E25.62385
G1 X201.658 Y62.22 E28.60513
G1 X211.158 Y62.22 E28.92158
G1 X211.158 Y71.72 E29.23803
G1 X210.158 Y71.72 E29.27134
G0 F2625 X210.158 Y71.97
G0 X209.558 Y71.97
G0 X209.63 Y71.192
G0 X210.168 Y70.73
;TYPE:SKIN
G1 F900 X209.168 Y70.73 E29.30465
G1 X209.168 Y80.73 E29.63775
G1 X208.168 Y80.73 E29.67106
G1 X208.168 Y90.73 E30.00416
G1 X207.168 Y90.73 E30.03748
G1 X207.168 Y100.73 E30.37058
G1 X206.168 Y100.73 E30.40389
G1 X206.168 Y110.73 E30.73699
G1 X205.168 Y110.73 E30.7703
G1 X205.168 Y120.73 E31.10341
G1 X204.168 Y120.73 E31.13672
G1 X204.168 Y130.73 E31.46982
G1 X203.168 Y130.73 E31.50313
G1 X203.168 Y140.73 E31.83623
G1 X202.648 Y140.73 E31.85356
G1 X202.648 Y63.21 E34.43578
G1 X210.168 Y63.21 E34.68627
G1 X210.168 Y70.73 E34.93676
G0 F2625 X209.942 Y63.571
G1 F900 X209.806 Y63.435 E34.94317
G0 F2625 X209.099 Y63.435
G1 F900 X209.942 Y64.278 E34.98288
G0 F2625 X209.942 Y64.985
G1 F900 X208.392 Y63.435 E35.0559
G0 F2625 X207.685 Y63.435
G1 F900 X209.942 Y65.692 E35.16222
G0 F2625 X209.942 Y66.399
G1 F900 X206.977 Y63.435 E35.30187
G0 F2625 X206.27 Y63.435
G1 F900 X209.942 Y67.106 E35.47483
G0 F2625 X209.942 Y67.813
G1 F900 X205.563 Y63.435 E35.68109
G0 F2625 X204.856 Y63.435
G1 F900 X209.942 Y68.52 E35.92066
G0 F2625 X209.942 Y69.227
G1 F900 X204.149 Y63.435 E36.19353
G0 F2625 X203.442 Y63.435
G1 F900 X209.942 Y69.934 E36.49971
G0 F2625 X209.804 Y70.504
G1 F900 X202.871 Y63.571 E36.82631
G0 F2625 X202.871 Y64.278
G1 F900 X209.097 Y70.504 E37.1196
G0 F2625 X208.942 Y71.056
G1 F900 X202.871 Y64.985 E37.4056
G0 F2625 X202.871 Y65.693
G1 F900 X208.942 Y71.763 E37.69157
G0 F2625 X208.942 Y72.47
G1 F900 X202.871 Y66.4 E37.97753
G0 F2625 X202.871 Y67.107
G1 F900 X208.942 Y73.177 E38.2635
G0 F2625 X208.942 Y73.884
G1 F900 X202.871 Y67.814 E38.54947
G0 F2625 X202.871 Y68.521
G1 F900 X208.942 Y74.591 E38.83544
G0 F2625 X208.942 Y75.299
G1 F900 X202.871 Y69.228 E39.12143
G0 F2625 X202.871 Y69.935
G1 F900 X208.942 Y76.006 E39.40743
G0 F2625 X208.942 Y76.713
G1 F900 X202.871 Y70.642 E39.69342
G0 F2625 X202.871 Y71.349
G1 F900 X208.942 Y77.42 E39.97941
G0 F2625 X208.942 Y78.127
G1 F900 X202.871 Y72.057 E40.26538
G0 F2625 X202.871 Y72.764
G1 F900 X208.942 Y78.834 E40.55135
G0 F2625 X208.942 Y79.541
G1 F900 X202.871 Y73.471 E40.83732
G0 F2625 X202.871 Y74.178
G1 F900 X208.942 Y80.248 E41.12329
G0 F2625 X208.491 Y80.504
G1 F900 X202.871 Y74.885 E41.38801
G0 F2625 X202.871 Y75.592
G1 F900 X207.942 Y80.663 E41.62689
G0 F2625 X207.942 Y81.37
G1 F900 X202.871 Y76.299 E41.86578
G0 F2625 X202.871 Y77.006
G1 F900 X207.942 Y82.077 E42.10466
G0 F2625 X207.942 Y82.784
G1 F900 X202.871 Y77.713 E42.34355
G0 F2625 X202.871 Y78.42
G1 F900 X207.942 Y83.491 E42.58243
G0 F2625 X207.942 Y84.198
G1 F900 X202.871 Y79.128 E42.82129
G0 F2625 X202.871 Y79.835
G1 F900 X207.942 Y84.905 E43.06015
G0 F2625 X207.942 Y85.612
G1 F900 X202.871 Y80.542 E43.29902
G0 F2625 X202.871 Y81.249
G1 F900 X207.942 Y86.32 E43.5379
G0 F2625 X207.942 Y87.027
G1 F900 X202.871 Y81.956 E43.77678
G0 F2625 X202.871 Y82.663
G1 F900 X207.942 Y87.734 E44.01567
G0 F2625 X207.942 Y88.441
G1 F900 X202.871 Y83.37 E44.25455
G0 F2625 X202.871 Y84.077
G1 F900 X207.942 Y89.148 E44.49344
G0 F2625 X207.942 Y89.855
G1 F900 X202.871 Y84.784 E44.73232
G0 F2625 X202.871 Y85.492
G1 F900 X207.884 Y90.504 E44.96845
G0 F2625 X207.177 Y90.504
G1 F900 X202.871 Y86.199 E45.17127
G0 F2625 X202.871 Y86.906
G1 F900 X206.942 Y90.977 E45.36305
G0 F2625 X206.942 Y91.684
G1 F900 X202.871 Y87.613 E45.55483
G0 F2625 X202.871 Y88.32
G1 F900 X206.942 Y92.391 E45.7466
G0 F2625 X206.942 Y93.098
G1 F900 X202.871 Y89.027 E45.93838
G0 F2625 X202.871 Y89.734
G1 F900 X206.942 Y93.805 E46.13016
G0 F2625 X206.942 Y94.512
G1 F900 X202.871 Y90.441 E46.32193
G0 F2625 X202.871 Y91.148
G1 F900 X206.942 Y95.219 E46.51371
G0 F2625 X206.942 Y95.926
G1 F900 X202.871 Y91.855 E46.70549
G0 F2625 X202.871 Y92.563
G1 F900 X206.942 Y96.633 E46.89724
G0 F2625 X206.942 Y97.341
G1 F900 X202.871 Y93.27 E47.08902
G0 F2625 X202.871 Y93.977
G1 F900 X206.942 Y98.048 E47.28079
G0 F2625 X206.942 Y98.755
G1 F900 X202.871 Y94.684 E47.47257
G0 F2625 X202.871 Y95.391
G1 F900 X206.942 Y99.462 E47.66435
G0 F2625 X206.942 Y100.169
G1 F900 X202.871 Y96.098 E47.85612
G0 F2625 X202.871 Y96.805
G1 F900 X206.57 Y100.504 E48.03037
G0 F2625 X205.942 Y100.583
G1 F900 X202.871 Y97.512 E48.17504
G0 F2625 X202.871 Y98.219
G1 F900 X205.942 Y101.29 E48.31971
G0 F2625 X205.942 Y101.997
G1 F900 X202.871 Y98.927 E48.46436
G0 F2625 X202.871 Y99.634
G1 F900 X205.942 Y102.704 E48.609
G0 F2625 X205.942 Y103.411
G1 F900 X202.871 Y100.341 E48.75365
G0 F2625 X202.871 Y101.048
G1 F900 X205.942 Y104.118 E48.89829
G0 F2625 X205.942 Y104.825
G1 F900 X202.871 Y101.755 E49.04294
G0 F2625 X202.871 Y102.462
G1 F900 X205.942 Y105.532 E49.18758
G0 F2625 X205.942 Y106.239
G1 F900 X202.871 Y103.169 E49.33223
G0 F2625 X202.871 Y103.876
G1 F900 X205.942 Y106.947 E49.4769
G0 F2625 X205.942 Y107.654
G1 F900 X202.871 Y104.583 E49.62156
G0 F2625 X202.871 Y105.291
G1 F900 X205.942 Y108.361 E49.76621
G0 F2625 X205.942 Y109.068
G1 F900 X202.871 Y105.998 E49.91085
G0 F2625 X202.871 Y106.705
G1 F900 X205.942 Y109.775 E50.0555
G0 F2625 X205.942 Y110.482
G1 F900 X202.871 Y107.412 E50.20014
G0 F2625 X202.871 Y108.119
G1 F900 X205.257 Y110.505 E50.31254
G0 F2625 X204.942 Y110.896
G1 F900 X202.871 Y108.826 E50.41008
G0 F2625 X202.871 Y109.533
G1 F900 X204.942 Y111.604 E50.50764
G0 F2625 X204.942 Y112.311
G1 F900 X202.871 Y110.24 E50.6052
G0 F2625 X202.871 Y110.947
G1 F900 X204.942 Y113.018 E50.70276
G0 F2625 X204.942 Y113.725
G1 F900 X202.871 Y111.654 E50.80032
G0 F2625 X202.871 Y112.362
G1 F900 X204.942 Y114.432 E50.89786
G0 F2625 X204.942 Y115.139
G1 F900 X202.871 Y113.069 E50.9954
G0 F2625 X202.871 Y113.776
G1 F900 X204.942 Y115.846 E51.09293
G0 F2625 X204.942 Y116.553
G1 F900 X202.871 Y114.483 E51.19047
G0 F2625 X202.871 Y115.19
G1 F900 X204.942 Y117.26 E51.28801
G0 F2625 X204.942 Y117.968
G1 F900 X202.871 Y115.897 E51.38557
G0 F2625 X202.871 Y116.604
G1 F900 X204.942 Y118.675 E51.48313
G0 F2625 X204.942 Y119.382
G1 F900 X202.871 Y117.311 E51.58069
G0 F2625 X202.871 Y118.018
G1 F900 X204.942 Y120.089 E51.67825
G0 F2625 X204.65 Y120.505
G1 F900 X202.871 Y118.726 E51.76206
G0 F2625 X202.871 Y119.433
G1 F900 X203.943 Y120.505 E51.81256
G0 F2625 X203.942 Y121.21
G1 F900 X202.871 Y120.14 E51.86298
G0 F2625 X202.871 Y120.847
G1 F900 X203.942 Y121.917 E51.91341
G0 F2625 X203.942 Y122.625
G1 F900 X202.871 Y121.554 E51.96387
G0 F2625 X202.871 Y122.261
G1 F900 X203.942 Y123.332 E52.01432
G0 F2625 X203.942 Y124.039
G1 F900 X202.871 Y122.968 E52.06477
G0 F2625 X202.871 Y123.675
G1 F900 X203.942 Y124.746 E52.11522
G0 F2625 X203.942 Y125.453
G1 F900 X202.871 Y124.382 E52.16568
G0 F2625 X202.871 Y125.09
G1 F900 X203.942 Y126.16 E52.21611
G0 F2625 X203.942 Y126.867
G1 F900 X202.871 Y125.797 E52.26653
G0 F2625 X202.871 Y126.504
G1 F900 X203.942 Y127.574 E52.31696
G0 F2625 X203.942 Y128.281
G1 F900 X202.871 Y127.211 E52.36739
G0 F2625 X202.871 Y127.918
M104 S240
G1 F900 X203.942 Y128.989 E52.41785
G0 F2625 X203.942 Y129.696
G1 F900 X202.871 Y128.625 E52.4683
G0 F2625 X202.871 Y129.332
G1 F900 X203.942 Y130.403 E52.51875
G0 F2625 X203.104 Y130.272
G1 F900 X202.906 Y130.781 E52.52251
G1 X202.906 Y139.974 E52.58578
G0 F2625 X202.942 Y140.009
;MESH:NONMESH
G0 X203.561 Y132.074
G0 X209.588 Y71.15
G0 X209.658 Y71.22
;TIME_ELAPSED:126.940135
;LAYER:1
M140 S85
M221 S100 T0
M106 S51
;MESH:
G0 F6562.5 X209.658 Y71.22 Z0.605
;TYPE:WALL-INNER
G1 F1200 X209.658 Y81.22 E52.72686
G1 X208.658 Y81.22 E52.74097
G1 X208.658 Y91.22 E52.88205
G1 X207.658 Y91.22 E52.89615
G1 X207.658 Y101.22 E53.03723
G1 X206.658 Y101.22 E53.05134
G1 X206.658 Y111.22 E53.19242
G1 X205.658 Y111.22 E53.20653
G1 X205.658 Y121.22 E53.34761
G1 X204.658 Y121.22 E53.36172
G1 X204.658 Y131.22 E53.50279
G1 X203.658 Y131.22 E53.5169
G1 X203.658 Y141.22 E53.65798
G1 X202.658 Y141.22 E53.67209
G1 X202.658 Y151.22 E53.81317
G1 X202.158 Y151.22 E53.82022
G1 X202.158 Y141.22 E53.9613
G1 X202.158 Y62.72 E55.06877
G1 X210.658 Y62.72 E55.18869
G1 X210.658 Y71.22 E55.30861
G1 X209.658 Y71.22 E55.32272
G0 F6562.5 X210.158 Y71.72
;TYPE:WALL-OUTER
G1 F1050 X210.158 Y81.72 E55.46379
G1 X209.158 Y81.72 E55.4779
G1 X209.158 Y91.72 E55.61898
G1 X208.158 Y91.72 E55.63309
G1 X208.158 Y101.72 E55.77417
G1 X207.158 Y101.72 E55.78828
G1 X207.158 Y111.72 E55.92936
G1 X206.158 Y111.72 E55.94346
G1 X206.158 Y121.72 E56.08454
G1 X205.158 Y121.72 E56.09865
G1 X205.158 Y131.72 E56.23973
G1 X204.158 Y131.72 E56.25384
G1 X204.158 Y141.72 E56.39492
