;Generated by Cura LulzBot Edition GCodeWriter Version: 3.6.21
;FLAVOR:Marlin
;TIME:3149
;Filament used: 1.27136m
;Layer height: 0.18
;Generated with Cura_SteamEngine 3.6.21
M82 ;absolute extrusion mode
;This G-Code has been generated specifically for the LulzBot TAZ 5 with standard extruder
M75			 ; start GLCD timer
M140 S85.0    ; start bed heating up
G90                      ; absolute positioning
M107                     ; disable fans
M82                      ; set extruder to absolute mode
G28 X0 Y0                ; home X and Y
G28 Z0                   ; home Z
G1 Z15.0 F175 ; move extruder up
M117 Heating...                     ; progress indicator message on LCD
M109 R245  ; wait for extruder to reach printing temp
M190 R85.0    ; wait for bed to reach printing temp
G92 E0                   ; set extruder position to 0
G1 F200 E0               ; prime the nozzle with filament
G92 E0                   ; re-set extruder position to 0
G1 F175       ; set travel speed
M203 X192 Y208 Z3        ; set limits on travel speed
M117 TAZ 5 Printing...   ; progress indicator message on LCD

M221 S100 T0
G92 E0
G1 F600 E-1
;LAYER_COUNT:55
;LAYER:0
M107
G0 F2625 X85.531 Y172.115 Z0.425
;TYPE:SKIRT
G1 F600 E0
G1 F900 X86.001 Y171.919 E0.01696
G1 X86.496 Y171.8 E0.03392
G1 X87.009 Y171.759 E0.05106
G1 X186.991 Y171.76 E3.3815
G1 X187.499 Y171.8 E3.39847
G1 X187.994 Y171.919 E3.41543
G1 X188.465 Y172.114 E3.43241
G1 X188.9 Y172.38 E3.4494
G1 X189.287 Y172.71 E3.46634
G1 X189.619 Y173.097 E3.48332
G1 X189.885 Y173.532 E3.50031
G1 X190.081 Y174.002 E3.51727
G1 X190.2 Y174.497 E3.53423
G1 X190.241 Y175.01 E3.55137
G1 X190.241 Y199.991 E4.3835
G1 X190.201 Y200.499 E4.40047
G1 X190.082 Y200.994 E4.41743
G1 X189.887 Y201.465 E4.43441
G1 X189.621 Y201.9 E4.4514
G1 X189.291 Y202.287 E4.46834
G1 X188.904 Y202.619 E4.48532
G1 X188.469 Y202.885 E4.50231
G1 X187.999 Y203.081 E4.51927
G1 X187.504 Y203.2 E4.53623
G1 X186.991 Y203.241 E4.55337
G1 X87.009 Y203.241 E7.88381
G1 X86.501 Y203.201 E7.90078
G1 X86.006 Y203.082 E7.91774
G1 X85.535 Y202.887 E7.93472
G1 X85.1 Y202.621 E7.9517
G1 X84.713 Y202.291 E7.96865
G1 X84.381 Y201.904 E7.98563
G1 X84.115 Y201.469 E8.00261
G1 X83.919 Y200.999 E8.01958
G1 X83.8 Y200.504 E8.03654
G1 X83.759 Y199.991 E8.05368
G1 X83.759 Y175.009 E8.88584
G1 X83.799 Y174.501 E8.90281
G1 X83.918 Y174.006 E8.91977
G1 X84.113 Y173.535 E8.93675
G1 X84.379 Y173.1 E8.95374
G1 X84.709 Y172.713 E8.97068
G1 X85.096 Y172.381 E8.98766
G1 X85.531 Y172.115 E9.00465
G1 F600 E8.00465
;MESH:
G0 F2625 X87.764 Y174.335
G0 X87.764 Y175.764
G0 X186.18 Y199.18
G0 X186.25 Y199.25
;TYPE:WALL-INNER
G1 F600 E9.00465
G1 F900 X87.75 Y199.25 E12.28572
G1 X87.75 Y175.75 E13.06851
G1 X186.25 Y175.75 E16.34958
G1 X186.25 Y199.25 E17.13237
G0 F2625 X186.75 Y199.75
;TYPE:WALL-OUTER
G1 F900 X87.25 Y199.75 E20.44676
G1 X87.25 Y175.25 E21.26286
G1 X186.75 Y175.25 E24.57724
G1 X186.75 Y199.75 E25.39334
G0 F2625 X186.5 Y199.75
G0 X186.18 Y199.18
G0 X185.76 Y198.76
;TYPE:SKIN
G1 F900 X88.24 Y198.76 E28.64177
G1 X88.24 Y176.24 E29.39192
G1 X185.76 Y176.24 E32.64035
G1 X185.76 Y198.76 E33.39049
G0 F2625 X185.534 Y177.049
G1 F900 X184.95 Y176.464 E33.41803
G0 F2625 X184.243 Y176.464
G1 F900 X185.534 Y177.756 E33.47887
G0 F2625 X185.534 Y178.463
G1 F900 X183.535 Y176.464 E33.57304
G0 F2625 X182.828 Y176.464
G1 F900 X185.534 Y179.17 E33.70051
G0 F2625 X185.534 Y179.878
G1 F900 X182.121 Y176.464 E33.86132
G0 F2625 X181.414 Y176.464
G1 F900 X185.534 Y180.585 E34.05542
G0 F2625 X185.534 Y181.292
G1 F900 X180.707 Y176.464 E34.28284
G0 F2625 X180 Y176.464
G1 F900 X185.534 Y181.999 E34.54356
G0 F2625 X185.534 Y182.706
G1 F900 X179.293 Y176.464 E34.83758
G0 F2625 X178.586 Y176.464
G1 F900 X185.534 Y183.413 E35.16491
G0 F2625 X185.534 Y184.12
G1 F900 X177.879 Y176.464 E35.52555
G0 F2625 X177.171 Y176.464
G1 F900 X185.534 Y184.827 E35.91951
G0 F2625 X185.534 Y185.534
G1 F900 X176.464 Y176.464 E36.34678
G0 F2625 X175.757 Y176.464
G1 F900 X185.534 Y186.242 E36.80738
G0 F2625 X185.534 Y186.949
G1 F900 X175.05 Y176.464 E37.30128
G0 F2625 X174.343 Y176.464
G1 F900 X185.534 Y187.656 E37.82849
G0 F2625 X185.534 Y188.363
G1 F900 X173.636 Y176.464 E38.389
G0 F2625 X172.929 Y176.464
G1 F900 X185.534 Y189.07 E38.98282
G0 F2625 X185.534 Y189.777
G1 F900 X172.222 Y176.464 E39.60995
G0 F2625 X171.515 Y176.464
G1 F900 X185.534 Y190.484 E40.27038
G0 F2625 X185.534 Y191.191
G1 F900 X170.808 Y176.464 E40.96411
G0 F2625 X170.1 Y176.464
G1 F900 X185.534 Y191.898 E41.69118
G0 F2625 X185.534 Y192.605
G1 F900 X169.393 Y176.464 E42.45155
G0 F2625 X168.686 Y176.464
G1 F900 X185.534 Y193.313 E43.24525
G0 F2625 X185.534 Y194.02
G1 F900 X167.979 Y176.464 E44.07225
G0 F2625 X167.272 Y176.464
G1 F900 X185.534 Y194.727 E44.93256
G0 F2625 X185.534 Y195.434
G1 F900 X166.565 Y176.464 E45.82617
G0 F2625 X165.858 Y176.464
G1 F900 X185.534 Y196.141 E46.75309
G0 F2625 X185.534 Y196.848
G1 F900 X165.151 Y176.464 E47.71332
G0 F2625 X164.444 Y176.464
G1 F900 X185.534 Y197.555 E48.70685
G0 F2625 X185.534 Y198.262
G1 F900 X163.736 Y176.464 E49.73371
G0 F2625 X163.029 Y176.464
G1 F900 X185.099 Y198.534 E50.77338
G0 F2625 X184.392 Y198.534
G1 F900 X162.322 Y176.464 E51.81305
G0 F2625 X161.615 Y176.464
G1 F900 X183.685 Y198.534 E52.85273
G0 F2625 X182.978 Y198.534
G1 F900 X160.908 Y176.464 E53.8924
G0 F2625 X160.201 Y176.464
G1 F900 X182.27 Y198.534 E54.93205
G0 F2625 X181.563 Y198.534
G1 F900 X159.494 Y176.464 E55.9717
G0 F2625 X158.787 Y176.464
G1 F900 X180.856 Y198.534 E57.01135
G0 F2625 X180.149 Y198.534
G1 F900 X158.08 Y176.464 E58.051
G0 F2625 X157.372 Y176.464
G1 F900 X179.442 Y198.534 E59.09067
G0 F2625 X178.735 Y198.534
G1 F900 X156.665 Y176.464 E60.13034
G0 F2625 X155.958 Y176.464
G1 F900 X178.028 Y198.534 E61.17001
G0 F2625 X177.321 Y198.534
G1 F900 X155.251 Y176.464 E62.20969
G0 F2625 X154.544 Y176.464
G1 F900 X176.614 Y198.534 E63.24936
G0 F2625 X175.906 Y198.534
G1 F900 X153.837 Y176.464 E64.28901
G0 F2625 X153.13 Y176.464
G1 F900 X175.199 Y198.534 E65.32866
G0 F2625 X174.492 Y198.534
G1 F900 X152.423 Y176.464 E66.36831
G0 F2625 X151.716 Y176.464
G1 F900 X173.785 Y198.534 E67.40796
G0 F2625 X173.078 Y198.534
G1 F900 X151.009 Y176.464 E68.44761
G0 F2625 X150.301 Y176.464
G1 F900 X172.371 Y198.534 E69.48728
G0 F2625 X171.664 Y198.534
G1 F900 X149.594 Y176.464 E70.52695
G0 F2625 X148.887 Y176.464
G1 F900 X170.957 Y198.534 E71.56662
G0 F2625 X170.25 Y198.534
G1 F900 X148.18 Y176.464 E72.6063
G0 F2625 X147.473 Y176.464
G1 F900 X169.542 Y198.534 E73.64595
G0 F2625 X168.835 Y198.534
G1 F900 X146.766 Y176.464 E74.68559
G0 F2625 X146.059 Y176.464
G1 F900 X168.128 Y198.534 E75.72524
G0 F2625 X167.421 Y198.534
G1 F900 X145.352 Y176.464 E76.76489
G0 F2625 X144.645 Y176.464
G1 F900 X166.714 Y198.534 E77.80454
G0 F2625 X166.007 Y198.534
G1 F900 X143.937 Y176.464 E78.84422
G0 F2625 X143.23 Y176.464
G1 F900 X165.3 Y198.534 E79.88389
G0 F2625 X164.593 Y198.534
G1 F900 X142.523 Y176.464 E80.92356
G0 F2625 X141.816 Y176.464
G1 F900 X163.886 Y198.534 E81.96323
G0 F2625 X163.179 Y198.534
G1 F900 X141.109 Y176.464 E83.00291
G0 F2625 X140.402 Y176.464
G1 F900 X162.471 Y198.534 E84.04256
G0 F2625 X161.764 Y198.534
G1 F900 X139.695 Y176.464 E85.0822
G0 F2625 X138.988 Y176.464
G1 F900 X161.057 Y198.534 E86.12185
G0 F2625 X160.35 Y198.534
G1 F900 X138.281 Y176.464 E87.1615
G0 F2625 X137.573 Y176.464
G1 F900 X159.643 Y198.534 E88.20118
G0 F2625 X158.936 Y198.534
G1 F900 X136.866 Y176.464 E89.24085
G0 F2625 X136.159 Y176.464
G1 F900 X158.229 Y198.534 E90.28052
G0 F2625 X157.522 Y198.534
G1 F900 X135.452 Y176.464 E91.32019
G0 F2625 X134.745 Y176.464
G1 F900 X156.815 Y198.534 E92.35987
G0 F2625 X156.107 Y198.534
G1 F900 X134.038 Y176.464 E93.39952
G0 F2625 X133.331 Y176.464
G1 F900 X155.4 Y198.534 E94.43917
G0 F2625 X154.693 Y198.534
G1 F900 X132.624 Y176.464 E95.47881
G0 F2625 X131.917 Y176.464
G1 F900 X153.986 Y198.534 E96.51846
G0 F2625 X153.279 Y198.534
G1 F900 X131.21 Y176.464 E97.55811
G0 F2625 X130.502 Y176.464
G1 F900 X152.572 Y198.534 E98.59779
G0 F2625 X151.865 Y198.534
G1 F900 X129.795 Y176.464 E99.63746
G0 F2625 X129.088 Y176.464
G1 F900 X151.158 Y198.534 E100.67713
G0 F2625 X150.451 Y198.534
G1 F900 X128.381 Y176.464 E101.7168
G0 F2625 X127.674 Y176.464
G1 F900 X149.744 Y198.534 E102.75648
G0 F2625 X149.036 Y198.534
G1 F900 X126.967 Y176.464 E103.79613
G0 F2625 X126.26 Y176.464
G1 F900 X148.329 Y198.534 E104.83578
G0 F2625 X147.622 Y198.534
G1 F900 X125.553 Y176.464 E105.87542
G0 F2625 X124.846 Y176.464
G1 F900 X146.915 Y198.534 E106.91507
G0 F2625 X146.208 Y198.534
G1 F900 X124.138 Y176.464 E107.95475
G0 F2625 X123.431 Y176.464
G1 F900 X145.501 Y198.534 E108.99442
G0 F2625 X144.794 Y198.534
G1 F900 X122.724 Y176.464 E110.03409
G0 F2625 X122.017 Y176.464
G1 F900 X144.087 Y198.534 E111.07376
G0 F2625 X143.38 Y198.534
G1 F900 X121.31 Y176.464 E112.11344
G0 F2625 X120.603 Y176.464
G1 F900 X142.672 Y198.534 E113.15309
G0 F2625 X141.965 Y198.534
G1 F900 X119.896 Y176.464 E114.19274
G0 F2625 X119.189 Y176.464
G1 F900 X141.258 Y198.534 E115.23238
G0 F2625 X140.551 Y198.534
G1 F900 X118.482 Y176.464 E116.27203
G0 F2625 X117.774 Y176.464
G1 F900 X139.844 Y198.534 E117.31171
G0 F2625 X139.137 Y198.534
G1 F900 X117.067 Y176.464 E118.35138
G0 F2625 X116.36 Y176.464
G1 F900 X138.43 Y198.534 E119.39105
G0 F2625 X137.723 Y198.534
G1 F900 X115.653 Y176.464 E120.43073
G0 F2625 X114.946 Y176.464
G1 F900 X137.016 Y198.534 E121.4704
G0 F2625 X136.308 Y198.534
G1 F900 X114.239 Y176.464 E122.51005
G0 F2625 X113.532 Y176.464
G1 F900 X135.601 Y198.534 E123.5497
G0 F2625 X134.894 Y198.534
G1 F900 X112.825 Y176.464 E124.58935
G0 F2625 X112.118 Y176.464
G1 F900 X134.187 Y198.534 E125.62899
G0 F2625 X133.48 Y198.534
G1 F900 X111.411 Y176.464 E126.66864
G0 F2625 X110.703 Y176.464
G1 F900 X132.773 Y198.534 E127.70832
G0 F2625 X132.066 Y198.534
G1 F900 X109.996 Y176.464 E128.74799
G0 F2625 X109.289 Y176.464
G1 F900 X131.359 Y198.534 E129.78766
G0 F2625 X130.652 Y198.534
G1 F900 X108.582 Y176.464 E130.82733
G0 F2625 X107.875 Y176.464
G1 F900 X129.945 Y198.534 E131.86701
G0 F2625 X129.237 Y198.534
G1 F900 X107.168 Y176.464 E132.90666
G0 F2625 X106.461 Y176.464
G1 F900 X128.53 Y198.534 E133.94631
G0 F2625 X127.823 Y198.534
G1 F900 X105.754 Y176.464 E134.98596
G0 F2625 X105.047 Y176.464
G1 F900 X127.116 Y198.534 E136.0256
G0 F2625 X126.409 Y198.534
G1 F900 X104.339 Y176.464 E137.06528
G0 F2625 X103.632 Y176.464
G1 F900 X125.702 Y198.534 E138.10495
G0 F2625 X124.995 Y198.534
G1 F900 X102.925 Y176.464 E139.14462
G0 F2625 X102.218 Y176.464
G1 F900 X124.288 Y198.534 E140.1843
G0 F2625 X123.581 Y198.534
G1 F900 X101.511 Y176.464 E141.22397
G0 F2625 X100.804 Y176.464
G1 F900 X122.873 Y198.534 E142.26362
G0 F2625 X122.166 Y198.534
G1 F900 X100.097 Y176.464 E143.30327
G0 F2625 X99.39 Y176.464
G1 F900 X121.459 Y198.534 E144.34292
G0 F2625 X120.752 Y198.534
G1 F900 X98.683 Y176.464 E145.38257
G0 F2625 X97.976 Y176.464
G1 F900 X120.045 Y198.534 E146.42221
G0 F2625 X119.338 Y198.534
G1 F900 X97.268 Y176.464 E147.46189
G0 F2625 X96.561 Y176.464
G1 F900 X118.631 Y198.534 E148.50156
G0 F2625 X117.924 Y198.534
G1 F900 X95.854 Y176.464 E149.54123
G0 F2625 X95.147 Y176.464
G1 F900 X117.217 Y198.534 E150.58091
G0 F2625 X116.509 Y198.534
G1 F900 X94.44 Y176.464 E151.62055
G0 F2625 X93.733 Y176.464
G1 F900 X115.802 Y198.534 E152.6602
G0 F2625 X115.095 Y198.534
G1 F900 X93.026 Y176.464 E153.69985
G0 F2625 X92.319 Y176.464
G1 F900 X114.388 Y198.534 E154.7395
G0 F2625 X113.681 Y198.534
G1 F900 X91.612 Y176.464 E155.77915
G0 F2625 X90.904 Y176.464
G1 F900 X112.974 Y198.534 E156.81882
G0 F2625 X112.267 Y198.534
G1 F900 X90.197 Y176.464 E157.8585
G0 F2625 X89.49 Y176.464
G1 F900 X111.56 Y198.534 E158.89817
G0 F2625 X110.853 Y198.534
G1 F900 X88.783 Y176.464 E159.93784
G0 F2625 X88.464 Y176.853
G1 F900 X110.146 Y198.534 E160.95921
G0 F2625 X109.438 Y198.534
G1 F900 X88.464 Y177.56 E161.94726
G0 F2625 X88.464 Y178.267
G1 F900 X108.731 Y198.534 E162.90199
G0 F2625 X108.024 Y198.534
G1 F900 X88.464 Y178.974 E163.82343
G0 F2625 X88.464 Y179.681
G1 F900 X107.317 Y198.534 E164.71155
G0 F2625 X106.61 Y198.534
G1 F900 X88.464 Y180.388 E165.56637
G0 F2625 X88.464 Y181.095
G1 F900 X105.903 Y198.534 E166.38789
G0 F2625 X105.196 Y198.534
G1 F900 X88.464 Y181.802 E167.1761
G0 F2625 X88.464 Y182.509
G1 F900 X104.489 Y198.534 E167.931
G0 F2625 X103.782 Y198.534
G1 F900 X88.464 Y183.217 E168.65258
G0 F2625 X88.464 Y183.924
G1 F900 X103.074 Y198.534 E169.34083
G0 F2625 X102.367 Y198.534
G1 F900 X88.464 Y184.631 E169.99577
G0 F2625 X88.464 Y185.338
G1 F900 X101.66 Y198.534 E170.61741
G0 F2625 X100.953 Y198.534
G1 F900 X88.464 Y186.045 E171.20574
G0 F2625 X88.464 Y186.752
G1 F900 X100.246 Y198.534 E171.76076
G0 F2625 X99.539 Y198.534
G1 F900 X88.464 Y187.459 E172.28248
G0 F2625 X88.464 Y188.166
G1 F900 X98.832 Y198.534 E172.7709
G0 F2625 X98.125 Y198.534
G1 F900 X88.464 Y188.873 E173.22601
G0 F2625 X88.464 Y189.58
G1 F900 X97.418 Y198.534 E173.64781
G0 F2625 X96.71 Y198.534
G1 F900 X88.464 Y190.288 E174.03627
G0 F2625 X88.464 Y190.995
G1 F900 X96.003 Y198.534 E174.39141
G0 F2625 X95.296 Y198.534
G1 F900 X88.464 Y191.702 E174.71326
G0 F2625 X88.464 Y192.409
G1 F900 X94.589 Y198.534 E175.00179
G0 F2625 X93.882 Y198.534
G1 F900 X88.464 Y193.116 E175.25702
G0 F2625 X88.464 Y193.823
G1 F900 X93.175 Y198.534 E175.47895
G0 F2625 X92.468 Y198.534
G1 F900 X88.464 Y194.53 E175.66757
G0 F2625 X88.464 Y195.237
M104 S240
G1 F900 X91.761 Y198.534 E175.82288
G0 F2625 X91.054 Y198.534
G1 F900 X88.464 Y195.944 E175.94489
G0 F2625 X88.464 Y196.652
G1 F900 X90.347 Y198.534 E176.03357
G0 F2625 X89.639 Y198.534
G1 F900 X88.464 Y197.359 E176.08893
G0 F2625 X88.464 Y198.066
G1 F900 X88.932 Y198.534 E176.11097
;MESH:NONMESH
G0 F2625 X186.18 Y199.18
G0 X186.25 Y199.25
;TIME_ELAPSED:379.707132
;LAYER:1
M140 S85
M221 S100 T0
M106 S51
;MESH:
G0 F6562.5 X186.25 Y199.25 Z0.605
;TYPE:WALL-INNER
G1 F1200 X87.75 Y199.25 E177.5006
G1 X87.75 Y175.75 E177.83214
G1 X186.25 Y175.75 E179.22177
G1 X186.25 Y199.25 E179.5533
G0 F6562.5 X186.75 Y199.75
;TYPE:WALL-OUTER
G1 F1050 X87.25 Y199.75 E180.95704
G1 X87.25 Y175.25 E181.30269
G1 X186.75 Y175.25 E182.70642
G1 X186.75 Y199.75 E183.05207
G0 F6562.5 X186.5 Y199.75
G0 X186.18 Y199.18
G0 X185.76 Y198.76
;TYPE:SKIN
G1 F1800 X88.24 Y198.76 E184.42787
G1 X88.24 Y176.24 E184.74558
G1 X185.76 Y176.24 E186.12139
G1 X185.76 Y198.76 E186.4391
G0 F6562.5 X185.424 Y198.534
G1 F1800 X185.534 Y198.424 E186.44129
G0 F6562.5 X185.534 Y197.717
G1 F1800 X184.717 Y198.534 E186.45759
G0 F6562.5 X184.01 Y198.534
G1 F1800 X185.534 Y197.01 E186.488
G0 F6562.5 X185.534 Y196.303
G1 F1800 X183.303 Y198.534 E186.53251
G0 F6562.5 X182.596 Y198.534
G1 F1800 X185.534 Y195.596 E186.59113
G0 F6562.5 X185.534 Y194.889
G1 F1800 X181.889 Y198.534 E186.66385
G0 F6562.5 X181.181 Y198.534
G1 F1800 X185.534 Y194.182 E186.75069
G0 F6562.5 X185.534 Y193.475
G1 F1800 X180.474 Y198.534 E186.85164
G0 F6562.5 X179.767 Y198.534
G1 F1800 X185.534 Y192.767 E186.9667
G0 F6562.5 X185.534 Y192.06
G1 F1800 X179.06 Y198.534 E187.09586
G0 F6562.5 X178.353 Y198.534
G1 F1800 X185.534 Y191.353 E187.23914
G0 F6562.5 X185.534 Y190.646
G1 F1800 X177.646 Y198.534 E187.39651
G0 F6562.5 X176.939 Y198.534
G1 F1800 X185.534 Y189.939 E187.568
G0 F6562.5 X185.534 Y189.232
G1 F1800 X176.232 Y198.534 E187.75359
G0 F6562.5 X175.525 Y198.534
G1 F1800 X185.534 Y188.525 E187.95328
G0 F6562.5 X185.534 Y187.818
G1 F1800 X174.818 Y198.534 E188.16709
G0 F6562.5 X174.11 Y198.534
G1 F1800 X185.534 Y187.111 E188.395
G0 F6562.5 X185.534 Y186.403
G1 F1800 X173.403 Y198.534 E188.63704
G0 F6562.5 X172.696 Y198.534
G1 F1800 X185.534 Y185.696 E188.89317
G0 F6562.5 X185.534 Y184.989
G1 F1800 X171.989 Y198.534 E189.16342
G0 F6562.5 X171.282 Y198.534
G1 F1800 X185.534 Y184.282 E189.44777
G0 F6562.5 X185.534 Y183.575
G1 F1800 X170.575 Y198.534 E189.74622
G0 F6562.5 X169.868 Y198.534
G1 F1800 X185.534 Y182.868 E190.05879
G0 F6562.5 X185.534 Y182.161
G1 F1800 X169.161 Y198.534 E190.38545
G0 F6562.5 X168.454 Y198.534
