;; for agitating and warming ferric chloride etching solution (while etching)
;This G-Code has been generated specifically for the LulzBot TAZ 5 with standard extruder
M75			 ; start GLCD timer
M140 S80                 ; start bed heating up
M117 WARMING THE BED     ; message on LCD 
M203 X192 Y208 Z3        ; set limits on travel speed
G90                      ; absolute positioning
M107                     ; disable fans
G28 X0 Y0                ; home X and Y
G0 F3600                 ; set movement speed to 60mm/s
G0 Y230                  ; get the z axis out the way 
G28 Z0                   ; home Z
G0 Z150.0                ; move extruder up
M190 S80                 ; wait for bed to heat up
M117 Ready to agitate    ; message on LCD (because octoprint doesn't send M0 message)
M0 Ready to agitate      ; wait for user to resume 
G0 Y230
G0 Y200
G0 Y230
G0 Y200
G0 Y230
G0 Y200
G0 Y230
G0 Y200
G0 Y230
G0 Y200
G0 Y230
G0 Y200
G0 Y230
G0 Y200
G0 Y230
G0 Y200
G0 Y230
G0 Y200
G0 Y230
G0 Y200
G0 Y230
G0 Y200
G0 Y230
G0 Y200
G0 Y230
G0 Y200
G0 Y230
G0 Y200
G0 Y230
G0 Y200
G0 Y230
G0 Y200
G0 Y230
G0 Y200
G0 Y230
G0 Y200
G0 Y230
G0 Y200
G0 Y230
G0 Y200
G0 Y230
G0 Y200
G0 Y230
G0 Y200
G0 Y230
G0 Y200
G0 Y230
G0 Y200
G0 Y230
G0 Y200
G0 Y230
G0 Y200
G0 Y230
G0 Y200
G0 Y230
G0 Y200
G0 Y230
G0 Y200
G0 Y230
G0 Y200
G0 Y230
G0 Y200
G0 Y230
G0 Y200
G0 Y230
G0 Y200
G0 Y230
G0 Y200
G0 Y230
G0 Y200
G0 Y230
G0 Y200
G0 Y230
G0 Y200
G0 Y230
G0 Y200
G0 Y230
G0 Y200
G0 Y230
G0 Y200
G0 Y230
G0 Y200
G0 Y230
G0 Y200
G0 Y230
G0 Y200
G0 Y230
G0 Y200
G0 Y230
G0 Y200
G0 Y230
G0 Y200
G0 Y230
G0 Y200
G0 Y230
G0 Y200
G0 Y230
G0 Y200
G0 Y230
G0 Y200
G0 Y230
G0 Y200
G0 Y230
G0 Y200
G0 Y230
G0 Y200
G0 Y230
G0 Y200
G0 Y230
G0 Y200
G0 Y230
G0 Y200
G0 Y230
G0 Y200
G0 Y230
G0 Y200
G0 Y230
G0 Y200
G0 Y230
G0 Y200
G0 Y230
G0 Y200
G0 Y230
G0 Y200
G0 Y230
G0 Y200
G0 Y230
G0 Y200
G0 Y230
G0 Y200
G0 Y230
G0 Y200
G0 Y230
G0 Y200
G0 Y230
G0 Y200
G0 Y230
G0 Y200
G0 Y230
G0 Y200
G0 Y230
G0 Y200
G0 Y230
G0 Y200
G0 Y230
G0 Y200
G0 Y230
G0 Y200
G0 Y230
G0 Y200
G0 Y230
G0 Y200
G0 Y230
G0 Y200
G0 Y230
G0 Y200
G0 Y230
G0 Y200
G0 Y230
G0 Y200
G0 Y230
G0 Y200
G0 Y230
G0 Y200
G0 Y230
G0 Y200
G0 Y230
G0 Y200
G0 Y230
G0 Y200
G0 Y230
G0 Y200
G0 Y230
G0 Y200
G0 Y230
G0 Y200
G0 Y230
G0 Y200
G0 Y230
G0 Y200
G0 Y230
G0 Y200
G0 Y230
G0 Y200
G0 Y230
G0 Y200
G0 Y230
G0 Y200
G0 Y230
G0 Y200
G0 Y230
G0 Y200
G0 Y230
G0 Y200
G0 Y230
G0 Y200
G0 Y230
G0 Y200
G0 Y230
G0 Y200
G0 Y230
G0 Y200
G0 Y230
G0 Y200
G0 Y230
G0 Y200
G0 Y230
G0 Y200
G0 Y230
G0 Y200
G0 Y230
G0 Y200
G0 Y230
G0 Y200
G0 Y230
G0 Y200
G0 Y230
G0 Y200
G0 Y230
G0 Y200
G0 Y230
G0 Y200
G0 Y230
G0 Y200
G0 Y230
G0 Y200
G0 Y230
G0 Y200
G0 Y230
G0 Y200
G0 Y230
G0 Y200
G0 Y230
G0 Y200
G0 Y230
G0 Y200
G0 Y230
G0 Y200
G0 Y230
G0 Y200
G0 Y230
G0 Y200
G0 Y230
G0 Y200
G0 Y230
G0 Y200
G0 Y230
G0 Y200
G0 Y230
G0 Y200
G0 Y230
G0 Y200
G0 Y230
G0 Y200
G0 Y230
G0 Y200
G0 Y230
G0 Y200
G0 Y230
G0 Y200
G0 Y230
G0 Y200
G0 Y230
G0 Y200
G0 Y230
G0 Y200
G0 Y230
G0 Y200
G0 Y230
G0 Y200
G0 Y230
G0 Y200
G0 Y230
G0 Y200
G0 Y230
G0 Y200
G0 Y230
G0 Y200
G0 Y230
G0 Y200
G0 Y230
G0 Y200
G0 Y230
G0 Y200
G0 Y230
G0 Y200
G0 Y230
G0 Y200
G0 Y230
G0 Y200
G0 Y230
G0 Y200
G0 Y230
G0 Y200
G0 Y230
G0 Y200
G0 Y230
G0 Y200
G0 Y230
G0 Y200
G0 Y230
G0 Y200
G0 Y230
G0 Y200
G0 Y230
G0 Y200
G0 Y230
G0 Y200
G0 Y230
G0 Y200
G0 Y230
G0 Y200
G0 Y230
G0 Y200
G0 Y230
G0 Y200
G0 Y230
G0 Y200
G0 Y230
G0 Y200
G0 Y230
G0 Y200
G0 Y230
G0 Y200
G0 Y230
G0 Y200
G0 Y230
G0 Y200
G0 Y230
G0 Y200
G0 Y230
G0 Y200
G0 Y230
G0 Y200
G0 Y230
G0 Y200
G0 Y230
G0 Y200
G0 Y230
G0 Y200
G0 Y230
G0 Y200
G0 Y230
G0 Y200
G0 Y230
G0 Y200
G0 Y230
G0 Y200
G0 Y230
G0 Y200
G0 Y230
G0 Y200
G0 Y230
G0 Y200
G0 Y230
G0 Y200
G0 Y230
G0 Y200
G0 Y230
G0 Y200
G0 Y230
G0 Y200
G0 Y230
G0 Y200
G0 Y230
G0 Y200
G0 Y230
G0 Y200
G0 Y230
G0 Y200
G0 Y230
G0 Y200
G0 Y230
G0 Y200
G0 Y230
G0 Y200
G0 Y230
G0 Y200
G0 Y230
G0 Y200
G0 Y230
G0 Y200
G0 Y230
G0 Y200
G0 Y230
G0 Y200
G0 Y230
G0 Y200
G0 Y230
G0 Y200
G0 Y230
G0 Y200
G0 Y230
G0 Y200
G0 Y230
G0 Y200
G0 Y230
G0 Y200
G0 Y230
G0 Y200
G0 Y230
G0 Y200
G0 Y230
G0 Y200
G0 Y230
G0 Y200
G0 Y230
G0 Y200
G0 Y230
G0 Y200
G0 Y230
G0 Y200
G0 Y230
G0 Y200
G0 Y230
G0 Y200
G0 Y230
G0 Y200
G0 Y230
G0 Y200
G0 Y230
G0 Y200
G0 Y230
G0 Y200
G0 Y230
G0 Y200
G0 Y230
G0 Y200
G0 Y230
G0 Y200
G0 Y230
G0 Y200
G0 Y230
G0 Y200
G0 Y230
G0 Y200
G0 Y230
G0 Y200
G0 Y230
G0 Y200
G0 Y230
G0 Y200
G0 Y230
G0 Y200
G0 Y230
G0 Y200
G0 Y230
G0 Y200
G0 Y230
G0 Y200
G0 Y230
G0 Y200
G0 Y230
G0 Y200
G0 Y230
G0 Y200
G0 Y230
G0 Y200
G0 Y230
G0 Y200
G0 Y230
G0 Y200
G0 Y230
G0 Y200
G0 Y230
G0 Y200
G0 Y230
G0 Y200
G0 Y230
G0 Y200
G0 Y230
G0 Y200
G0 Y230
G0 Y200
G0 Y230
G0 Y200
G0 Y230
G0 Y200
G0 Y230
G0 Y200
G0 Y230
G0 Y200
G0 Y230
G0 Y200
G0 Y230
G0 Y200
G0 Y230
G0 Y200
G0 Y230
G0 Y200
G0 Y230
G0 Y200
G0 Y230
G0 Y200
G0 Y230
G0 Y200
G0 Y230
G0 Y200
G0 Y230
G0 Y200
G0 Y230
G0 Y200
G0 Y230
G0 Y200
G0 Y230
G0 Y200
G0 Y230
G0 Y200
G0 Y230
G0 Y200
G0 Y230
G0 Y200
G0 Y230
G0 Y200
G0 Y230
G0 Y200
G0 Y230
G0 Y200
G0 Y230
G0 Y200
G0 Y230
G0 Y200
G0 Y230
G0 Y200
G0 Y230
G0 Y200
G0 Y230
G0 Y200
G0 Y230
G0 Y200
G0 Y230
G0 Y200
G0 Y230
G0 Y200
G0 Y230
G0 Y200
G0 Y230
G0 Y200
G0 Y230
G0 Y200
G0 Y230
G0 Y200
G0 Y230
G0 Y200
G0 Y230
G0 Y200
G0 Y230
G0 Y200
G0 Y230
G0 Y200
G0 Y230
G0 Y200
G0 Y230
G0 Y200
G0 Y230
G0 Y200
G0 Y230
G0 Y200
G0 Y230
G0 Y200
G0 Y230
G0 Y200
G0 Y230
G0 Y200
G0 Y230
G0 Y200
G0 Y230
G0 Y200
G0 Y230
G0 Y200
G0 Y230
G0 Y200
G0 Y230
G0 Y200
G0 Y230
G0 Y200
G0 Y230
G0 Y200
G0 Y230
G0 Y200
G0 Y230
G0 Y200
G0 Y230
G0 Y200
G0 Y230
G0 Y200
G0 Y230
G0 Y200
G0 Y230
G0 Y200
G0 Y230
G0 Y200
G0 Y230
G0 Y200
G0 Y230
G0 Y200
G0 Y230
G0 Y200
G0 Y230
G0 Y200
G0 Y230
G0 Y200
G0 Y230
G0 Y200
G0 Y230
G0 Y200
G0 Y230
G0 Y200
G0 Y230
G0 Y200
G0 Y230
G0 Y200
G0 Y230
G0 Y200
G0 Y230
G0 Y200
G0 Y230
G0 Y200
G0 Y230
G0 Y200
G0 Y230
G0 Y200
G0 Y230
G0 Y200
G0 Y230
G0 Y200
G0 Y230
G0 Y200
G0 Y230
G0 Y200
G0 Y230
G0 Y200
G0 Y230
G0 Y200
G0 Y230
G0 Y200
G0 Y230
G0 Y200
G0 Y230
G0 Y200
G0 Y230
G0 Y200
G0 Y230
G0 Y200
G0 Y230
G0 Y200
G0 Y230
G0 Y200
G0 Y230
G0 Y200
G0 Y230
G0 Y200
G0 Y230
G0 Y200
G0 Y230
G0 Y200
G0 Y230
G0 Y200
G0 Y230
G0 Y200
G0 Y230
G0 Y200
G0 Y230
G0 Y200
G0 Y230
G0 Y200
G0 Y230
G0 Y200
G0 Y230
G0 Y200
G0 Y230
G0 Y200
G0 Y230
G0 Y200
G0 Y230
G0 Y200
G0 Y230
G0 Y200
G0 Y230
G0 Y200
G0 Y230
G0 Y200
G0 Y230
G0 Y200
G0 Y230
G0 Y200
G0 Y230
G0 Y200
G0 Y230
G0 Y200
G0 Y230
G0 Y200
G0 Y230
G0 Y200
G0 Y230
G0 Y200
G0 Y230
G0 Y200
G0 Y230
G0 Y200
G0 Y230
G0 Y200
G0 Y230
G0 Y200
G0 Y230
G0 Y200
G0 Y230
G0 Y200
G0 Y230
G0 Y200
G0 Y230
G0 Y200
G0 Y230
G0 Y200
G0 Y230
G0 Y200
G0 Y230
G0 Y200
G0 Y230
G0 Y200
G0 Y230
G0 Y200
G0 Y230
G0 Y200
G0 Y230
G0 Y200
G0 Y230
G0 Y200
G0 Y230
G0 Y200
G0 Y230
G0 Y200
G0 Y230
G0 Y200
G0 Y230
G0 Y200
G0 Y230
G0 Y200
G0 Y230
G0 Y200
G0 Y230
G0 Y200
G0 Y230
G0 Y200
G0 Y230
G0 Y200
G0 Y230
G0 Y200
G0 Y230
G0 Y200
G0 Y230
G0 Y200
G0 Y230
G0 Y200
G0 Y230
G0 Y200
G0 Y230
G0 Y200
G0 Y230
G0 Y200
G0 Y230
G0 Y200
G0 Y230
G0 Y200
G0 Y230
G0 Y200
G0 Y230
G0 Y200
G0 Y230
G0 Y200
G0 Y230
G0 Y200
G0 Y230
G0 Y200
G0 Y230
G0 Y200
G0 Y230
G0 Y200
G0 Y230
G0 Y200
G0 Y230
G0 Y200
G0 Y230
G0 Y200
G0 Y230
G0 Y200
G0 Y230
G0 Y200
G0 Y230
G0 Y200
G0 Y230
G0 Y200
G0 Y230
G0 Y200
G0 Y230
G0 Y200
G0 Y230
G0 Y200
G0 Y230
G0 Y200
G0 Y230
G0 Y200
G0 Y230
G0 Y200
G0 Y230
G0 Y200
G0 Y230
G0 Y200
G0 Y230
G0 Y200
G0 Y230
G0 Y200
G0 Y230
G0 Y200
G0 Y230
G0 Y200
G0 Y230
G0 Y200
G0 Y230
G0 Y200
G0 Y230
G0 Y200
G0 Y230
G0 Y200
G0 Y230
G0 Y200
G0 Y230
G0 Y200
G0 Y230
G0 Y200
G0 Y230
G0 Y200
G0 Y230
G0 Y200
G0 Y230
G0 Y200
G0 Y230
G0 Y200
G0 Y230
G0 Y200
G0 Y230
G0 Y200
G0 Y230
G0 Y200
G0 Y230
G0 Y200
G0 Y230
G0 Y200
G0 Y230
G0 Y200
G0 Y230
G0 Y200
G0 Y230
G0 Y200
G0 Y230
G0 Y200
G0 Y230
G0 Y200
G0 Y230
G0 Y200
G0 Y230
G0 Y200
G0 Y230
G0 Y200
G0 Y230
G0 Y200
G0 Y230
G0 Y200
G0 Y230
G0 Y200
G0 Y230
G0 Y200
G0 Y230
G0 Y200
G0 Y230
G0 Y200
G0 Y230
G0 Y200
G0 Y230
G0 Y200
G0 Y230
G0 Y200
G0 Y230
G0 Y200
G0 Y230
G0 Y200
G0 Y230
G0 Y200
G0 Y230
G0 Y200
G0 Y230
G0 Y200
G0 Y230
G0 Y200
G0 Y230
G0 Y200
G0 Y230
G0 Y200
G0 Y230
G0 Y200
G0 Y230
G0 Y200
G0 Y230
G0 Y200
G0 Y230
G0 Y200
G0 Y230
G0 Y200
G0 Y230
G0 Y200
G0 Y230
G0 Y200
G0 Y230
G0 Y200
G0 Y230
G0 Y200
G0 Y230
G0 Y200
G0 Y230
G0 Y200
G0 Y230
G0 Y200
G0 Y230
G0 Y200
G0 Y230
G0 Y200
G0 Y230
G0 Y200
G0 Y230
G0 Y200
G0 Y230
G0 Y200
G0 Y230
G0 Y200
G0 Y230
G0 Y200
G0 Y230
G0 Y200
G0 Y230
G0 Y200
G0 Y230
G0 Y200
G0 Y230
G0 Y200
G0 Y230
G0 Y200
G0 Y230
G0 Y200
G0 Y230
G0 Y200
G0 Y230
G0 Y200
G0 Y230
G0 Y200
G0 Y230
G0 Y200
G0 Y230
G0 Y200
G0 Y230
G0 Y200
G0 Y230
G0 Y200
G0 Y230
G0 Y200
G0 Y230
G0 Y200
G0 Y230
G0 Y200
G0 Y230
G0 Y200
G0 Y230
G0 Y200
G0 Y230
G0 Y200
G0 Y230
G0 Y200
G0 Y230
G0 Y200
G0 Y230
G0 Y200
G0 Y230
G0 Y200
G0 Y230
G0 Y200
G0 Y230
G0 Y200
G0 Y230
G0 Y200
G0 Y230
G0 Y200
G0 Y230
G0 Y200
G0 Y230
G0 Y200
G0 Y230
G0 Y200
G0 Y230
G0 Y200
G0 Y230
G0 Y200
G0 Y230
G0 Y200
G0 Y230
G0 Y200
G0 Y230
G0 Y200
G0 Y230
G0 Y200
G0 Y230
G0 Y200
G0 Y230
G0 Y200
G0 Y230
G0 Y200
G0 Y230
G0 Y200
G0 Y230
G0 Y200
G0 Y230
G0 Y200
G0 Y230
G0 Y200
G0 Y230
G0 Y200
G0 Y230
G0 Y200
G0 Y230
G0 Y200
G0 Y230
G0 Y200
G0 Y230
G0 Y200
G0 Y230
G0 Y200
G0 Y230
G0 Y200
G0 Y230
G0 Y200
G0 Y230
G0 Y200
G0 Y230
G0 Y200
G0 Y230
G0 Y200
G0 Y230
G0 Y200
G0 Y230
G0 Y200
G0 Y230
G0 Y200
G0 Y230
G0 Y200
G0 Y230
G0 Y200
G0 Y230
G0 Y200
G0 Y230
G0 Y200
G0 Y230
G0 Y200
G0 Y230
G0 Y200
G0 Y230
G0 Y200
G0 Y230
G0 Y200
G0 Y230
G0 Y200
G0 Y230
G0 Y200
G0 Y230
G0 Y200
G0 Y230
G0 Y200
G0 Y230
G0 Y200
G0 Y230
G0 Y200
G0 Y230
G0 Y200
G0 Y230
G0 Y200
G0 Y230
G0 Y200
G0 Y230
G0 Y200
G0 Y230
G0 Y200
G0 Y230
G0 Y200
G0 Y230
G0 Y200
G0 Y230
G0 Y200
G0 Y230
G0 Y200
G0 Y230
G0 Y200
G0 Y230
G0 Y200
G0 Y230
G0 Y200
G0 Y230
G0 Y200
G0 Y230
G0 Y200
G0 Y230
G0 Y200
G0 Y230
G0 Y200
G0 Y230
G0 Y200
G0 Y230
G0 Y200
G0 Y230
G0 Y200
G0 Y230
G0 Y200
G0 Y230
G0 Y200
G0 Y230
G0 Y200
G0 Y230
G0 Y200
G0 Y230
G0 Y200
G0 Y230
G0 Y200
G0 Y230
G0 Y200
G0 Y230
G0 Y200
G0 Y230
G0 Y200
G0 Y230
G0 Y200
G0 Y230
G0 Y200
G0 Y230
G0 Y200
G0 Y230
G0 Y200
G0 Y230
G0 Y200
G0 Y230
G0 Y200
G0 Y230
G0 Y200
G0 Y230
G0 Y200
G0 Y230
G0 Y200
G0 Y230
G0 Y200
G0 Y230
G0 Y200
G0 Y230
G0 Y200
G0 Y230
G0 Y200
G0 Y230
G0 Y200
G0 Y230
G0 Y200
G0 Y230
G0 Y200
G0 Y230
G0 Y200
G0 Y230
G0 Y200
G0 Y230
G0 Y200
G0 Y230
G0 Y200
G0 Y230
G0 Y200
G0 Y230
G0 Y200
G0 Y230
G0 Y200
G0 Y230
G0 Y200
G0 Y230
G0 Y200
G0 Y230
G0 Y200
G0 Y230
G0 Y200
G0 Y230
G0 Y200
G0 Y230
G0 Y200
G0 Y230
G0 Y200
G0 Y230
G0 Y200
G0 Y230
G0 Y200
G0 Y230
G0 Y200
G0 Y230
G0 Y200
G0 Y230
G0 Y200
G0 Y230
G0 Y200
G0 Y230
G0 Y200
G0 Y230
G0 Y200
G0 Y230
G0 Y200
G0 Y230
G0 Y200
G0 Y230
G0 Y200
G0 Y230
G0 Y200
G0 Y230
G0 Y200
G0 Y230
G0 Y200
G0 Y230
G0 Y200
G0 Y230
G0 Y200
G0 Y230
G0 Y200
G0 Y230
G0 Y200
G0 Y230
G0 Y200
G0 Y230
G0 Y200
G0 Y230
G0 Y200
G0 Y230
G0 Y200
G0 Y230
G0 Y200
G0 Y230
G0 Y200
G0 Y230
G0 Y200
G0 Y230
G0 Y200
G0 Y230
G0 Y200
G0 Y230
G0 Y200
G0 Y230
G0 Y200
G0 Y230
G0 Y200
G0 Y230
G0 Y200
G0 Y230
G0 Y200
G0 Y230
G0 Y200
G0 Y230
G0 Y200
G0 Y230
G0 Y200
G0 Y230
G0 Y200
G0 Y230
G0 Y200
G0 Y230
G0 Y200
G0 Y230
G0 Y200
G0 Y230
G0 Y200
G0 Y230
G0 Y200
G0 Y230
G0 Y200
G0 Y230
G0 Y200
G0 Y230
G0 Y200
G0 Y230
G0 Y200
G0 Y230
G0 Y200
G0 Y230
G0 Y200
G0 Y230
G0 Y200
G0 Y230
G0 Y200
G0 Y230
G0 Y200
G0 Y230
G0 Y200
G0 Y230
G0 Y200
G0 Y230
G0 Y200
G0 Y230
G0 Y200
G0 Y230
G0 Y200
G0 Y230
G0 Y200
G0 Y230
G0 Y200
G0 Y230
G0 Y200
G0 Y230
G0 Y200
G0 Y230
G0 Y200
G0 Y230
G0 Y200
G0 Y230
G0 Y200
G0 Y230
G0 Y200
G0 Y230
G0 Y200
G0 Y230
G0 Y200
G0 Y230
G0 Y200
G0 Y230
G0 Y200
G0 Y230
G0 Y200
G0 Y230
G0 Y200
G0 Y230
G0 Y200
G0 Y230
G0 Y200
G0 Y230
G0 Y200
G0 Y230
G0 Y200
G0 Y230
G0 Y200
G0 Y230
G0 Y200
G0 Y230
G0 Y200
G0 Y230
G0 Y200
G0 Y230
G0 Y200
G0 Y230
G0 Y200
G0 Y230
G0 Y200
G0 Y230
G0 Y200
G0 Y230
G0 Y200
G0 Y230
G0 Y200
G0 Y230
G0 Y200
G0 Y230
G0 Y200
G0 Y230
G0 Y200
G0 Y230
G0 Y200
G0 Y230
G0 Y200
G0 Y230
G0 Y200
G0 Y230
G0 Y200
G0 Y230
G0 Y200
G0 Y230
G0 Y200
G0 Y230
G0 Y200
G0 Y230
G0 Y200
G0 Y230
G0 Y200
G0 Y230
G0 Y200
G0 Y230
G0 Y200
G0 Y230
G0 Y200
G0 Y230
G0 Y200
G0 Y230
G0 Y200
G0 Y230
G0 Y200
G0 Y230
G0 Y200
G0 Y230
G0 Y200
G0 Y230
G0 Y200
G0 Y230
G0 Y200
G0 Y230
G0 Y200
G0 Y230
G0 Y200
G0 Y230
G0 Y200
G0 Y230
G0 Y200
G0 Y230
G0 Y200
G0 Y230
G0 Y200
G0 Y230
G0 Y200
G0 Y230
G0 Y200
G0 Y230
G0 Y200
G0 Y230
G0 Y200
G0 Y230
G0 Y200
G0 Y230
G0 Y200
G0 Y230
G0 Y200
G0 Y230
G0 Y200
G0 Y230
G0 Y200
G0 Y230
G0 Y200
G0 Y230
G0 Y200
G0 Y230
G0 Y200
G0 Y230
G0 Y200
G0 Y230
G0 Y200
G0 Y230
G0 Y200
G0 Y230
G0 Y200
G0 Y230
G0 Y200
G0 Y230
G0 Y200
G0 Y230
G0 Y200
G0 Y230
G0 Y200
G0 Y230
G0 Y200
G0 Y230
G0 Y200
G0 Y230
G0 Y200
G0 Y230
G0 Y200
G0 Y230
G0 Y200
G0 Y230
G0 Y200
G0 Y230
G0 Y200
G0 Y230
G0 Y200
G0 Y230
G0 Y200
G0 Y230
G0 Y200
G0 Y230
G0 Y200
G0 Y230
G0 Y200
G0 Y230
G0 Y200
G0 Y230
G0 Y200
G0 Y230
G0 Y200
G0 Y230
G0 Y200
G0 Y230
G0 Y200
G0 Y230
G0 Y200
G0 Y230
G0 Y200
G0 Y230
G0 Y200
G0 Y230
G0 Y200
G0 Y230
G0 Y200
G0 Y230
G0 Y200
G0 Y230
G0 Y200
G0 Y230
G0 Y200
G0 Y230
G0 Y200
G0 Y230
G0 Y200
G0 Y230
G0 Y200
G0 Y230
G0 Y200
G0 Y230
G0 Y200
G0 Y230
G0 Y200
G0 Y230
G0 Y200
G0 Y230
G0 Y200
G0 Y230
G0 Y200
G0 Y230
G0 Y200
G0 Y230
G0 Y200
G0 Y230
G0 Y200
G0 Y230
G0 Y200
G0 Y230
G0 Y200
G0 Y230
G0 Y200
G0 Y230
G0 Y200
G0 Y230
G0 Y200
G0 Y230
G0 Y200
G0 Y230
G0 Y200
G0 Y230
G0 Y200
G0 Y230
G0 Y200
G0 Y230
G0 Y200
G0 Y230
G0 Y200
G0 Y230
G0 Y200
G0 Y230
G0 Y200
G0 Y230
G0 Y200
G0 Y230
G0 Y200
G0 Y230
G0 Y200
G0 Y230
G0 Y200
G0 Y230
G0 Y200
G0 Y230
G0 Y200
G0 Y230
G0 Y200
G0 Y230
G0 Y200
G0 Y230
G0 Y200
G0 Y230
G0 Y200
G0 Y230
G0 Y200
G0 Y230
G0 Y200
G0 Y230
G0 Y200
G0 Y230
G0 Y200
G0 Y230
G0 Y200
G0 Y230
G0 Y200
G0 Y230
G0 Y200
G0 Y230
G0 Y200
G0 Y230
G0 Y200
G0 Y230
G0 Y200
G0 Y230
G0 Y200
G0 Y230
G0 Y200
G0 Y230
G0 Y200
G0 Y230
G0 Y200
G0 Y230
G0 Y200
G0 Y230
G0 Y200
G0 Y230
G0 Y200
G0 Y230
G0 Y200
G0 Y230
G0 Y200
G0 Y230
G0 Y200
G0 Y230
G0 Y200
G0 Y230
G0 Y200
G0 Y230
G0 Y200
G0 Y230
G0 Y200
G0 Y230
G0 Y200
G0 Y230
G0 Y200
G0 Y230
G0 Y200
G0 Y230
G0 Y200
G0 Y230
G0 Y200
G0 Y230
G0 Y200
G0 Y230
G0 Y200
G0 Y230
G0 Y200
G0 Y230
G0 Y200
G0 Y230
G0 Y200
G0 Y230
G0 Y200
G0 Y230
G0 Y200
G0 Y230
G0 Y200
G0 Y230
G0 Y200
G0 Y230
G0 Y200
G0 Y230
G0 Y200
G0 Y230
G0 Y200
G0 Y230
G0 Y200
G0 Y230
G0 Y200
G0 Y230
G0 Y200
G0 Y230
G0 Y200
G0 Y230
G0 Y200
G0 Y230
G0 Y200
G0 Y230
G0 Y200
G0 Y230
G0 Y200
G0 Y230
G0 Y200
G0 Y230
G0 Y200
G0 Y230
G0 Y200
G0 Y230
G0 Y200
G0 Y230
G0 Y200
G0 Y230
G0 Y200
G0 Y230
G0 Y200
G0 Y230
G0 Y200
G0 Y230
G0 Y200
G0 Y230
G0 Y200
G0 Y230
G0 Y200
G0 Y230
G0 Y200
G0 Y230
G0 Y200
G0 Y230
G0 Y200
G0 Y230
G0 Y200
G0 Y230
G0 Y200
G0 Y230
G0 Y200
G0 Y230
G0 Y200
G0 Y230
G0 Y200
G0 Y230
G0 Y200
G0 Y230
G0 Y200
G0 Y230
G0 Y200
G0 Y230
G0 Y200
G0 Y230
G0 Y200
G0 Y230
G0 Y200
G0 Y230
G0 Y200
G0 Y230
G0 Y200
G0 Y230
G0 Y200
G0 Y230
G0 Y200
G0 Y230
G0 Y200
G0 Y230
G0 Y200
G0 Y230
G0 Y200
G0 Y230
G0 Y200
G0 Y230
G0 Y200
G0 Y230
G0 Y200
G0 Y230
G0 Y200
G0 Y230
G0 Y200
G0 Y230
G0 Y200
G0 Y230
G0 Y200
G0 Y230
G0 Y200
G0 Y230
G0 Y200
G0 Y230
G0 Y200
G0 Y230
G0 Y200
G0 Y230
G0 Y200
G0 Y230
G0 Y200
G0 Y230
G0 Y200
G0 Y230
G0 Y200
G0 Y230
G0 Y200
G0 Y230
G0 Y200
G0 Y230
G0 Y200
G0 Y230
G0 Y200
G0 Y230
G0 Y200
G0 Y230
G0 Y200
G0 Y230
G0 Y200
G0 Y230
G0 Y200
G0 Y230
G0 Y200
G0 Y230
G0 Y200
G0 Y230
G0 Y200
G0 Y230
G0 Y200
G0 Y230
G0 Y200
G0 Y230
G0 Y200
G0 Y230
G0 Y200
G0 Y230
G0 Y200
G0 Y230
G0 Y200
G0 Y230
G0 Y200
G0 Y230
G0 Y200
G0 Y230
G0 Y200
G0 Y230
G0 Y200
G0 Y230
G0 Y200
G0 Y230
G0 Y200
G0 Y230
G0 Y200
G0 Y230
G0 Y200
G0 Y230
G0 Y200
G0 Y230
G0 Y200
G0 Y230
G0 Y200
G0 Y230
G0 Y200
G0 Y230
G0 Y200
G0 Y230
G0 Y200
G0 Y230
G0 Y200
G0 Y230
G0 Y200
G0 Y230
G0 Y200
G0 Y230
G0 Y200
G0 Y230
G0 Y200
G0 Y230
G0 Y200
G0 Y230
G0 Y200
G0 Y230
G0 Y200
G0 Y230
G0 Y200
G0 Y230
G0 Y200
G0 Y230
G0 Y200
G0 Y230
G0 Y200
G0 Y230
G0 Y200
G0 Y230
G0 Y200
G0 Y230
G0 Y200
G0 Y230
G0 Y200
G0 Y230
G0 Y200
G0 Y230
G0 Y200
G0 Y230
G0 Y200
G0 Y230
G0 Y200
G0 Y230
G0 Y200
G0 Y230
G0 Y200
G0 Y230
G0 Y200
G0 Y230
G0 Y200
G0 Y230
G0 Y200
G0 Y230
G0 Y200
G0 Y230
G0 Y200
G0 Y230
G0 Y200
G0 Y230
G0 Y200
G0 Y230
G0 Y200
G0 Y230
G0 Y200
G0 Y230
G0 Y200
G0 Y230
G0 Y200
G0 Y230
G0 Y200
G0 Y230
G0 Y200
G0 Y230
G0 Y200
G0 Y230
G0 Y200
G0 Y230
G0 Y200
G0 Y230
G0 Y200
G0 Y230
G0 Y200
G0 Y230
G0 Y200
G0 Y230
G0 Y200
G0 Y230
G0 Y200
G0 Y230
G0 Y200
G0 Y230
G0 Y200
G0 Y230
G0 Y200
G0 Y230
G0 Y200
G0 Y230
G0 Y200
G0 Y230
G0 Y200
G0 Y230
G0 Y200
G0 Y230
G0 Y200
G0 Y230
G0 Y200
G0 Y230
G0 Y200
G0 Y230
G0 Y200
G0 Y230
G0 Y200
G0 Y230
G0 Y200
G0 Y230
G0 Y200
G0 Y230
G0 Y200
G0 Y230
G0 Y200
G0 Y230
G0 Y200
G0 Y230
G0 Y200
G0 Y230
G0 Y200
G0 Y230
G0 Y200
G0 Y230
G0 Y200
G0 Y230
G0 Y200
G0 Y230
G0 Y200
G0 Y230
G0 Y200
G0 Y230
G0 Y200
G0 Y230
G0 Y200
G0 Y230
G0 Y200
G0 Y230
G0 Y200
G0 Y230
G0 Y200
G0 Y230
G0 Y200
G0 Y230
G0 Y200
G0 Y230
G0 Y200
G0 Y230
G0 Y200
G0 Y230
G0 Y200
G0 Y230
G0 Y200
G0 Y230
G0 Y200
G0 Y230
G0 Y200
G0 Y230
G0 Y200
G0 Y230
G0 Y200
G0 Y230
G0 Y200
G0 Y230
G0 Y200
G0 Y230
G0 Y200
G0 Y230
G0 Y200
G0 Y230
G0 Y200
G0 Y230
G0 Y200
G0 Y230
G0 Y200
G0 Y230
G0 Y200
G0 Y230
G0 Y200
G0 Y230
G0 Y200
G0 Y230
G0 Y200
G0 Y230
G0 Y200
G0 Y230
G0 Y200
G0 Y230
G0 Y200
G0 Y230
G0 Y200
G0 Y230
G0 Y200
G0 Y230
G0 Y200
G0 Y230
G0 Y200
G0 Y230
G0 Y200
G0 Y230
G0 Y200
G0 Y230
G0 Y200
G0 Y230
G0 Y200
G0 Y230
G0 Y200
G0 Y230
G0 Y200
G0 Y230
G0 Y200
G0 Y230
G0 Y200
G0 Y230
G0 Y200
G0 Y230
G0 Y200
G0 Y230
G0 Y200
G0 Y230
G0 Y200
G0 Y230
G0 Y200
G0 Y230
G0 Y200
G0 Y230
G0 Y200
G0 Y230
G0 Y200
G0 Y230
G0 Y200
G0 Y230
G0 Y200
G0 Y230
G0 Y200
G0 Y230
G0 Y200
G0 Y230
G0 Y200
G0 Y230
G0 Y200
G0 Y230
G0 Y200
G0 Y230
G0 Y200
G0 Y230
G0 Y200
G0 Y230
G0 Y200
G0 Y230
G0 Y200
G0 Y230
G0 Y200
G0 Y230
G0 Y200
G0 Y230
G0 Y200
G0 Y230
G0 Y200
G0 Y230
G0 Y200
G0 Y230
G0 Y200
G0 Y230
G0 Y200
G0 Y230
G0 Y200
G0 Y230
G0 Y200
G0 Y230
G0 Y200
G0 Y230
G0 Y200
G0 Y230
G0 Y200
G0 Y230
G0 Y200
G0 Y230
G0 Y200
G0 Y230
G0 Y200
G0 Y230
G0 Y200
G0 Y230
G0 Y200
G0 Y230
G0 Y200
G0 Y230
G0 Y200
G0 Y230
G0 Y200
G0 Y230
G0 Y200
G0 Y230
G0 Y200
G0 Y230
G0 Y200
G0 Y230
G0 Y200
G0 Y230
G0 Y200
G0 Y230
G0 Y200
G0 Y230
G0 Y200
G0 Y230
G0 Y200
G0 Y230
G0 Y200
G0 Y230
G0 Y200
G0 Y230
G0 Y200
G0 Y230
G0 Y200
G0 Y230
G0 Y200
G0 Y230
G0 Y200
G0 Y230
G0 Y200
G0 Y230
G0 Y200
G0 Y230
G0 Y200
G0 Y230
G0 Y200
G0 Y230
G0 Y200
G0 Y230
G0 Y200
G0 Y230
G0 Y200
G0 Y230
G0 Y200
G0 Y230
G0 Y200
G0 Y230
G0 Y200
G0 Y230
G0 Y200
G0 Y230
G0 Y200
G0 Y230
G0 Y200
G0 Y230
G0 Y200
G0 Y230
G0 Y200
G0 Y230
G0 Y200
G0 Y230
G0 Y200
G0 Y230
G0 Y200
G0 Y230
G0 Y200
G0 Y230
G0 Y200
G0 Y230
G0 Y200
G0 Y230
G0 Y200
G0 Y230
G0 Y200
G0 Y230
G0 Y200
G0 Y230
G0 Y200
G0 Y230
G0 Y200
G0 Y230
G0 Y200
G0 Y230
G0 Y200
G0 Y230
G0 Y200
G0 Y230
G0 Y200
G0 Y230
G0 Y200
G0 Y230
G0 Y200
G0 Y230
G0 Y200
G0 Y230
G0 Y200
G0 Y230
G0 Y200
G0 Y230
G0 Y200
G0 Y230
G0 Y200
G0 Y230
G0 Y200
G0 Y230
G0 Y200
G0 Y230
G0 Y200
G0 Y230
G0 Y200
G0 Y230
G0 Y200
G0 Y230
G0 Y200
G0 Y230
G0 Y200
G0 Y230
G0 Y200
G0 Y230
G0 Y200
G0 Y230
G0 Y200
G0 Y230
G0 Y200
G0 Y230
G0 Y200
G0 Y230
G0 Y200
G0 Y230
G0 Y200
G0 Y230
G0 Y200
G0 Y230
G0 Y200
G0 Y230
G0 Y200
G0 Y230
G0 Y200
G0 Y230
G0 Y200
G0 Y230
G0 Y200
G0 Y230
G0 Y200
G0 Y230
G0 Y200
G0 Y230
G0 Y200
G0 Y230
G0 Y200
G0 Y230
G0 Y200
G0 Y230
G0 Y200
G0 Y230
G0 Y200
G0 Y230
G0 Y200
G0 Y230
G0 Y200
G0 Y230
G0 Y200
G0 Y230
G0 Y200
G0 Y230
G0 Y200
G0 Y230
G0 Y200
G0 Y230
G0 Y200
G0 Y230
G0 Y200
G0 Y230
G0 Y200
G0 Y230
G0 Y200
G0 Y230
G0 Y200
G0 Y230
G0 Y200
G0 Y230
G0 Y200
G0 Y230
G0 Y200
G0 Y230
G0 Y200
G0 Y230
G0 Y200
G0 Y230
G0 Y200
G0 Y230
G0 Y200
G0 Y230
G0 Y200
G0 Y230
G0 Y200
G0 Y230
G0 Y200
G0 Y230
G0 Y200
G0 Y230
G0 Y200
G0 Y230
G0 Y200
G0 Y230
G0 Y200
G0 Y230
G0 Y200
G0 Y230
G0 Y200
G0 Y230
G0 Y200
G0 Y230
G0 Y200
G0 Y230
G0 Y200
G0 Y230
G0 Y200
G0 Y230
G0 Y200
G0 Y230
G0 Y200
G0 Y230
G0 Y200
G0 Y230
G0 Y200
G0 Y230
G0 Y200
G0 Y230
G0 Y200
G0 Y230
G0 Y200
G0 Y230
G0 Y200
G0 Y230
G0 Y200
G0 Y230
G0 Y200
G0 Y230
G0 Y200
G0 Y230
G0 Y200
G0 Y230
G0 Y200
G0 Y230
G0 Y200
G0 Y230
G0 Y200
G0 Y230
G0 Y200
G0 Y230
G0 Y200
G0 Y230
G0 Y200
G0 Y230
G0 Y200
G0 Y230
G0 Y200
G0 Y230
G0 Y200
G0 Y230
G0 Y200
G0 Y230
G0 Y200
G0 Y230
G0 Y200
G0 Y230
G0 Y200
G0 Y230
G0 Y200
G0 Y230
G0 Y200
G0 Y230
G0 Y200
G0 Y230
G0 Y200
G0 Y230
G0 Y200
G0 Y230
G0 Y200
G0 Y230
G0 Y200
G0 Y230
G0 Y200
G0 Y230
G0 Y200
G0 Y230
G0 Y200
G0 Y230
G0 Y200
G0 Y230
G0 Y200
G0 Y230
G0 Y200
G0 Y230
G0 Y200
G0 Y230
G0 Y200
G0 Y230
G0 Y200
G0 Y230
G0 Y200
G0 Y230
G0 Y200
G0 Y230
G0 Y200
G0 Y230
G0 Y200
G0 Y230
G0 Y200
G0 Y230
G0 Y200
G0 Y230
G0 Y200
G0 Y230
G0 Y200
G0 Y230
G0 Y200
G0 Y230
G0 Y200
G0 Y230
G0 Y200
G0 Y230
G0 Y200
G0 Y230
G0 Y200
G0 Y230
G0 Y200
G0 Y230
G0 Y200
G0 Y230
G0 Y200
G0 Y230
G0 Y200
G0 Y230
G0 Y200
G0 Y230
G0 Y200
G0 Y230
G0 Y200
G0 Y230
G0 Y200
G0 Y230
G0 Y200
G0 Y230
G0 Y200
G0 Y230
G0 Y200
G0 Y230
G0 Y200
G0 Y230
G0 Y200
G0 Y230
G0 Y200
G0 Y230
G0 Y200
G0 Y230
G0 Y200
G0 Y230
G0 Y200
G0 Y230
G0 Y200
G0 Y230
G0 Y200
G0 Y230
G0 Y200
G0 Y230
G0 Y200
G0 Y230
G0 Y200
G0 Y230
G0 Y200
G0 Y230
G0 Y200
G0 Y230
G0 Y200
G0 Y230
G0 Y200
G0 Y230
G0 Y200
G0 Y230
G0 Y200
G0 Y230
G0 Y200
G0 Y230
G0 Y200
G0 Y230
G0 Y200
G0 Y230
G0 Y200
G0 Y230
G0 Y200
G0 Y230
G0 Y200
G0 Y230
G0 Y200
G0 Y230
G0 Y200
G0 Y230
G0 Y200
G0 Y230
G0 Y200
G0 Y230
G0 Y200
G0 Y230
G0 Y200
G0 Y230
G0 Y200
G0 Y230
G0 Y200
G0 Y230
G0 Y200
G0 Y230
G0 Y200
G0 Y230
G0 Y200
G0 Y230
G0 Y200
G0 Y230
G0 Y200
G0 Y230
G0 Y200
G0 Y230
G0 Y200
G0 Y230
G0 Y200
G0 Y230
G0 Y200
G0 Y230
G0 Y200
G0 Y230
G0 Y200
G0 Y230
G0 Y200
G0 Y230
G0 Y200
G0 Y230
G0 Y200
G0 Y230
G0 Y200
G0 Y230
G0 Y200
G0 Y230
G0 Y200
G0 Y230
G0 Y200
G0 Y230
G0 Y200
G0 Y230
G0 Y200
G0 Y230
G0 Y200
G0 Y230
G0 Y200
G0 Y230
G0 Y200
G0 Y230
G0 Y200
G0 Y230
G0 Y200
G0 Y230
G0 Y200
G0 Y230
G0 Y200
G0 Y230
G0 Y200
G0 Y230
G0 Y200
G0 Y230
G0 Y200
G0 Y230
G0 Y200
G0 Y230
G0 Y200
G0 Y230
G0 Y200
G0 Y230
G0 Y200
G0 Y230
G0 Y200
G0 Y230
G0 Y200
G0 Y230
G0 Y200
G0 Y230
G0 Y200
G0 Y230
G0 Y200
G0 Y230
G0 Y200
G0 Y230
G0 Y200
G0 Y230
G0 Y200
G0 Y230
G0 Y200
G0 Y230
G0 Y200
G0 Y230
G0 Y200
G0 Y230
G0 Y200
G0 Y230
G0 Y200
G0 Y230
G0 Y200
G0 Y230
G0 Y200
G0 Y230
G0 Y200
G0 Y230
G0 Y200
G0 Y230
G0 Y200
G0 Y230
G0 Y200
G0 Y230
G0 Y200
G0 Y230
G0 Y200
G0 Y230
G0 Y200
G0 Y230
G0 Y200
G0 Y230
G0 Y200
G0 Y230
G0 Y200
G0 Y230
G0 Y200
G0 Y230
G0 Y200
G0 Y230
G0 Y200
G0 Y230
G0 Y200
G0 Y230
G0 Y200
G0 Y230
G0 Y200
G0 Y230
G0 Y200
G0 Y230
G0 Y200
G0 Y230
G0 Y200
G0 Y230
G0 Y200
G0 Y230
G0 Y200
G0 Y230
G0 Y200
G0 Y230
G0 Y200
G0 Y230
G0 Y200
G0 Y230
G0 Y200
G0 Y230
G0 Y200
G0 Y230
G0 Y200
G0 Y230
G0 Y200
G0 Y230
G0 Y200
G0 Y230
G0 Y200
G0 Y230
G0 Y200
G0 Y230
G0 Y200
G0 Y230
G0 Y200
G0 Y230
G0 Y200
G0 Y230
G0 Y200
G0 Y230
G0 Y200
G0 Y230
G0 Y200
G0 Y230
G0 Y200
G0 Y230
G0 Y200
G0 Y230
G0 Y200
G0 Y230
G0 Y200
G0 Y230
G0 Y200
G0 Y230
G0 Y200
G0 Y230
G0 Y200
G0 Y230
G0 Y200
G0 Y230
G0 Y200
G0 Y230
G0 Y200
G0 Y230
G0 Y200
G0 Y230
G0 Y200
G0 Y230
G0 Y200
G0 Y230
G0 Y200
G0 Y230
G0 Y200
G0 Y230
G0 Y200
G0 Y230
G0 Y200
G0 Y230
G0 Y200
G0 Y230
G0 Y200
G0 Y230
G0 Y200
G0 Y230
G0 Y200
G0 Y230
G0 Y200
G0 Y230
G0 Y200
G0 Y230
G0 Y200
G0 Y230
G0 Y200
G0 Y230
G0 Y200
G0 Y230
G0 Y200
G0 Y230
G0 Y200
G0 Y230
G0 Y200
G0 Y230
G0 Y200
G0 Y230
G0 Y200
G0 Y230
G0 Y200
G0 Y230
G0 Y200
G0 Y230
G0 Y200
G0 Y230
G0 Y200
G0 Y230
G0 Y200
G0 Y230
G0 Y200
G0 Y230
G0 Y200
G0 Y230
G0 Y200
G0 Y230
G0 Y200
G0 Y230
G0 Y200
G0 Y230
G0 Y200
G0 Y230
G0 Y200
G0 Y230
G0 Y200
G0 Y230
G0 Y200
G0 Y230
G0 Y200
G0 Y230
G0 Y200
G0 Y230
G0 Y200
G0 Y230
G0 Y200
G0 Y230
G0 Y200
G0 Y230
G0 Y200
G0 Y230
G0 Y200
G0 Y230
G0 Y200
G0 Y230
G0 Y200
G0 Y230
G0 Y200
G0 Y230
G0 Y200
G0 Y230
G0 Y200
G0 Y230
G0 Y200
G0 Y230
G0 Y200
G0 Y230
G0 Y200
G0 Y230
G0 Y200
G0 Y230
G0 Y200
G0 Y230
G0 Y200
G0 Y230
G0 Y200
G0 Y230
G0 Y200
G0 Y230
G0 Y200
G0 Y230
G0 Y200
G0 Y230
G0 Y200
G0 Y230
G0 Y200
G0 Y230
G0 Y200
G0 Y230
G0 Y200
G0 Y230
G0 Y200
G0 Y230
G0 Y200
G0 Y230
G0 Y200
G0 Y230
G0 Y200
G0 Y230
G0 Y200
G0 Y230
G0 Y200
G0 Y230
G0 Y200
G0 Y230
G0 Y200
G0 Y230
G0 Y200
G0 Y230
G0 Y200
G0 Y230
G0 Y200
G0 Y230
G0 Y200
G0 Y230
G0 Y200
G0 Y230
G0 Y200
G0 Y230
G0 Y200
G0 Y230
G0 Y200
G0 Y230
G0 Y200
G0 Y230
G0 Y200
G0 Y230
G0 Y200
G0 Y230
G0 Y200
G0 Y230
G0 Y200
G0 Y230
G0 Y200
G0 Y230
G0 Y200
G0 Y230
G0 Y200
G0 Y230
G0 Y200
G0 Y230
G0 Y200
G0 Y230
G0 Y200
G0 Y230
G0 Y200
G0 Y230
G0 Y200
G0 Y230
G0 Y200
G0 Y230
G0 Y200
G0 Y230
G0 Y200
G0 Y230
G0 Y200
G0 Y230
G0 Y200
G0 Y230
G0 Y200
G0 Y230
G0 Y200
G0 Y230
G0 Y200
G0 Y230
G0 Y200
G0 Y230
G0 Y200
G0 Y230
G0 Y200
G0 Y230
G0 Y200
G0 Y230
G0 Y200
G0 Y230
G0 Y200
G0 Y230
G0 Y200
G0 Y230
G0 Y200
G0 Y230
G0 Y200
G0 Y230
G0 Y200
G0 Y230
G0 Y200
G0 Y230
G0 Y200
G0 Y230
G0 Y200
G0 Y230
G0 Y200
G0 Y230
G0 Y200
G0 Y230
G0 Y200
G0 Y230
G0 Y200
G0 Y230
G0 Y200
G0 Y230
G0 Y200
G0 Y230
G0 Y200
G0 Y230
G0 Y200
G0 Y230
G0 Y200
G0 Y230
G0 Y200
G0 Y230
G0 Y200
G0 Y230
G0 Y200
G0 Y230
G0 Y200
G0 Y230
G0 Y200
G0 Y230
G0 Y200
G0 Y230
G0 Y200
G0 Y230
G0 Y200
G0 Y230
G0 Y200
G0 Y230
G0 Y200
G0 Y230
G0 Y200
G0 Y230
G0 Y200
G0 Y230
G0 Y200
G0 Y230
G0 Y200
G0 Y230
G0 Y200
G0 Y230
G0 Y200
G0 Y230
G0 Y200
G0 Y230
G0 Y200
G0 Y230
G0 Y200
G0 Y230
G0 Y200
G0 Y230
G0 Y200
G0 Y230
G0 Y200
G0 Y230
G0 Y200
G0 Y230
G0 Y200
G0 Y230
G0 Y200
G0 Y230
G0 Y200
G0 Y230
G0 Y200
G0 Y230
G0 Y200
G0 Y230
G0 Y200
G0 Y230
G0 Y200
G0 Y230
G0 Y200
G0 Y230
G0 Y200
G0 Y230
G0 Y200
G0 Y230
G0 Y200
G0 Y230
G0 Y200
G0 Y230
G0 Y200
G0 Y230
G0 Y200
G0 Y230
G0 Y200
G0 Y230
G0 Y200
G0 Y230
G0 Y200
G0 Y230
G0 Y200
G0 Y230
G0 Y200
G0 Y230
G0 Y200
G0 Y230
G0 Y200
G0 Y230
G0 Y200
G0 Y230
G0 Y200
G0 Y230
G0 Y200
G0 Y230
G0 Y200
G0 Y230
G0 Y200
G0 Y230
G0 Y200
G0 Y230
G0 Y200
G0 Y230
G0 Y200
G0 Y230
G0 Y200
G0 Y230
G0 Y200
G0 Y230
G0 Y200
G0 Y230
G0 Y200
G0 Y230
G0 Y200
G0 Y230
G0 Y200
G0 Y230
G0 Y200
G0 Y230
G0 Y200
G0 Y230
G0 Y200
G0 Y230
G0 Y200
G0 Y230
G0 Y200
G0 Y230
G0 Y200
G0 Y230
G0 Y200
G0 Y230
G0 Y200
G0 Y230
G0 Y200
G0 Y230
G0 Y200
G0 Y230
G0 Y200
G0 Y230
G0 Y200
G0 Y230
G0 Y200
G0 Y230
G0 Y200
G0 Y230
G0 Y200
G0 Y230
G0 Y200
G0 Y230
G0 Y200
G0 Y230
G0 Y200
G0 Y230
G0 Y200
G0 Y230
G0 Y200
G0 Y230
G0 Y200
G0 Y230
G0 Y200
G0 Y230
G0 Y200
G0 Y230
G0 Y200
G0 Y230
G0 Y200
G0 Y230
G0 Y200
G0 Y230
G0 Y200
G0 Y230
G0 Y200
G0 Y230
G0 Y200
G0 Y230
G0 Y200
G0 Y230
G0 Y200
G0 Y230
G0 Y200
G0 Y230
G0 Y200
G0 Y230
G0 Y200
G0 Y230
G0 Y200
G0 Y230
G0 Y200
G0 Y230
G0 Y200
G0 Y230
G0 Y200
G0 Y230
G0 Y200
G0 Y230
G0 Y200
G0 Y230
G0 Y200
G0 Y230
G0 Y200
G0 Y230
G0 Y200
G0 Y230
G0 Y200
G0 Y230
G0 Y200
G0 Y230
G0 Y200
G0 Y230
G0 Y200
G0 Y230
G0 Y200
G0 Y230
G0 Y200
G0 Y230
G0 Y200
G0 Y230
G0 Y200
G0 Y230
G0 Y200
G0 Y230
G0 Y200
G0 Y230
G0 Y200
G0 Y230
G0 Y200
G0 Y230
G0 Y200
G0 Y230
G0 Y200
G0 Y230
G0 Y200
G0 Y230
G0 Y200
G0 Y230
G0 Y200
G0 Y230
G0 Y200
G0 Y230
G0 Y200
G0 Y230
G0 Y200
G0 Y230
G0 Y200
G0 Y230
G0 Y200
G0 Y230
G0 Y200
G0 Y230
G0 Y200
G0 Y230
G0 Y200
G0 Y230
G0 Y200
G0 Y230
G0 Y200
G0 Y230
G0 Y200
G0 Y230
G0 Y200
G0 Y230
G0 Y200
G0 Y230
G0 Y200
G0 Y230
G0 Y200
G0 Y230
G0 Y200
G0 Y230
G0 Y200
G0 Y230
G0 Y200
G0 Y230
G0 Y200
G0 Y230
G0 Y200
G0 Y230
G0 Y200
G0 Y230
G0 Y200
G0 Y230
G0 Y200
G0 Y230
G0 Y200
G0 Y230
G0 Y200
G0 Y230
G0 Y200
G0 Y230
G0 Y200
G0 Y230
G0 Y200
G0 Y230
G0 Y200
G0 Y230
G0 Y200
G0 Y230
G0 Y200
G0 Y230
G0 Y200
G0 Y230
G0 Y200
G0 Y230
G0 Y200
G0 Y230
G0 Y200
G0 Y230
G0 Y200
G0 Y230
G0 Y200
G0 Y230
G0 Y200
G0 Y230
G0 Y200
G0 Y230
G0 Y200
G0 Y230
G0 Y200
G0 Y230
G0 Y200
G0 Y230
G0 Y200
G0 Y230
G0 Y200
G0 Y230
G0 Y200
G0 Y230
G0 Y200
G0 Y230
G0 Y200
G0 Y230
G0 Y200
G0 Y230
G0 Y200
G0 Y230
G0 Y200
G0 Y230
G0 Y200
G0 Y230
G0 Y200
G0 Y230
G0 Y200
G0 Y230
G0 Y200
G0 Y230
G0 Y200
G0 Y230
G0 Y200
G0 Y230
G0 Y200
G0 Y230
G0 Y200
G0 Y230
G0 Y200
G0 Y230
G0 Y200
G0 Y230
G0 Y200
G0 Y230
G0 Y200
G0 Y230
G0 Y200
G0 Y230
G0 Y200
G0 Y230
G0 Y200
G0 Y230
G0 Y200
G0 Y230
G0 Y200
G0 Y230
G0 Y200
G0 Y230
G0 Y200
G0 Y230
G0 Y200
G0 Y230
G0 Y200
G0 Y230
G0 Y200
G0 Y230
G0 Y200
G0 Y230
G0 Y200
G0 Y230
G0 Y200
G0 Y230
G0 Y200
G0 Y230
G0 Y200
G0 Y230
G0 Y200
G0 Y230
G0 Y200
G0 Y230
G0 Y200
G0 Y230
G0 Y200
G0 Y230
G0 Y200
G0 Y230
G0 Y200
G0 Y230
G0 Y200
G0 Y230
G0 Y200
G0 Y230
G0 Y200
G0 Y230
G0 Y200
G0 Y230
G0 Y200
G0 Y230
G0 Y200
G0 Y230
G0 Y200
G0 Y230
G0 Y200
G0 Y230
G0 Y200
G0 Y230
G0 Y200
G0 Y230
G0 Y200
G0 Y230
G0 Y200
G0 Y230
G0 Y200
G0 Y230
G0 Y200
G0 Y230
G0 Y200
G0 Y230
G0 Y200
G0 Y230
G0 Y200
G0 Y230
G0 Y200
G0 Y230
G0 Y200
G0 Y230
G0 Y200
G0 Y230
G0 Y200
G0 Y230
G0 Y200
G0 Y230
G0 Y200
G0 Y230
G0 Y200
G0 Y230
G0 Y200
G0 Y230
G0 Y200
G0 Y230
G0 Y200
G0 Y230
G0 Y200
G0 Y230
G0 Y200
G0 Y230
G0 Y200
G0 Y230
G0 Y200
G0 Y230
G0 Y200
G0 Y230
G0 Y200
G0 Y230
G0 Y200
G0 Y230
G0 Y200
G0 Y230
G0 Y200
G0 Y230
G0 Y200
G0 Y230
G0 Y200
G0 Y230
G0 Y200
G0 Y230
G0 Y200
G0 Y230
G0 Y200
G0 Y230
G0 Y200
G0 Y230
G0 Y200
G0 Y230
G0 Y200
G0 Y230
G0 Y200
G0 Y230
G0 Y200
G0 Y230
G0 Y200
G0 Y230
G0 Y200
G0 Y230
G0 Y200
G0 Y230
G0 Y200
G0 Y230
G0 Y200
G0 Y230
G0 Y200
G0 Y230
G0 Y200
G0 Y230
G0 Y200
G0 Y230
G0 Y200
G0 Y230
G0 Y200
G0 Y230
G0 Y200
G0 Y230
G0 Y200
G0 Y230
G0 Y200
G0 Y230
G0 Y200
G0 Y230
G0 Y200
G0 Y230
G0 Y200
G0 Y230
G0 Y200
G0 Y230
G0 Y200
G0 Y230
G0 Y200
G0 Y230
G0 Y200
G0 Y230
G0 Y200
G0 Y230
G0 Y200
G0 Y230
G0 Y200
G0 Y230
G0 Y200
G0 Y230
G0 Y200
G0 Y230
G0 Y200
G0 Y230
G0 Y200
G0 Y230
G0 Y200
G0 Y230
G0 Y200
G0 Y230
G0 Y200
G0 Y230
G0 Y200
G0 Y230
G0 Y200
G0 Y230
G0 Y200
G0 Y230
G0 Y200
G0 Y230
G0 Y200
G0 Y230
G0 Y200
G0 Y230
G0 Y200
G0 Y230
G0 Y200
G0 Y230
G0 Y200
G0 Y230
G0 Y200
G0 Y230
G0 Y200
G0 Y230
G0 Y200
G0 Y230
G0 Y200
G0 Y230
G0 Y200
G0 Y230
G0 Y200
G0 Y230
G0 Y200
G0 Y230
G0 Y200
G0 Y230
G0 Y200
G0 Y230
G0 Y200
G0 Y230
G0 Y200
G0 Y230
G0 Y200
G0 Y230
G0 Y200
G0 Y230
G0 Y200
G0 Y230
G0 Y200
G0 Y230
G0 Y200
G0 Y230
G0 Y200
G0 Y230
G0 Y200
G0 Y230
G0 Y200
G0 Y230
G0 Y200
G0 Y230
G0 Y200
G0 Y230
G0 Y200
G0 Y230
G0 Y200
G0 Y230
G0 Y200
G0 Y230
G0 Y200
G0 Y230
G0 Y200
G0 Y230
G0 Y200
G0 Y230
G0 Y200
G0 Y230
G0 Y200
G0 Y230
G0 Y200
G0 Y230
G0 Y200
G0 Y230
G0 Y200
G0 Y230
G0 Y200
G0 Y230
G0 Y200
G0 Y230
G0 Y200
G0 Y230
G0 Y200
G0 Y230
G0 Y200
G0 Y230
G0 Y200
G0 Y230
G0 Y200
G0 Y230
G0 Y200
G0 Y230
G0 Y200
G0 Y230
G0 Y200
G0 Y230
G0 Y200
G0 Y230
G0 Y200
G0 Y230
G0 Y200
G0 Y230
G0 Y200
G0 Y230
G0 Y200
G0 Y230
G0 Y200
G0 Y230
G0 Y200
G0 Y230
G0 Y200
G0 Y230
G0 Y200
G0 Y230
G0 Y200
G0 Y230
G0 Y200
G0 Y230
G0 Y200
G0 Y230
G0 Y200
G0 Y230
G0 Y200
G0 Y230
G0 Y200
G0 Y230
G0 Y200
G0 Y230
G0 Y200
G0 Y230
G0 Y200
G0 Y230
G0 Y200
G0 Y230
G0 Y200
G0 Y230
G0 Y200
G0 Y230
G0 Y200
G0 Y230
G0 Y200
G0 Y230
G0 Y200
G0 Y230
G0 Y200
G0 Y230
G0 Y200
G0 Y230
G0 Y200
G0 Y230
G0 Y200
G0 Y230
G0 Y200
G0 Y230
G0 Y200
G0 Y230
G0 Y200
G0 Y230
G0 Y200
G0 Y230
G0 Y200
G0 Y230
G0 Y200
G0 Y230
G0 Y200
G0 Y230
G0 Y200
G0 Y230
G0 Y200
G0 Y230
G0 Y200
G0 Y230
G0 Y200
G0 Y230
G0 Y200
G0 Y230
G0 Y200
G0 Y230
G0 Y200
G0 Y230
G0 Y200
G0 Y230
G0 Y200
G0 Y230
G0 Y200
G0 Y230
G0 Y200
G0 Y230
G0 Y200
G0 Y230
G0 Y200
G0 Y230
G0 Y200
G0 Y230
G0 Y200
G0 Y230
G0 Y200
G0 Y230
G0 Y200
G0 Y230
G0 Y200
G0 Y230
G0 Y200
G0 Y230
G0 Y200
G0 Y230
G0 Y200
G0 Y230
G0 Y200
G0 Y230
G0 Y200
G0 Y230
G0 Y200
G0 Y230
G0 Y200
G0 Y230
G0 Y200
G0 Y230
G0 Y200
G0 Y230
G0 Y200
G0 Y230
G0 Y200
G0 Y230
G0 Y200
G0 Y230
G0 Y200
G0 Y230
G0 Y200
G0 Y230
G0 Y200
G0 Y230
G0 Y200
G0 Y230
G0 Y200
G0 Y230
G0 Y200
G0 Y230
G0 Y200
G0 Y230
G0 Y200
G0 Y230
G0 Y200
G0 Y230
G0 Y200
G0 Y230
G0 Y200
G0 Y230
G0 Y200
G0 Y230
G0 Y200
G0 Y230
G0 Y200
G0 Y230
G0 Y200
G0 Y230
G0 Y200
G0 Y230
G0 Y200
G0 Y230
G0 Y200
G0 Y230
G0 Y200
G0 Y230
G0 Y200
G0 Y230
G0 Y200
G0 Y230
G0 Y200
G0 Y230
G0 Y200
G0 Y230
G0 Y200
G0 Y230
G0 Y200
G0 Y230
G0 Y200
G0 Y230
G0 Y200
G0 Y230
G0 Y200
G0 Y230
G0 Y200
G0 Y230
G0 Y200
G0 Y230
G0 Y200
G0 Y230
G0 Y200
G0 Y230
G0 Y200
G0 Y230
G0 Y200
G0 Y230
G0 Y200
G0 Y230
G0 Y200
G0 Y230
G0 Y200
G0 Y230
G0 Y200
G0 Y230
G0 Y200
G0 Y230
G0 Y200
G0 Y230
G0 Y200
G0 Y230
G0 Y200
G0 Y230
G0 Y200
G0 Y230
G0 Y200
G0 Y230
G0 Y200
G0 Y230
G0 Y200
G0 Y230
G0 Y200
G0 Y230
G0 Y200
G0 Y230
G0 Y200
G0 Y230
G0 Y200
G0 Y230
G0 Y200
G0 Y230
G0 Y200
G0 Y230
G0 Y200
G0 Y230
G0 Y200
G0 Y230
G0 Y200
G0 Y230
G0 Y200
G0 Y230
G0 Y200
G0 Y230
G0 Y200
G0 Y230
G0 Y200
G0 Y230
G0 Y200
G0 Y230
G0 Y200
G0 Y230
G0 Y200
G0 Y230
G0 Y200
G0 Y230
G0 Y200
G0 Y230
G0 Y200
G0 Y230
G0 Y200
G0 Y230
G0 Y200
G0 Y230
G0 Y200
G0 Y230
G0 Y200
G0 Y230
G0 Y200
G0 Y230
G0 Y200
G0 Y230
G0 Y200
G0 Y230
G0 Y200
G0 Y230
G0 Y200
G0 Y230
G0 Y200
G0 Y230
G0 Y200
G0 Y230
G0 Y200
G0 Y230
G0 Y200
G0 Y230
G0 Y200
G0 Y230
G0 Y200
G0 Y230
G0 Y200
G0 Y230
G0 Y200
G0 Y230
G0 Y200
G0 Y230
G0 Y200
G0 Y230
G0 Y200
G0 Y230
G0 Y200
G0 Y230
G0 Y200
G0 Y230
G0 Y200
G0 Y230
G0 Y200
G0 Y230
G0 Y200
G0 Y230
G0 Y200
G0 Y230
G0 Y200
G0 Y230
G0 Y200
G0 Y230
G0 Y200
G0 Y230
G0 Y200
G0 Y230
G0 Y200
G0 Y230
G0 Y200
G0 Y230
G0 Y200
G0 Y230
G0 Y200
G0 Y230
G0 Y200
G0 Y230
G0 Y200
G0 Y230
G0 Y200
G0 Y230
G0 Y200
G0 Y230
G0 Y200
G0 Y230
G0 Y200
G0 Y230
G0 Y200
G0 Y230
G0 Y200
G0 Y230
G0 Y200
G0 Y230
G0 Y200
G0 Y230
G0 Y200
G0 Y230
G0 Y200
G0 Y230
G0 Y200
G0 Y230
G0 Y200
G0 Y230
G0 Y200
G0 Y230
G0 Y200
G0 Y230
G0 Y200
G0 Y230
G0 Y200
G0 Y230
G0 Y200
G0 Y230
G0 Y200
G0 Y230
G0 Y200
G0 Y230
G0 Y200
G0 Y230
G0 Y200
G0 Y230
G0 Y200
G0 Y230
G0 Y200
G0 Y230
G0 Y200
G0 Y230
G0 Y200
G0 Y230
G0 Y200
G0 Y230
G0 Y200
G0 Y230
G0 Y200
G0 Y230
G0 Y200
G0 Y230
G0 Y200
G0 Y230
G0 Y200
G0 Y230
G0 Y200
G0 Y230
G0 Y200
G0 Y230
G0 Y200
G0 Y230
G0 Y200
G0 Y230
G0 Y200
G0 Y230
G0 Y200
G0 Y230
G0 Y200
G0 Y230
G0 Y200
G0 Y230
G0 Y200
G0 Y230
G0 Y200
G0 Y230
G0 Y200
G0 Y230
G0 Y200
G0 Y230
G0 Y200
G0 Y230
G0 Y200
G0 Y230
G0 Y200
G0 Y230
G0 Y200
G0 Y230
G0 Y200
G0 Y230
G0 Y200
G0 Y230
G0 Y200
G0 Y230
G0 Y200
G0 Y230
G0 Y200
G0 Y230
G0 Y200
G0 Y230
G0 Y200
G0 Y230
G0 Y200
G0 Y230
G0 Y200
G0 Y230
G0 Y200
G0 Y230
G0 Y200
G0 Y230
G0 Y200
G0 Y230
G0 Y200
G0 Y230
G0 Y200
G0 Y230
G0 Y200
G0 Y230
G0 Y200
G0 Y230
G0 Y200
G0 Y230
G0 Y200
G0 Y230
G0 Y200
G0 Y230
G0 Y200
G0 Y230
G0 Y200
G0 Y230
G0 Y200
G0 Y230
G0 Y200
G0 Y230
G0 Y200
G0 Y230
G0 Y200
G0 Y230
G0 Y200
G0 Y230
G0 Y200
G0 Y230
G0 Y200
G0 Y230
G0 Y200
G0 Y230
G0 Y200
G0 Y230
G0 Y200
G0 Y230
G0 Y200
G0 Y230
G0 Y200
G0 Y230
G0 Y200
G0 Y230
G0 Y200
G0 Y230
G0 Y200
G0 Y230
G0 Y200
G0 Y230
G0 Y200
G0 Y230
G0 Y200
G0 Y230
G0 Y200
G0 Y230
G0 Y200
G0 Y230
G0 Y200
G0 Y230
G0 Y200
G0 Y230
G0 Y200
G0 Y230
G0 Y200
G0 Y230
G0 Y200
G0 Y230
G0 Y200
G0 Y230
G0 Y200
G0 Y230
G0 Y200
G0 Y230
G0 Y200
G0 Y230
G0 Y200
G0 Y230
G0 Y200
G0 Y230
G0 Y200
G0 Y230
G0 Y200
G0 Y230
G0 Y200
G0 Y230
G0 Y200
G0 Y230
G0 Y200
G0 Y230
G0 Y200
G0 Y230
G0 Y200
G0 Y230
G0 Y200
G0 Y230
G0 Y200
G0 Y230
G0 Y200
G0 Y230
G0 Y200
G0 Y230
G0 Y200
G0 Y230
G0 Y200
G0 Y230
G0 Y200
G0 Y230
G0 Y200
G0 Y230
G0 Y200
G0 Y230
G0 Y200
G0 Y230
G0 Y200
G0 Y230
G0 Y200
G0 Y230
G0 Y200
G0 Y230
G0 Y200
G0 Y230
G0 Y200
G0 Y230
G0 Y200
G0 Y230
M400                         ; wait for moves to finish
M140 S0                      ; disable bed heater
M77                          ; stop GLCD timer
G1 X0 Y250                   ; move to cooling position
M84                          ; disable steppers
G90                          ; absolute positioning
M117 Print Complete.         ; print complete message
