;; for agitating and warming ferric chloride etching solution (while etching)
;This G-Code has been generated specifically for the LulzBot TAZ 5 with standard extruder
M75			 ; start GLCD timer
M140 S80                 ; start bed heating up
M117 WARMING THE BED     ; message on LCD 
M203 X192 Y208 Z3        ; set limits on travel speed
G90                      ; absolute positioning
M107                     ; disable fans
G28 X0 Y0                ; home X and Y
G0 F3600                 ; set movement speed to 60mm/s
G0 Y230                  ; get the z axis out the way 
G28 Z0                   ; home Z
G0 Z150.0                ; move extruder up
M190 S80                 ; wait for bed to heat up
M117 Ready to agitate    ; message on LCD (because octoprint doesn't send M0 message)
M0 Ready to agitate      ; wait for user to resume 
M117 Agitating 0:00
G0 Y230
G0 Y200
M117 Agitating 0:01
G0 Y230
G0 Y200
M117 Agitating 0:02
G0 Y230
G0 Y200
M117 Agitating 0:03
G0 Y230
G0 Y200
M117 Agitating 0:04
G0 Y230
G0 Y200
M117 Agitating 0:05
G0 Y230
G0 Y200
M117 Agitating 0:06
G0 Y230
G0 Y200
M117 Agitating 0:07
G0 Y230
G0 Y200
M117 Agitating 0:08
G0 Y230
G0 Y200
M117 Agitating 0:09
G0 Y230
G0 Y200
M117 Agitating 0:10
G0 Y230
G0 Y200
M117 Agitating 0:11
G0 Y230
G0 Y200
M117 Agitating 0:12
G0 Y230
G0 Y200
M117 Agitating 0:13
G0 Y230
G0 Y200
M117 Agitating 0:14
G0 Y230
G0 Y200
M117 Agitating 0:15
G0 Y230
G0 Y200
M117 Agitating 0:16
G0 Y230
G0 Y200
M117 Agitating 0:17
G0 Y230
G0 Y200
M117 Agitating 0:18
G0 Y230
G0 Y200
M117 Agitating 0:19
G0 Y230
G0 Y200
M117 Agitating 0:20
G0 Y230
G0 Y200
M117 Agitating 0:21
G0 Y230
G0 Y200
M117 Agitating 0:22
G0 Y230
G0 Y200
M117 Agitating 0:23
G0 Y230
G0 Y200
M117 Agitating 0:24
G0 Y230
G0 Y200
M117 Agitating 0:25
G0 Y230
G0 Y200
M117 Agitating 0:26
G0 Y230
G0 Y200
M117 Agitating 0:27
G0 Y230
G0 Y200
M117 Agitating 0:28
G0 Y230
G0 Y200
M117 Agitating 0:29
G0 Y230
G0 Y200
M117 Agitating 0:30
G0 Y230
G0 Y200
M117 Agitating 0:31
G0 Y230
G0 Y200
M117 Agitating 0:32
G0 Y230
G0 Y200
M117 Agitating 0:33
G0 Y230
G0 Y200
M117 Agitating 0:34
G0 Y230
G0 Y200
M117 Agitating 0:35
G0 Y230
G0 Y200
M117 Agitating 0:36
G0 Y230
G0 Y200
M117 Agitating 0:37
G0 Y230
G0 Y200
M117 Agitating 0:38
G0 Y230
G0 Y200
M117 Agitating 0:39
G0 Y230
G0 Y200
M117 Agitating 1:00
G0 Y230
G0 Y200
M117 Agitating 1:01
G0 Y230
G0 Y200
M117 Agitating 1:02
G0 Y230
G0 Y200
M117 Agitating 1:03
G0 Y230
G0 Y200
M117 Agitating 1:04
G0 Y230
G0 Y200
M117 Agitating 1:05
G0 Y230
G0 Y200
M117 Agitating 1:06
G0 Y230
G0 Y200
M117 Agitating 1:07
G0 Y230
G0 Y200
M117 Agitating 1:08
G0 Y230
G0 Y200
M117 Agitating 1:09
G0 Y230
G0 Y200
M117 Agitating 1:10
G0 Y230
G0 Y200
M117 Agitating 1:11
G0 Y230
G0 Y200
M117 Agitating 1:12
G0 Y230
G0 Y200
M117 Agitating 1:13
G0 Y230
G0 Y200
M117 Agitating 1:14
G0 Y230
G0 Y200
M117 Agitating 1:15
G0 Y230
G0 Y200
M117 Agitating 1:16
G0 Y230
G0 Y200
M117 Agitating 1:17
G0 Y230
G0 Y200
M117 Agitating 1:18
G0 Y230
G0 Y200
M117 Agitating 1:19
G0 Y230
G0 Y200
M117 Agitating 1:20
G0 Y230
G0 Y200
M117 Agitating 1:21
G0 Y230
G0 Y200
M117 Agitating 1:22
G0 Y230
G0 Y200
M117 Agitating 1:23
G0 Y230
G0 Y200
M117 Agitating 1:24
G0 Y230
G0 Y200
M117 Agitating 1:25
G0 Y230
G0 Y200
M117 Agitating 1:26
G0 Y230
G0 Y200
M117 Agitating 1:27
G0 Y230
G0 Y200
M117 Agitating 1:28
G0 Y230
G0 Y200
M117 Agitating 1:29
G0 Y230
G0 Y200
M117 Agitating 1:30
G0 Y230
G0 Y200
M117 Agitating 1:31
G0 Y230
G0 Y200
M117 Agitating 1:32
G0 Y230
G0 Y200
M117 Agitating 1:33
G0 Y230
G0 Y200
M117 Agitating 1:34
G0 Y230
G0 Y200
M117 Agitating 1:35
G0 Y230
G0 Y200
M117 Agitating 1:36
G0 Y230
G0 Y200
M117 Agitating 1:37
G0 Y230
G0 Y200
M117 Agitating 1:38
G0 Y230
G0 Y200
M117 Agitating 1:39
G0 Y230
G0 Y200
M117 Agitating 2:00
G0 Y230
G0 Y200
M117 Agitating 2:01
G0 Y230
G0 Y200
M117 Agitating 2:02
G0 Y230
G0 Y200
M117 Agitating 2:03
G0 Y230
G0 Y200
M117 Agitating 2:04
G0 Y230
G0 Y200
M117 Agitating 2:05
G0 Y230
G0 Y200
M117 Agitating 2:06
G0 Y230
G0 Y200
M117 Agitating 2:07
G0 Y230
G0 Y200
M117 Agitating 2:08
G0 Y230
G0 Y200
M117 Agitating 2:09
G0 Y230
G0 Y200
M117 Agitating 2:10
G0 Y230
G0 Y200
M117 Agitating 2:11
G0 Y230
G0 Y200
M117 Agitating 2:12
G0 Y230
G0 Y200
M117 Agitating 2:13
G0 Y230
G0 Y200
M117 Agitating 2:14
G0 Y230
G0 Y200
M117 Agitating 2:15
G0 Y230
G0 Y200
M117 Agitating 2:16
G0 Y230
G0 Y200
M117 Agitating 2:17
G0 Y230
G0 Y200
M117 Agitating 2:18
G0 Y230
G0 Y200
M117 Agitating 2:19
G0 Y230
G0 Y200
M117 Agitating 2:20
G0 Y230
G0 Y200
M117 Agitating 2:21
G0 Y230
G0 Y200
M117 Agitating 2:22
G0 Y230
G0 Y200
M117 Agitating 2:23
G0 Y230
G0 Y200
M117 Agitating 2:24
G0 Y230
G0 Y200
M117 Agitating 2:25
G0 Y230
G0 Y200
M117 Agitating 2:26
G0 Y230
G0 Y200
M117 Agitating 2:27
G0 Y230
G0 Y200
M117 Agitating 2:28
G0 Y230
G0 Y200
M117 Agitating 2:29
G0 Y230
G0 Y200
M117 Agitating 2:30
G0 Y230
G0 Y200
M117 Agitating 2:31
G0 Y230
G0 Y200
M117 Agitating 2:32
G0 Y230
G0 Y200
M117 Agitating 2:33
G0 Y230
G0 Y200
M117 Agitating 2:34
G0 Y230
G0 Y200
M117 Agitating 2:35
G0 Y230
G0 Y200
M117 Agitating 2:36
G0 Y230
G0 Y200
M117 Agitating 2:37
G0 Y230
G0 Y200
M117 Agitating 2:38
G0 Y230
G0 Y200
M117 Agitating 2:39
G0 Y230
G0 Y200
M117 Agitating 3:00
G0 Y230
G0 Y200
M117 Agitating 3:01
G0 Y230
G0 Y200
M117 Agitating 3:02
G0 Y230
G0 Y200
M117 Agitating 3:03
G0 Y230
G0 Y200
M117 Agitating 3:04
G0 Y230
G0 Y200
M117 Agitating 3:05
G0 Y230
G0 Y200
M117 Agitating 3:06
G0 Y230
G0 Y200
M117 Agitating 3:07
G0 Y230
G0 Y200
M117 Agitating 3:08
G0 Y230
G0 Y200
M117 Agitating 3:09
G0 Y230
G0 Y200
M117 Agitating 3:10
G0 Y230
G0 Y200
M117 Agitating 3:11
G0 Y230
G0 Y200
M117 Agitating 3:12
G0 Y230
G0 Y200
M117 Agitating 3:13
G0 Y230
G0 Y200
M117 Agitating 3:14
G0 Y230
G0 Y200
M117 Agitating 3:15
G0 Y230
G0 Y200
M117 Agitating 3:16
G0 Y230
G0 Y200
M117 Agitating 3:17
G0 Y230
G0 Y200
M117 Agitating 3:18
G0 Y230
G0 Y200
M117 Agitating 3:19
G0 Y230
G0 Y200
M117 Agitating 3:20
G0 Y230
G0 Y200
M117 Agitating 3:21
G0 Y230
G0 Y200
M117 Agitating 3:22
G0 Y230
G0 Y200
M117 Agitating 3:23
G0 Y230
G0 Y200
M117 Agitating 3:24
G0 Y230
G0 Y200
M117 Agitating 3:25
G0 Y230
G0 Y200
M117 Agitating 3:26
G0 Y230
G0 Y200
M117 Agitating 3:27
G0 Y230
G0 Y200
M117 Agitating 3:28
G0 Y230
G0 Y200
M117 Agitating 3:29
G0 Y230
G0 Y200
M117 Agitating 3:30
G0 Y230
G0 Y200
M117 Agitating 3:31
G0 Y230
G0 Y200
M117 Agitating 3:32
G0 Y230
G0 Y200
M117 Agitating 3:33
G0 Y230
G0 Y200
M117 Agitating 3:34
G0 Y230
G0 Y200
M117 Agitating 3:35
G0 Y230
G0 Y200
M117 Agitating 3:36
G0 Y230
G0 Y200
M117 Agitating 3:37
G0 Y230
G0 Y200
M117 Agitating 3:38
G0 Y230
G0 Y200
M117 Agitating 3:39
G0 Y230
G0 Y200
M117 Agitating 4:00
G0 Y230
G0 Y200
M117 Agitating 4:01
G0 Y230
G0 Y200
M117 Agitating 4:02
G0 Y230
G0 Y200
M117 Agitating 4:03
G0 Y230
G0 Y200
M117 Agitating 4:04
G0 Y230
G0 Y200
M117 Agitating 4:05
G0 Y230
G0 Y200
M117 Agitating 4:06
G0 Y230
G0 Y200
M117 Agitating 4:07
G0 Y230
G0 Y200
M117 Agitating 4:08
G0 Y230
G0 Y200
M117 Agitating 4:09
G0 Y230
G0 Y200
M117 Agitating 4:10
G0 Y230
G0 Y200
M117 Agitating 4:11
G0 Y230
G0 Y200
M117 Agitating 4:12
G0 Y230
G0 Y200
M117 Agitating 4:13
G0 Y230
G0 Y200
M117 Agitating 4:14
G0 Y230
G0 Y200
M117 Agitating 4:15
G0 Y230
G0 Y200
M117 Agitating 4:16
G0 Y230
G0 Y200
M117 Agitating 4:17
G0 Y230
G0 Y200
M117 Agitating 4:18
G0 Y230
G0 Y200
M117 Agitating 4:19
G0 Y230
G0 Y200
M117 Agitating 4:20
G0 Y230
G0 Y200
M117 Agitating 4:21
G0 Y230
G0 Y200
M117 Agitating 4:22
G0 Y230
G0 Y200
M117 Agitating 4:23
G0 Y230
G0 Y200
M117 Agitating 4:24
G0 Y230
G0 Y200
M117 Agitating 4:25
G0 Y230
G0 Y200
M117 Agitating 4:26
G0 Y230
G0 Y200
M117 Agitating 4:27
G0 Y230
G0 Y200
M117 Agitating 4:28
G0 Y230
G0 Y200
M117 Agitating 4:29
G0 Y230
G0 Y200
M117 Agitating 4:30
G0 Y230
G0 Y200
M117 Agitating 4:31
G0 Y230
G0 Y200
M117 Agitating 4:32
G0 Y230
G0 Y200
M117 Agitating 4:33
G0 Y230
G0 Y200
M117 Agitating 4:34
G0 Y230
G0 Y200
M117 Agitating 4:35
G0 Y230
G0 Y200
M117 Agitating 4:36
G0 Y230
G0 Y200
M117 Agitating 4:37
G0 Y230
G0 Y200
M117 Agitating 4:38
G0 Y230
G0 Y200
M117 Agitating 4:39
G0 Y230
G0 Y200
M117 Agitating 5:00
G0 Y230
G0 Y200
M117 Agitating 5:01
G0 Y230
G0 Y200
M117 Agitating 5:02
G0 Y230
G0 Y200
M117 Agitating 5:03
G0 Y230
G0 Y200
M117 Agitating 5:04
G0 Y230
G0 Y200
M117 Agitating 5:05
G0 Y230
G0 Y200
M117 Agitating 5:06
G0 Y230
G0 Y200
M117 Agitating 5:07
G0 Y230
G0 Y200
M117 Agitating 5:08
G0 Y230
G0 Y200
M117 Agitating 5:09
G0 Y230
G0 Y200
M117 Agitating 5:10
G0 Y230
G0 Y200
M117 Agitating 5:11
G0 Y230
G0 Y200
M117 Agitating 5:12
G0 Y230
G0 Y200
M117 Agitating 5:13
G0 Y230
G0 Y200
M117 Agitating 5:14
G0 Y230
G0 Y200
M117 Agitating 5:15
G0 Y230
G0 Y200
M117 Agitating 5:16
G0 Y230
G0 Y200
M117 Agitating 5:17
G0 Y230
G0 Y200
M117 Agitating 5:18
G0 Y230
G0 Y200
M117 Agitating 5:19
G0 Y230
G0 Y200
M117 Agitating 5:20
G0 Y230
G0 Y200
M117 Agitating 5:21
G0 Y230
G0 Y200
M117 Agitating 5:22
G0 Y230
G0 Y200
M117 Agitating 5:23
G0 Y230
G0 Y200
M117 Agitating 5:24
G0 Y230
G0 Y200
M117 Agitating 5:25
G0 Y230
G0 Y200
M117 Agitating 5:26
G0 Y230
G0 Y200
M117 Agitating 5:27
G0 Y230
G0 Y200
M117 Agitating 5:28
G0 Y230
G0 Y200
M117 Agitating 5:29
G0 Y230
G0 Y200
M117 Agitating 5:30
G0 Y230
G0 Y200
M117 Agitating 5:31
G0 Y230
G0 Y200
M117 Agitating 5:32
G0 Y230
G0 Y200
M117 Agitating 5:33
G0 Y230
G0 Y200
M117 Agitating 5:34
G0 Y230
G0 Y200
M117 Agitating 5:35
G0 Y230
G0 Y200
M117 Agitating 5:36
G0 Y230
G0 Y200
M117 Agitating 5:37
G0 Y230
G0 Y200
M117 Agitating 5:38
G0 Y230
G0 Y200
M117 Agitating 5:39
G0 Y230
G0 Y200
M117 Agitating 6:00
G0 Y230
G0 Y200
M117 Agitating 6:01
G0 Y230
G0 Y200
M117 Agitating 6:02
G0 Y230
G0 Y200
M117 Agitating 6:03
G0 Y230
G0 Y200
M117 Agitating 6:04
G0 Y230
G0 Y200
M117 Agitating 6:05
G0 Y230
G0 Y200
M117 Agitating 6:06
G0 Y230
G0 Y200
M117 Agitating 6:07
G0 Y230
G0 Y200
M117 Agitating 6:08
G0 Y230
G0 Y200
M117 Agitating 6:09
G0 Y230
G0 Y200
M117 Agitating 6:10
G0 Y230
G0 Y200
M117 Agitating 6:11
G0 Y230
G0 Y200
M117 Agitating 6:12
G0 Y230
G0 Y200
M117 Agitating 6:13
G0 Y230
G0 Y200
M117 Agitating 6:14
G0 Y230
G0 Y200
M117 Agitating 6:15
G0 Y230
G0 Y200
M117 Agitating 6:16
G0 Y230
G0 Y200
M117 Agitating 6:17
G0 Y230
G0 Y200
M117 Agitating 6:18
G0 Y230
G0 Y200
M117 Agitating 6:19
G0 Y230
G0 Y200
M117 Agitating 6:20
G0 Y230
G0 Y200
M117 Agitating 6:21
G0 Y230
G0 Y200
M117 Agitating 6:22
G0 Y230
G0 Y200
M117 Agitating 6:23
G0 Y230
G0 Y200
M117 Agitating 6:24
G0 Y230
G0 Y200
M117 Agitating 6:25
G0 Y230
G0 Y200
M117 Agitating 6:26
G0 Y230
G0 Y200
M117 Agitating 6:27
G0 Y230
G0 Y200
M117 Agitating 6:28
G0 Y230
G0 Y200
M117 Agitating 6:29
G0 Y230
G0 Y200
M117 Agitating 6:30
G0 Y230
G0 Y200
M117 Agitating 6:31
G0 Y230
G0 Y200
M117 Agitating 6:32
G0 Y230
G0 Y200
M117 Agitating 6:33
G0 Y230
G0 Y200
M117 Agitating 6:34
G0 Y230
G0 Y200
M117 Agitating 6:35
G0 Y230
G0 Y200
M117 Agitating 6:36
G0 Y230
G0 Y200
M117 Agitating 6:37
G0 Y230
G0 Y200
M117 Agitating 6:38
G0 Y230
G0 Y200
M117 Agitating 6:39
G0 Y230
G0 Y200
M117 Agitating 7:00
G0 Y230
G0 Y200
M117 Agitating 7:01
G0 Y230
G0 Y200
M117 Agitating 7:02
G0 Y230
G0 Y200
M117 Agitating 7:03
G0 Y230
G0 Y200
M117 Agitating 7:04
G0 Y230
G0 Y200
M117 Agitating 7:05
G0 Y230
G0 Y200
M117 Agitating 7:06
G0 Y230
G0 Y200
M117 Agitating 7:07
G0 Y230
G0 Y200
M117 Agitating 7:08
G0 Y230
G0 Y200
M117 Agitating 7:09
G0 Y230
G0 Y200
M117 Agitating 7:10
G0 Y230
G0 Y200
M117 Agitating 7:11
G0 Y230
G0 Y200
M117 Agitating 7:12
G0 Y230
G0 Y200
M117 Agitating 7:13
G0 Y230
G0 Y200
M117 Agitating 7:14
G0 Y230
G0 Y200
M117 Agitating 7:15
G0 Y230
G0 Y200
M117 Agitating 7:16
G0 Y230
G0 Y200
M117 Agitating 7:17
G0 Y230
G0 Y200
M117 Agitating 7:18
G0 Y230
G0 Y200
M117 Agitating 7:19
G0 Y230
G0 Y200
M117 Agitating 7:20
G0 Y230
G0 Y200
M117 Agitating 7:21
G0 Y230
G0 Y200
M117 Agitating 7:22
G0 Y230
G0 Y200
M117 Agitating 7:23
G0 Y230
G0 Y200
M117 Agitating 7:24
G0 Y230
G0 Y200
M117 Agitating 7:25
G0 Y230
G0 Y200
M117 Agitating 7:26
G0 Y230
G0 Y200
M117 Agitating 7:27
G0 Y230
G0 Y200
M117 Agitating 7:28
G0 Y230
G0 Y200
M117 Agitating 7:29
G0 Y230
G0 Y200
M117 Agitating 7:30
G0 Y230
G0 Y200
M117 Agitating 7:31
G0 Y230
G0 Y200
M117 Agitating 7:32
G0 Y230
G0 Y200
M117 Agitating 7:33
G0 Y230
G0 Y200
M117 Agitating 7:34
G0 Y230
G0 Y200
M117 Agitating 7:35
G0 Y230
G0 Y200
M117 Agitating 7:36
G0 Y230
G0 Y200
M117 Agitating 7:37
G0 Y230
G0 Y200
M117 Agitating 7:38
G0 Y230
G0 Y200
M117 Agitating 7:39
G0 Y230
G0 Y200
M117 Agitating 8:00
G0 Y230
G0 Y200
M117 Agitating 8:01
G0 Y230
G0 Y200
M117 Agitating 8:02
G0 Y230
G0 Y200
M117 Agitating 8:03
G0 Y230
G0 Y200
M117 Agitating 8:04
G0 Y230
G0 Y200
M117 Agitating 8:05
G0 Y230
G0 Y200
M117 Agitating 8:06
G0 Y230
G0 Y200
M117 Agitating 8:07
G0 Y230
G0 Y200
M117 Agitating 8:08
G0 Y230
G0 Y200
M117 Agitating 8:09
G0 Y230
G0 Y200
M117 Agitating 8:10
G0 Y230
G0 Y200
M117 Agitating 8:11
G0 Y230
G0 Y200
M117 Agitating 8:12
G0 Y230
G0 Y200
M117 Agitating 8:13
G0 Y230
G0 Y200
M117 Agitating 8:14
G0 Y230
G0 Y200
M117 Agitating 8:15
G0 Y230
G0 Y200
M117 Agitating 8:16
G0 Y230
G0 Y200
M117 Agitating 8:17
G0 Y230
G0 Y200
M117 Agitating 8:18
G0 Y230
G0 Y200
M117 Agitating 8:19
G0 Y230
G0 Y200
M117 Agitating 8:20
G0 Y230
G0 Y200
M117 Agitating 8:21
G0 Y230
G0 Y200
M117 Agitating 8:22
G0 Y230
G0 Y200
M117 Agitating 8:23
G0 Y230
G0 Y200
M117 Agitating 8:24
G0 Y230
G0 Y200
M117 Agitating 8:25
G0 Y230
G0 Y200
M117 Agitating 8:26
G0 Y230
G0 Y200
M117 Agitating 8:27
G0 Y230
G0 Y200
M117 Agitating 8:28
G0 Y230
G0 Y200
M117 Agitating 8:29
G0 Y230
G0 Y200
M117 Agitating 8:30
G0 Y230
G0 Y200
M117 Agitating 8:31
G0 Y230
G0 Y200
M117 Agitating 8:32
G0 Y230
G0 Y200
M117 Agitating 8:33
G0 Y230
G0 Y200
M117 Agitating 8:34
G0 Y230
G0 Y200
M117 Agitating 8:35
G0 Y230
G0 Y200
M117 Agitating 8:36
G0 Y230
G0 Y200
M117 Agitating 8:37
G0 Y230
G0 Y200
M117 Agitating 8:38
G0 Y230
G0 Y200
M117 Agitating 8:39
G0 Y230
G0 Y200
M117 Agitating 9:00
G0 Y230
G0 Y200
M117 Agitating 9:01
G0 Y230
G0 Y200
M117 Agitating 9:02
G0 Y230
G0 Y200
M117 Agitating 9:03
G0 Y230
G0 Y200
M117 Agitating 9:04
G0 Y230
G0 Y200
M117 Agitating 9:05
G0 Y230
G0 Y200
M117 Agitating 9:06
G0 Y230
G0 Y200
M117 Agitating 9:07
G0 Y230
G0 Y200
M117 Agitating 9:08
G0 Y230
G0 Y200
M117 Agitating 9:09
G0 Y230
G0 Y200
M117 Agitating 9:10
G0 Y230
G0 Y200
M117 Agitating 9:11
G0 Y230
G0 Y200
M117 Agitating 9:12
G0 Y230
G0 Y200
M117 Agitating 9:13
G0 Y230
G0 Y200
M117 Agitating 9:14
G0 Y230
G0 Y200
M117 Agitating 9:15
G0 Y230
G0 Y200
M117 Agitating 9:16
G0 Y230
G0 Y200
M117 Agitating 9:17
G0 Y230
G0 Y200
M117 Agitating 9:18
G0 Y230
G0 Y200
M117 Agitating 9:19
G0 Y230
G0 Y200
M117 Agitating 9:20
G0 Y230
G0 Y200
M117 Agitating 9:21
G0 Y230
G0 Y200
M117 Agitating 9:22
G0 Y230
G0 Y200
M117 Agitating 9:23
G0 Y230
G0 Y200
M117 Agitating 9:24
G0 Y230
G0 Y200
M117 Agitating 9:25
G0 Y230
G0 Y200
M117 Agitating 9:26
G0 Y230
G0 Y200
M117 Agitating 9:27
G0 Y230
G0 Y200
M117 Agitating 9:28
G0 Y230
G0 Y200
M117 Agitating 9:29
G0 Y230
G0 Y200
M117 Agitating 9:30
G0 Y230
G0 Y200
M117 Agitating 9:31
G0 Y230
G0 Y200
M117 Agitating 9:32
G0 Y230
G0 Y200
M117 Agitating 9:33
G0 Y230
G0 Y200
M117 Agitating 9:34
G0 Y230
G0 Y200
M117 Agitating 9:35
G0 Y230
G0 Y200
M117 Agitating 9:36
G0 Y230
G0 Y200
M117 Agitating 9:37
G0 Y230
G0 Y200
M117 Agitating 9:38
G0 Y230
G0 Y200
M117 Agitating 9:39
G0 Y230
G0 Y200
M117 Agitating 10:00
G0 Y230
G0 Y200
M117 Agitating 10:01
G0 Y230
G0 Y200
M117 Agitating 10:02
G0 Y230
G0 Y200
M117 Agitating 10:03
G0 Y230
G0 Y200
M117 Agitating 10:04
G0 Y230
G0 Y200
M117 Agitating 10:05
G0 Y230
G0 Y200
M117 Agitating 10:06
G0 Y230
G0 Y200
M117 Agitating 10:07
G0 Y230
G0 Y200
M117 Agitating 10:08
G0 Y230
G0 Y200
M117 Agitating 10:09
G0 Y230
G0 Y200
M117 Agitating 10:10
G0 Y230
G0 Y200
M117 Agitating 10:11
G0 Y230
G0 Y200
M117 Agitating 10:12
G0 Y230
G0 Y200
M117 Agitating 10:13
G0 Y230
G0 Y200
M117 Agitating 10:14
G0 Y230
G0 Y200
M117 Agitating 10:15
G0 Y230
G0 Y200
M117 Agitating 10:16
G0 Y230
G0 Y200
M117 Agitating 10:17
G0 Y230
G0 Y200
M117 Agitating 10:18
G0 Y230
G0 Y200
M117 Agitating 10:19
G0 Y230
G0 Y200
M117 Agitating 10:20
G0 Y230
G0 Y200
M117 Agitating 10:21
G0 Y230
G0 Y200
M117 Agitating 10:22
G0 Y230
G0 Y200
M117 Agitating 10:23
G0 Y230
G0 Y200
M117 Agitating 10:24
G0 Y230
G0 Y200
M117 Agitating 10:25
G0 Y230
G0 Y200
M117 Agitating 10:26
G0 Y230
G0 Y200
M117 Agitating 10:27
G0 Y230
G0 Y200
M117 Agitating 10:28
G0 Y230
G0 Y200
M117 Agitating 10:29
G0 Y230
G0 Y200
M117 Agitating 10:30
G0 Y230
G0 Y200
M117 Agitating 10:31
G0 Y230
G0 Y200
M117 Agitating 10:32
G0 Y230
G0 Y200
M117 Agitating 10:33
G0 Y230
G0 Y200
M117 Agitating 10:34
G0 Y230
G0 Y200
M117 Agitating 10:35
G0 Y230
G0 Y200
M117 Agitating 10:36
G0 Y230
G0 Y200
M117 Agitating 10:37
G0 Y230
G0 Y200
M117 Agitating 10:38
G0 Y230
G0 Y200
M117 Agitating 10:39
G0 Y230
G0 Y200
M117 Agitating 11:00
G0 Y230
G0 Y200
M117 Agitating 11:01
G0 Y230
G0 Y200
M117 Agitating 11:02
G0 Y230
G0 Y200
M117 Agitating 11:03
G0 Y230
G0 Y200
M117 Agitating 11:04
G0 Y230
G0 Y200
M117 Agitating 11:05
G0 Y230
G0 Y200
M117 Agitating 11:06
G0 Y230
G0 Y200
M117 Agitating 11:07
G0 Y230
G0 Y200
M117 Agitating 11:08
G0 Y230
G0 Y200
M117 Agitating 11:09
G0 Y230
G0 Y200
M117 Agitating 11:10
G0 Y230
G0 Y200
M117 Agitating 11:11
G0 Y230
G0 Y200
M117 Agitating 11:12
G0 Y230
G0 Y200
M117 Agitating 11:13
G0 Y230
G0 Y200
M117 Agitating 11:14
G0 Y230
G0 Y200
M117 Agitating 11:15
G0 Y230
G0 Y200
M117 Agitating 11:16
G0 Y230
G0 Y200
M117 Agitating 11:17
G0 Y230
G0 Y200
M117 Agitating 11:18
G0 Y230
G0 Y200
M117 Agitating 11:19
G0 Y230
G0 Y200
M117 Agitating 11:20
G0 Y230
G0 Y200
M117 Agitating 11:21
G0 Y230
G0 Y200
M117 Agitating 11:22
G0 Y230
G0 Y200
M117 Agitating 11:23
G0 Y230
G0 Y200
M117 Agitating 11:24
G0 Y230
G0 Y200
M117 Agitating 11:25
G0 Y230
G0 Y200
M117 Agitating 11:26
G0 Y230
G0 Y200
M117 Agitating 11:27
G0 Y230
G0 Y200
M117 Agitating 11:28
G0 Y230
G0 Y200
M117 Agitating 11:29
G0 Y230
G0 Y200
M117 Agitating 11:30
G0 Y230
G0 Y200
M117 Agitating 11:31
G0 Y230
G0 Y200
M117 Agitating 11:32
G0 Y230
G0 Y200
M117 Agitating 11:33
G0 Y230
G0 Y200
M117 Agitating 11:34
G0 Y230
G0 Y200
M117 Agitating 11:35
G0 Y230
G0 Y200
M117 Agitating 11:36
G0 Y230
G0 Y200
M117 Agitating 11:37
G0 Y230
G0 Y200
M117 Agitating 11:38
G0 Y230
G0 Y200
M117 Agitating 11:39
G0 Y230
G0 Y200
M117 Agitating 12:00
G0 Y230
G0 Y200
M117 Agitating 12:01
G0 Y230
G0 Y200
M117 Agitating 12:02
G0 Y230
G0 Y200
M117 Agitating 12:03
G0 Y230
G0 Y200
M117 Agitating 12:04
G0 Y230
G0 Y200
M117 Agitating 12:05
G0 Y230
G0 Y200
M117 Agitating 12:06
G0 Y230
G0 Y200
M117 Agitating 12:07
G0 Y230
G0 Y200
M117 Agitating 12:08
G0 Y230
G0 Y200
M117 Agitating 12:09
G0 Y230
G0 Y200
M117 Agitating 12:10
G0 Y230
G0 Y200
M117 Agitating 12:11
G0 Y230
G0 Y200
M117 Agitating 12:12
G0 Y230
G0 Y200
M117 Agitating 12:13
G0 Y230
G0 Y200
M117 Agitating 12:14
G0 Y230
G0 Y200
M117 Agitating 12:15
G0 Y230
G0 Y200
M117 Agitating 12:16
G0 Y230
G0 Y200
M117 Agitating 12:17
G0 Y230
G0 Y200
M117 Agitating 12:18
G0 Y230
G0 Y200
M117 Agitating 12:19
G0 Y230
G0 Y200
M117 Agitating 12:20
G0 Y230
G0 Y200
M117 Agitating 12:21
G0 Y230
G0 Y200
M117 Agitating 12:22
G0 Y230
G0 Y200
M117 Agitating 12:23
G0 Y230
G0 Y200
M117 Agitating 12:24
G0 Y230
G0 Y200
M117 Agitating 12:25
G0 Y230
G0 Y200
M117 Agitating 12:26
G0 Y230
G0 Y200
M117 Agitating 12:27
G0 Y230
G0 Y200
M117 Agitating 12:28
G0 Y230
G0 Y200
M117 Agitating 12:29
G0 Y230
G0 Y200
M117 Agitating 12:30
G0 Y230
G0 Y200
M117 Agitating 12:31
G0 Y230
G0 Y200
M117 Agitating 12:32
G0 Y230
G0 Y200
M117 Agitating 12:33
G0 Y230
G0 Y200
M117 Agitating 12:34
G0 Y230
G0 Y200
M117 Agitating 12:35
G0 Y230
G0 Y200
M117 Agitating 12:36
G0 Y230
G0 Y200
M117 Agitating 12:37
G0 Y230
G0 Y200
M117 Agitating 12:38
G0 Y230
G0 Y200
M117 Agitating 12:39
G0 Y230
G0 Y200
M117 Agitating 13:00
G0 Y230
G0 Y200
M117 Agitating 13:01
G0 Y230
G0 Y200
M117 Agitating 13:02
G0 Y230
G0 Y200
M117 Agitating 13:03
G0 Y230
G0 Y200
M117 Agitating 13:04
G0 Y230
G0 Y200
M117 Agitating 13:05
G0 Y230
G0 Y200
M117 Agitating 13:06
G0 Y230
G0 Y200
M117 Agitating 13:07
G0 Y230
G0 Y200
M117 Agitating 13:08
G0 Y230
G0 Y200
M117 Agitating 13:09
G0 Y230
G0 Y200
M117 Agitating 13:10
G0 Y230
G0 Y200
M117 Agitating 13:11
G0 Y230
G0 Y200
M117 Agitating 13:12
G0 Y230
G0 Y200
M117 Agitating 13:13
G0 Y230
G0 Y200
M117 Agitating 13:14
G0 Y230
G0 Y200
M117 Agitating 13:15
G0 Y230
G0 Y200
M117 Agitating 13:16
G0 Y230
G0 Y200
M117 Agitating 13:17
G0 Y230
G0 Y200
M117 Agitating 13:18
G0 Y230
G0 Y200
M117 Agitating 13:19
G0 Y230
G0 Y200
M117 Agitating 13:20
G0 Y230
G0 Y200
M117 Agitating 13:21
G0 Y230
G0 Y200
M117 Agitating 13:22
G0 Y230
G0 Y200
M117 Agitating 13:23
G0 Y230
G0 Y200
M117 Agitating 13:24
G0 Y230
G0 Y200
M117 Agitating 13:25
G0 Y230
G0 Y200
M117 Agitating 13:26
G0 Y230
G0 Y200
M117 Agitating 13:27
G0 Y230
G0 Y200
M117 Agitating 13:28
G0 Y230
G0 Y200
M117 Agitating 13:29
G0 Y230
G0 Y200
M117 Agitating 13:30
G0 Y230
G0 Y200
M117 Agitating 13:31
G0 Y230
G0 Y200
M117 Agitating 13:32
G0 Y230
G0 Y200
M117 Agitating 13:33
G0 Y230
G0 Y200
M117 Agitating 13:34
G0 Y230
G0 Y200
M117 Agitating 13:35
G0 Y230
G0 Y200
M117 Agitating 13:36
G0 Y230
G0 Y200
M117 Agitating 13:37
G0 Y230
G0 Y200
M117 Agitating 13:38
G0 Y230
G0 Y200
M117 Agitating 13:39
G0 Y230
G0 Y200
M117 Agitating 14:00
G0 Y230
G0 Y200
M117 Agitating 14:01
G0 Y230
G0 Y200
M117 Agitating 14:02
G0 Y230
G0 Y200
M117 Agitating 14:03
G0 Y230
G0 Y200
M117 Agitating 14:04
G0 Y230
G0 Y200
M117 Agitating 14:05
G0 Y230
G0 Y200
M117 Agitating 14:06
G0 Y230
G0 Y200
M117 Agitating 14:07
G0 Y230
G0 Y200
M117 Agitating 14:08
G0 Y230
G0 Y200
M117 Agitating 14:09
G0 Y230
G0 Y200
M117 Agitating 14:10
G0 Y230
G0 Y200
M117 Agitating 14:11
G0 Y230
G0 Y200
M117 Agitating 14:12
G0 Y230
G0 Y200
M117 Agitating 14:13
G0 Y230
G0 Y200
M117 Agitating 14:14
G0 Y230
G0 Y200
M117 Agitating 14:15
G0 Y230
G0 Y200
M117 Agitating 14:16
G0 Y230
G0 Y200
M117 Agitating 14:17
G0 Y230
G0 Y200
M117 Agitating 14:18
G0 Y230
G0 Y200
M117 Agitating 14:19
G0 Y230
G0 Y200
M117 Agitating 14:20
G0 Y230
G0 Y200
M117 Agitating 14:21
G0 Y230
G0 Y200
M117 Agitating 14:22
G0 Y230
G0 Y200
M117 Agitating 14:23
G0 Y230
G0 Y200
M117 Agitating 14:24
G0 Y230
G0 Y200
M117 Agitating 14:25
G0 Y230
G0 Y200
M117 Agitating 14:26
G0 Y230
G0 Y200
M117 Agitating 14:27
G0 Y230
G0 Y200
M117 Agitating 14:28
G0 Y230
G0 Y200
M117 Agitating 14:29
G0 Y230
G0 Y200
M117 Agitating 14:30
G0 Y230
G0 Y200
M117 Agitating 14:31
G0 Y230
G0 Y200
M117 Agitating 14:32
G0 Y230
G0 Y200
M117 Agitating 14:33
G0 Y230
G0 Y200
M117 Agitating 14:34
G0 Y230
G0 Y200
M117 Agitating 14:35
G0 Y230
G0 Y200
M117 Agitating 14:36
G0 Y230
G0 Y200
M117 Agitating 14:37
G0 Y230
G0 Y200
M117 Agitating 14:38
G0 Y230
G0 Y200
M117 Agitating 14:39
G0 Y230
G0 Y200
M117 Agitating 15:00
G0 Y230
G0 Y200
M117 Agitating 15:01
G0 Y230
G0 Y200
M117 Agitating 15:02
G0 Y230
G0 Y200
M117 Agitating 15:03
G0 Y230
G0 Y200
M117 Agitating 15:04
G0 Y230
G0 Y200
M117 Agitating 15:05
G0 Y230
G0 Y200
M117 Agitating 15:06
G0 Y230
G0 Y200
M117 Agitating 15:07
G0 Y230
G0 Y200
M117 Agitating 15:08
G0 Y230
G0 Y200
M117 Agitating 15:09
G0 Y230
G0 Y200
M117 Agitating 15:10
G0 Y230
G0 Y200
M117 Agitating 15:11
G0 Y230
G0 Y200
M117 Agitating 15:12
G0 Y230
G0 Y200
M117 Agitating 15:13
G0 Y230
G0 Y200
M117 Agitating 15:14
G0 Y230
G0 Y200
M117 Agitating 15:15
G0 Y230
G0 Y200
M117 Agitating 15:16
G0 Y230
G0 Y200
M117 Agitating 15:17
G0 Y230
G0 Y200
M117 Agitating 15:18
G0 Y230
G0 Y200
M117 Agitating 15:19
G0 Y230
G0 Y200
M117 Agitating 15:20
G0 Y230
G0 Y200
M117 Agitating 15:21
G0 Y230
G0 Y200
M117 Agitating 15:22
G0 Y230
G0 Y200
M117 Agitating 15:23
G0 Y230
G0 Y200
M117 Agitating 15:24
G0 Y230
G0 Y200
M117 Agitating 15:25
G0 Y230
G0 Y200
M117 Agitating 15:26
G0 Y230
G0 Y200
M117 Agitating 15:27
G0 Y230
G0 Y200
M117 Agitating 15:28
G0 Y230
G0 Y200
M117 Agitating 15:29
G0 Y230
G0 Y200
M117 Agitating 15:30
G0 Y230
G0 Y200
M117 Agitating 15:31
G0 Y230
G0 Y200
M117 Agitating 15:32
G0 Y230
G0 Y200
M117 Agitating 15:33
G0 Y230
G0 Y200
M117 Agitating 15:34
G0 Y230
G0 Y200
M117 Agitating 15:35
G0 Y230
G0 Y200
M117 Agitating 15:36
G0 Y230
G0 Y200
M117 Agitating 15:37
G0 Y230
G0 Y200
M117 Agitating 15:38
G0 Y230
G0 Y200
M117 Agitating 15:39
G0 Y230
G0 Y200
M117 Agitating 16:00
G0 Y230
G0 Y200
M117 Agitating 16:01
G0 Y230
G0 Y200
M117 Agitating 16:02
G0 Y230
G0 Y200
M117 Agitating 16:03
G0 Y230
G0 Y200
M117 Agitating 16:04
G0 Y230
G0 Y200
M117 Agitating 16:05
G0 Y230
G0 Y200
M117 Agitating 16:06
G0 Y230
G0 Y200
M117 Agitating 16:07
G0 Y230
G0 Y200
M117 Agitating 16:08
G0 Y230
G0 Y200
M117 Agitating 16:09
G0 Y230
G0 Y200
M117 Agitating 16:10
G0 Y230
G0 Y200
M117 Agitating 16:11
G0 Y230
G0 Y200
M117 Agitating 16:12
G0 Y230
G0 Y200
M117 Agitating 16:13
G0 Y230
G0 Y200
M117 Agitating 16:14
G0 Y230
G0 Y200
M117 Agitating 16:15
G0 Y230
G0 Y200
M117 Agitating 16:16
G0 Y230
G0 Y200
M117 Agitating 16:17
G0 Y230
G0 Y200
M117 Agitating 16:18
G0 Y230
G0 Y200
M117 Agitating 16:19
G0 Y230
G0 Y200
M117 Agitating 16:20
G0 Y230
G0 Y200
M117 Agitating 16:21
G0 Y230
G0 Y200
M117 Agitating 16:22
G0 Y230
G0 Y200
M117 Agitating 16:23
G0 Y230
G0 Y200
M117 Agitating 16:24
G0 Y230
G0 Y200
M117 Agitating 16:25
G0 Y230
G0 Y200
M117 Agitating 16:26
G0 Y230
G0 Y200
M117 Agitating 16:27
G0 Y230
G0 Y200
M117 Agitating 16:28
G0 Y230
G0 Y200
M117 Agitating 16:29
G0 Y230
G0 Y200
M117 Agitating 16:30
G0 Y230
G0 Y200
M117 Agitating 16:31
G0 Y230
G0 Y200
M117 Agitating 16:32
G0 Y230
G0 Y200
M117 Agitating 16:33
G0 Y230
G0 Y200
M117 Agitating 16:34
G0 Y230
G0 Y200
M117 Agitating 16:35
G0 Y230
G0 Y200
M117 Agitating 16:36
G0 Y230
G0 Y200
M117 Agitating 16:37
G0 Y230
G0 Y200
M117 Agitating 16:38
G0 Y230
G0 Y200
M117 Agitating 16:39
G0 Y230
G0 Y200
M117 Agitating 17:00
G0 Y230
G0 Y200
M117 Agitating 17:01
G0 Y230
G0 Y200
M117 Agitating 17:02
G0 Y230
G0 Y200
M117 Agitating 17:03
G0 Y230
G0 Y200
M117 Agitating 17:04
G0 Y230
G0 Y200
M117 Agitating 17:05
G0 Y230
G0 Y200
M117 Agitating 17:06
G0 Y230
G0 Y200
M117 Agitating 17:07
G0 Y230
G0 Y200
M117 Agitating 17:08
G0 Y230
G0 Y200
M117 Agitating 17:09
G0 Y230
G0 Y200
M117 Agitating 17:10
G0 Y230
G0 Y200
M117 Agitating 17:11
G0 Y230
G0 Y200
M117 Agitating 17:12
G0 Y230
G0 Y200
M117 Agitating 17:13
G0 Y230
G0 Y200
M117 Agitating 17:14
G0 Y230
G0 Y200
M117 Agitating 17:15
G0 Y230
G0 Y200
M117 Agitating 17:16
G0 Y230
G0 Y200
M117 Agitating 17:17
G0 Y230
G0 Y200
M117 Agitating 17:18
G0 Y230
G0 Y200
M117 Agitating 17:19
G0 Y230
G0 Y200
M117 Agitating 17:20
G0 Y230
G0 Y200
M117 Agitating 17:21
G0 Y230
G0 Y200
M117 Agitating 17:22
G0 Y230
G0 Y200
M117 Agitating 17:23
G0 Y230
G0 Y200
M117 Agitating 17:24
G0 Y230
G0 Y200
M117 Agitating 17:25
G0 Y230
G0 Y200
M117 Agitating 17:26
G0 Y230
G0 Y200
M117 Agitating 17:27
G0 Y230
G0 Y200
M117 Agitating 17:28
G0 Y230
G0 Y200
M117 Agitating 17:29
G0 Y230
G0 Y200
M117 Agitating 17:30
G0 Y230
G0 Y200
M117 Agitating 17:31
G0 Y230
G0 Y200
M117 Agitating 17:32
G0 Y230
G0 Y200
M117 Agitating 17:33
G0 Y230
G0 Y200
M117 Agitating 17:34
G0 Y230
G0 Y200
M117 Agitating 17:35
G0 Y230
G0 Y200
M117 Agitating 17:36
G0 Y230
G0 Y200
M117 Agitating 17:37
G0 Y230
G0 Y200
M117 Agitating 17:38
G0 Y230
G0 Y200
M117 Agitating 17:39
G0 Y230
G0 Y200
M117 Agitating 18:00
G0 Y230
G0 Y200
M117 Agitating 18:01
G0 Y230
G0 Y200
M117 Agitating 18:02
G0 Y230
G0 Y200
M117 Agitating 18:03
G0 Y230
G0 Y200
M117 Agitating 18:04
G0 Y230
G0 Y200
M117 Agitating 18:05
G0 Y230
G0 Y200
M117 Agitating 18:06
G0 Y230
G0 Y200
M117 Agitating 18:07
G0 Y230
G0 Y200
M117 Agitating 18:08
G0 Y230
G0 Y200
M117 Agitating 18:09
G0 Y230
G0 Y200
M117 Agitating 18:10
G0 Y230
G0 Y200
M117 Agitating 18:11
G0 Y230
G0 Y200
M117 Agitating 18:12
G0 Y230
G0 Y200
M117 Agitating 18:13
G0 Y230
G0 Y200
M117 Agitating 18:14
G0 Y230
G0 Y200
M117 Agitating 18:15
G0 Y230
G0 Y200
M117 Agitating 18:16
G0 Y230
G0 Y200
M117 Agitating 18:17
G0 Y230
G0 Y200
M117 Agitating 18:18
G0 Y230
G0 Y200
M117 Agitating 18:19
G0 Y230
G0 Y200
M117 Agitating 18:20
G0 Y230
G0 Y200
M117 Agitating 18:21
G0 Y230
G0 Y200
M117 Agitating 18:22
G0 Y230
G0 Y200
M117 Agitating 18:23
G0 Y230
G0 Y200
M117 Agitating 18:24
G0 Y230
G0 Y200
M117 Agitating 18:25
G0 Y230
G0 Y200
M117 Agitating 18:26
G0 Y230
G0 Y200
M117 Agitating 18:27
G0 Y230
G0 Y200
M117 Agitating 18:28
G0 Y230
G0 Y200
M117 Agitating 18:29
G0 Y230
G0 Y200
M117 Agitating 18:30
G0 Y230
G0 Y200
M117 Agitating 18:31
G0 Y230
G0 Y200
M117 Agitating 18:32
G0 Y230
G0 Y200
M117 Agitating 18:33
G0 Y230
G0 Y200
M117 Agitating 18:34
G0 Y230
G0 Y200
M117 Agitating 18:35
G0 Y230
G0 Y200
M117 Agitating 18:36
G0 Y230
G0 Y200
M117 Agitating 18:37
G0 Y230
G0 Y200
M117 Agitating 18:38
G0 Y230
G0 Y200
M117 Agitating 18:39
G0 Y230
G0 Y200
M117 Agitating 19:00
G0 Y230
G0 Y200
M117 Agitating 19:01
G0 Y230
G0 Y200
M117 Agitating 19:02
G0 Y230
G0 Y200
M117 Agitating 19:03
G0 Y230
G0 Y200
M117 Agitating 19:04
G0 Y230
G0 Y200
M117 Agitating 19:05
G0 Y230
G0 Y200
M117 Agitating 19:06
G0 Y230
G0 Y200
M117 Agitating 19:07
G0 Y230
G0 Y200
M117 Agitating 19:08
G0 Y230
G0 Y200
M117 Agitating 19:09
G0 Y230
G0 Y200
M117 Agitating 19:10
G0 Y230
G0 Y200
M117 Agitating 19:11
G0 Y230
G0 Y200
M117 Agitating 19:12
G0 Y230
G0 Y200
M117 Agitating 19:13
G0 Y230
G0 Y200
M117 Agitating 19:14
G0 Y230
G0 Y200
M117 Agitating 19:15
G0 Y230
G0 Y200
M117 Agitating 19:16
G0 Y230
G0 Y200
M117 Agitating 19:17
G0 Y230
G0 Y200
M117 Agitating 19:18
G0 Y230
G0 Y200
M117 Agitating 19:19
G0 Y230
G0 Y200
M117 Agitating 19:20
G0 Y230
G0 Y200
M117 Agitating 19:21
G0 Y230
G0 Y200
M117 Agitating 19:22
G0 Y230
G0 Y200
M117 Agitating 19:23
G0 Y230
G0 Y200
M117 Agitating 19:24
G0 Y230
G0 Y200
M117 Agitating 19:25
G0 Y230
G0 Y200
M117 Agitating 19:26
G0 Y230
G0 Y200
M117 Agitating 19:27
G0 Y230
G0 Y200
M117 Agitating 19:28
G0 Y230
G0 Y200
M117 Agitating 19:29
G0 Y230
G0 Y200
M117 Agitating 19:30
G0 Y230
G0 Y200
M117 Agitating 19:31
G0 Y230
G0 Y200
M117 Agitating 19:32
G0 Y230
G0 Y200
M117 Agitating 19:33
G0 Y230
G0 Y200
M117 Agitating 19:34
G0 Y230
G0 Y200
M117 Agitating 19:35
G0 Y230
G0 Y200
M117 Agitating 19:36
G0 Y230
G0 Y200
M117 Agitating 19:37
G0 Y230
G0 Y200
M117 Agitating 19:38
G0 Y230
G0 Y200
M117 Agitating 19:39
G0 Y230
G0 Y200
M117 Agitating 20:00
G0 Y230
G0 Y200
M117 Agitating 20:01
G0 Y230
G0 Y200
M117 Agitating 20:02
G0 Y230
G0 Y200
M117 Agitating 20:03
G0 Y230
G0 Y200
M117 Agitating 20:04
G0 Y230
G0 Y200
M117 Agitating 20:05
G0 Y230
G0 Y200
M117 Agitating 20:06
G0 Y230
G0 Y200
M117 Agitating 20:07
G0 Y230
G0 Y200
M117 Agitating 20:08
G0 Y230
G0 Y200
M117 Agitating 20:09
G0 Y230
G0 Y200
M117 Agitating 20:10
G0 Y230
G0 Y200
M117 Agitating 20:11
G0 Y230
G0 Y200
M117 Agitating 20:12
G0 Y230
G0 Y200
M117 Agitating 20:13
G0 Y230
G0 Y200
M117 Agitating 20:14
G0 Y230
G0 Y200
M117 Agitating 20:15
G0 Y230
G0 Y200
M117 Agitating 20:16
G0 Y230
G0 Y200
M117 Agitating 20:17
G0 Y230
G0 Y200
M117 Agitating 20:18
G0 Y230
G0 Y200
M117 Agitating 20:19
G0 Y230
G0 Y200
M117 Agitating 20:20
G0 Y230
G0 Y200
M117 Agitating 20:21
G0 Y230
G0 Y200
M117 Agitating 20:22
G0 Y230
G0 Y200
M117 Agitating 20:23
G0 Y230
G0 Y200
M117 Agitating 20:24
G0 Y230
G0 Y200
M117 Agitating 20:25
G0 Y230
G0 Y200
M117 Agitating 20:26
G0 Y230
G0 Y200
M117 Agitating 20:27
G0 Y230
G0 Y200
M117 Agitating 20:28
G0 Y230
G0 Y200
M117 Agitating 20:29
G0 Y230
G0 Y200
M117 Agitating 20:30
G0 Y230
G0 Y200
M117 Agitating 20:31
G0 Y230
G0 Y200
M117 Agitating 20:32
G0 Y230
G0 Y200
M117 Agitating 20:33
G0 Y230
G0 Y200
M117 Agitating 20:34
G0 Y230
G0 Y200
M117 Agitating 20:35
G0 Y230
G0 Y200
M117 Agitating 20:36
G0 Y230
G0 Y200
M117 Agitating 20:37
G0 Y230
G0 Y200
M117 Agitating 20:38
G0 Y230
G0 Y200
M117 Agitating 20:39
G0 Y230
G0 Y200
M117 Agitating 21:00
G0 Y230
G0 Y200
M117 Agitating 21:01
G0 Y230
G0 Y200
M117 Agitating 21:02
G0 Y230
G0 Y200
M117 Agitating 21:03
G0 Y230
G0 Y200
M117 Agitating 21:04
G0 Y230
G0 Y200
M117 Agitating 21:05
G0 Y230
G0 Y200
M117 Agitating 21:06
G0 Y230
G0 Y200
M117 Agitating 21:07
G0 Y230
G0 Y200
M117 Agitating 21:08
G0 Y230
G0 Y200
M117 Agitating 21:09
G0 Y230
G0 Y200
M117 Agitating 21:10
G0 Y230
G0 Y200
M117 Agitating 21:11
G0 Y230
G0 Y200
M117 Agitating 21:12
G0 Y230
G0 Y200
M117 Agitating 21:13
G0 Y230
G0 Y200
M117 Agitating 21:14
G0 Y230
G0 Y200
M117 Agitating 21:15
G0 Y230
G0 Y200
M117 Agitating 21:16
G0 Y230
G0 Y200
M117 Agitating 21:17
G0 Y230
G0 Y200
M117 Agitating 21:18
G0 Y230
G0 Y200
M117 Agitating 21:19
G0 Y230
G0 Y200
M117 Agitating 21:20
G0 Y230
G0 Y200
M117 Agitating 21:21
G0 Y230
G0 Y200
M117 Agitating 21:22
G0 Y230
G0 Y200
M117 Agitating 21:23
G0 Y230
G0 Y200
M117 Agitating 21:24
G0 Y230
G0 Y200
M117 Agitating 21:25
G0 Y230
G0 Y200
M117 Agitating 21:26
G0 Y230
G0 Y200
M117 Agitating 21:27
G0 Y230
G0 Y200
M117 Agitating 21:28
G0 Y230
G0 Y200
M117 Agitating 21:29
G0 Y230
G0 Y200
M117 Agitating 21:30
G0 Y230
G0 Y200
M117 Agitating 21:31
G0 Y230
G0 Y200
M117 Agitating 21:32
G0 Y230
G0 Y200
M117 Agitating 21:33
G0 Y230
G0 Y200
M117 Agitating 21:34
G0 Y230
G0 Y200
M117 Agitating 21:35
G0 Y230
G0 Y200
M117 Agitating 21:36
G0 Y230
G0 Y200
M117 Agitating 21:37
G0 Y230
G0 Y200
M117 Agitating 21:38
G0 Y230
G0 Y200
M117 Agitating 21:39
G0 Y230
G0 Y200
M117 Agitating 22:00
G0 Y230
G0 Y200
M117 Agitating 22:01
G0 Y230
G0 Y200
M117 Agitating 22:02
G0 Y230
G0 Y200
M117 Agitating 22:03
G0 Y230
G0 Y200
M117 Agitating 22:04
G0 Y230
G0 Y200
M117 Agitating 22:05
G0 Y230
G0 Y200
M117 Agitating 22:06
G0 Y230
G0 Y200
M117 Agitating 22:07
G0 Y230
G0 Y200
M117 Agitating 22:08
G0 Y230
G0 Y200
M117 Agitating 22:09
G0 Y230
G0 Y200
M117 Agitating 22:10
G0 Y230
G0 Y200
M117 Agitating 22:11
G0 Y230
G0 Y200
M117 Agitating 22:12
G0 Y230
G0 Y200
M117 Agitating 22:13
G0 Y230
G0 Y200
M117 Agitating 22:14
G0 Y230
G0 Y200
M117 Agitating 22:15
G0 Y230
G0 Y200
M117 Agitating 22:16
G0 Y230
G0 Y200
M117 Agitating 22:17
G0 Y230
G0 Y200
M117 Agitating 22:18
G0 Y230
G0 Y200
M117 Agitating 22:19
G0 Y230
G0 Y200
M117 Agitating 22:20
G0 Y230
G0 Y200
M117 Agitating 22:21
G0 Y230
G0 Y200
M117 Agitating 22:22
G0 Y230
G0 Y200
M117 Agitating 22:23
G0 Y230
G0 Y200
M117 Agitating 22:24
G0 Y230
G0 Y200
M117 Agitating 22:25
G0 Y230
G0 Y200
M117 Agitating 22:26
G0 Y230
G0 Y200
M117 Agitating 22:27
G0 Y230
G0 Y200
M117 Agitating 22:28
G0 Y230
G0 Y200
M117 Agitating 22:29
G0 Y230
G0 Y200
M117 Agitating 22:30
G0 Y230
G0 Y200
M117 Agitating 22:31
G0 Y230
G0 Y200
M117 Agitating 22:32
G0 Y230
G0 Y200
M117 Agitating 22:33
G0 Y230
G0 Y200
M117 Agitating 22:34
G0 Y230
G0 Y200
M117 Agitating 22:35
G0 Y230
G0 Y200
M117 Agitating 22:36
G0 Y230
G0 Y200
M117 Agitating 22:37
G0 Y230
G0 Y200
M117 Agitating 22:38
G0 Y230
G0 Y200
M117 Agitating 22:39
G0 Y230
G0 Y200
M117 Agitating 23:00
G0 Y230
G0 Y200
M117 Agitating 23:01
G0 Y230
G0 Y200
M117 Agitating 23:02
G0 Y230
G0 Y200
M117 Agitating 23:03
G0 Y230
G0 Y200
M117 Agitating 23:04
G0 Y230
G0 Y200
M117 Agitating 23:05
G0 Y230
G0 Y200
M117 Agitating 23:06
G0 Y230
G0 Y200
M117 Agitating 23:07
G0 Y230
G0 Y200
M117 Agitating 23:08
G0 Y230
G0 Y200
M117 Agitating 23:09
G0 Y230
G0 Y200
M117 Agitating 23:10
G0 Y230
G0 Y200
M117 Agitating 23:11
G0 Y230
G0 Y200
M117 Agitating 23:12
G0 Y230
G0 Y200
M117 Agitating 23:13
G0 Y230
G0 Y200
M117 Agitating 23:14
G0 Y230
G0 Y200
M117 Agitating 23:15
G0 Y230
G0 Y200
M117 Agitating 23:16
G0 Y230
G0 Y200
M117 Agitating 23:17
G0 Y230
G0 Y200
M117 Agitating 23:18
G0 Y230
G0 Y200
M117 Agitating 23:19
G0 Y230
G0 Y200
M117 Agitating 23:20
G0 Y230
G0 Y200
M117 Agitating 23:21
G0 Y230
G0 Y200
M117 Agitating 23:22
G0 Y230
G0 Y200
M117 Agitating 23:23
G0 Y230
G0 Y200
M117 Agitating 23:24
G0 Y230
G0 Y200
M117 Agitating 23:25
G0 Y230
G0 Y200
M117 Agitating 23:26
G0 Y230
G0 Y200
M117 Agitating 23:27
G0 Y230
G0 Y200
M117 Agitating 23:28
G0 Y230
G0 Y200
M117 Agitating 23:29
G0 Y230
G0 Y200
M117 Agitating 23:30
G0 Y230
G0 Y200
M117 Agitating 23:31
G0 Y230
G0 Y200
M117 Agitating 23:32
G0 Y230
G0 Y200
M117 Agitating 23:33
G0 Y230
G0 Y200
M117 Agitating 23:34
G0 Y230
G0 Y200
M117 Agitating 23:35
G0 Y230
G0 Y200
M117 Agitating 23:36
G0 Y230
G0 Y200
M117 Agitating 23:37
G0 Y230
G0 Y200
M117 Agitating 23:38
G0 Y230
G0 Y200
M117 Agitating 23:39
G0 Y230
G0 Y200
M117 Agitating 24:00
G0 Y230
G0 Y200
M117 Agitating 24:01
G0 Y230
G0 Y200
M117 Agitating 24:02
G0 Y230
G0 Y200
M117 Agitating 24:03
G0 Y230
G0 Y200
M117 Agitating 24:04
G0 Y230
G0 Y200
M117 Agitating 24:05
G0 Y230
G0 Y200
M117 Agitating 24:06
G0 Y230
G0 Y200
M117 Agitating 24:07
G0 Y230
G0 Y200
M117 Agitating 24:08
G0 Y230
G0 Y200
M117 Agitating 24:09
G0 Y230
G0 Y200
M117 Agitating 24:10
G0 Y230
G0 Y200
M117 Agitating 24:11
G0 Y230
G0 Y200
M117 Agitating 24:12
G0 Y230
G0 Y200
M117 Agitating 24:13
G0 Y230
G0 Y200
M117 Agitating 24:14
G0 Y230
G0 Y200
M117 Agitating 24:15
G0 Y230
G0 Y200
M117 Agitating 24:16
G0 Y230
G0 Y200
M117 Agitating 24:17
G0 Y230
G0 Y200
M117 Agitating 24:18
G0 Y230
G0 Y200
M117 Agitating 24:19
G0 Y230
G0 Y200
M117 Agitating 24:20
G0 Y230
G0 Y200
M117 Agitating 24:21
G0 Y230
G0 Y200
M117 Agitating 24:22
G0 Y230
G0 Y200
M117 Agitating 24:23
G0 Y230
G0 Y200
M117 Agitating 24:24
G0 Y230
G0 Y200
M117 Agitating 24:25
G0 Y230
G0 Y200
M117 Agitating 24:26
G0 Y230
G0 Y200
M117 Agitating 24:27
G0 Y230
G0 Y200
M117 Agitating 24:28
G0 Y230
G0 Y200
M117 Agitating 24:29
G0 Y230
G0 Y200
M117 Agitating 24:30
G0 Y230
G0 Y200
M117 Agitating 24:31
G0 Y230
G0 Y200
M117 Agitating 24:32
G0 Y230
G0 Y200
M117 Agitating 24:33
G0 Y230
G0 Y200
M117 Agitating 24:34
G0 Y230
G0 Y200
M117 Agitating 24:35
G0 Y230
G0 Y200
M117 Agitating 24:36
G0 Y230
G0 Y200
M117 Agitating 24:37
G0 Y230
G0 Y200
M117 Agitating 24:38
G0 Y230
G0 Y200
M117 Agitating 24:39
G0 Y230
G0 Y200
M117 Agitating 25:00
G0 Y230
G0 Y200
M117 Agitating 25:01
G0 Y230
G0 Y200
M117 Agitating 25:02
G0 Y230
G0 Y200
M117 Agitating 25:03
G0 Y230
G0 Y200
M117 Agitating 25:04
G0 Y230
G0 Y200
M117 Agitating 25:05
G0 Y230
G0 Y200
M117 Agitating 25:06
G0 Y230
G0 Y200
M117 Agitating 25:07
G0 Y230
G0 Y200
M117 Agitating 25:08
G0 Y230
G0 Y200
M117 Agitating 25:09
G0 Y230
G0 Y200
M117 Agitating 25:10
G0 Y230
G0 Y200
M117 Agitating 25:11
G0 Y230
G0 Y200
M117 Agitating 25:12
G0 Y230
G0 Y200
M117 Agitating 25:13
G0 Y230
G0 Y200
M117 Agitating 25:14
G0 Y230
G0 Y200
M117 Agitating 25:15
G0 Y230
G0 Y200
M117 Agitating 25:16
G0 Y230
G0 Y200
M117 Agitating 25:17
G0 Y230
G0 Y200
M117 Agitating 25:18
G0 Y230
G0 Y200
M117 Agitating 25:19
G0 Y230
G0 Y200
M117 Agitating 25:20
G0 Y230
G0 Y200
M117 Agitating 25:21
G0 Y230
G0 Y200
M117 Agitating 25:22
G0 Y230
G0 Y200
M117 Agitating 25:23
G0 Y230
G0 Y200
M117 Agitating 25:24
G0 Y230
G0 Y200
M117 Agitating 25:25
G0 Y230
G0 Y200
M117 Agitating 25:26
G0 Y230
G0 Y200
M117 Agitating 25:27
G0 Y230
G0 Y200
M117 Agitating 25:28
G0 Y230
G0 Y200
M117 Agitating 25:29
G0 Y230
G0 Y200
M117 Agitating 25:30
G0 Y230
G0 Y200
M117 Agitating 25:31
G0 Y230
G0 Y200
M117 Agitating 25:32
G0 Y230
G0 Y200
M117 Agitating 25:33
G0 Y230
G0 Y200
M117 Agitating 25:34
G0 Y230
G0 Y200
M117 Agitating 25:35
G0 Y230
G0 Y200
M117 Agitating 25:36
G0 Y230
G0 Y200
M117 Agitating 25:37
G0 Y230
G0 Y200
M117 Agitating 25:38
G0 Y230
G0 Y200
M117 Agitating 25:39
G0 Y230
G0 Y200
M117 Agitating 26:00
G0 Y230
G0 Y200
M117 Agitating 26:01
G0 Y230
G0 Y200
M117 Agitating 26:02
G0 Y230
G0 Y200
M117 Agitating 26:03
G0 Y230
G0 Y200
M117 Agitating 26:04
G0 Y230
G0 Y200
M117 Agitating 26:05
G0 Y230
G0 Y200
M117 Agitating 26:06
G0 Y230
G0 Y200
M117 Agitating 26:07
G0 Y230
G0 Y200
M117 Agitating 26:08
G0 Y230
G0 Y200
M117 Agitating 26:09
G0 Y230
G0 Y200
M117 Agitating 26:10
G0 Y230
G0 Y200
M117 Agitating 26:11
G0 Y230
G0 Y200
M117 Agitating 26:12
G0 Y230
G0 Y200
M117 Agitating 26:13
G0 Y230
G0 Y200
M117 Agitating 26:14
G0 Y230
G0 Y200
M117 Agitating 26:15
G0 Y230
G0 Y200
M117 Agitating 26:16
G0 Y230
G0 Y200
M117 Agitating 26:17
G0 Y230
G0 Y200
M117 Agitating 26:18
G0 Y230
G0 Y200
M117 Agitating 26:19
G0 Y230
G0 Y200
M117 Agitating 26:20
G0 Y230
G0 Y200
M117 Agitating 26:21
G0 Y230
G0 Y200
M117 Agitating 26:22
G0 Y230
G0 Y200
M117 Agitating 26:23
G0 Y230
G0 Y200
M117 Agitating 26:24
G0 Y230
G0 Y200
M117 Agitating 26:25
G0 Y230
G0 Y200
M117 Agitating 26:26
G0 Y230
G0 Y200
M117 Agitating 26:27
G0 Y230
G0 Y200
M117 Agitating 26:28
G0 Y230
G0 Y200
M117 Agitating 26:29
G0 Y230
G0 Y200
M117 Agitating 26:30
G0 Y230
G0 Y200
M117 Agitating 26:31
G0 Y230
G0 Y200
M117 Agitating 26:32
G0 Y230
G0 Y200
M117 Agitating 26:33
G0 Y230
G0 Y200
M117 Agitating 26:34
G0 Y230
G0 Y200
M117 Agitating 26:35
G0 Y230
G0 Y200
M117 Agitating 26:36
G0 Y230
G0 Y200
M117 Agitating 26:37
G0 Y230
G0 Y200
M117 Agitating 26:38
G0 Y230
G0 Y200
M117 Agitating 26:39
G0 Y230
G0 Y200
M117 Agitating 27:00
G0 Y230
G0 Y200
M117 Agitating 27:01
G0 Y230
G0 Y200
M117 Agitating 27:02
G0 Y230
G0 Y200
M117 Agitating 27:03
G0 Y230
G0 Y200
M117 Agitating 27:04
G0 Y230
G0 Y200
M117 Agitating 27:05
G0 Y230
G0 Y200
M117 Agitating 27:06
G0 Y230
G0 Y200
M117 Agitating 27:07
G0 Y230
G0 Y200
M117 Agitating 27:08
G0 Y230
G0 Y200
M117 Agitating 27:09
G0 Y230
G0 Y200
M117 Agitating 27:10
G0 Y230
G0 Y200
M117 Agitating 27:11
G0 Y230
G0 Y200
M117 Agitating 27:12
G0 Y230
G0 Y200
M117 Agitating 27:13
G0 Y230
G0 Y200
M117 Agitating 27:14
G0 Y230
G0 Y200
M117 Agitating 27:15
G0 Y230
G0 Y200
M117 Agitating 27:16
G0 Y230
G0 Y200
M117 Agitating 27:17
G0 Y230
G0 Y200
M117 Agitating 27:18
G0 Y230
G0 Y200
M117 Agitating 27:19
G0 Y230
G0 Y200
M117 Agitating 27:20
G0 Y230
G0 Y200
M117 Agitating 27:21
G0 Y230
G0 Y200
M117 Agitating 27:22
G0 Y230
G0 Y200
M117 Agitating 27:23
G0 Y230
G0 Y200
M117 Agitating 27:24
G0 Y230
G0 Y200
M117 Agitating 27:25
G0 Y230
G0 Y200
M117 Agitating 27:26
G0 Y230
G0 Y200
M117 Agitating 27:27
G0 Y230
G0 Y200
M117 Agitating 27:28
G0 Y230
G0 Y200
M117 Agitating 27:29
G0 Y230
G0 Y200
M117 Agitating 27:30
G0 Y230
G0 Y200
M117 Agitating 27:31
G0 Y230
G0 Y200
M117 Agitating 27:32
G0 Y230
G0 Y200
M117 Agitating 27:33
G0 Y230
G0 Y200
M117 Agitating 27:34
G0 Y230
G0 Y200
M117 Agitating 27:35
G0 Y230
G0 Y200
M117 Agitating 27:36
G0 Y230
G0 Y200
M117 Agitating 27:37
G0 Y230
G0 Y200
M117 Agitating 27:38
G0 Y230
G0 Y200
M117 Agitating 27:39
G0 Y230
G0 Y200
M117 Agitating 28:00
G0 Y230
G0 Y200
M117 Agitating 28:01
G0 Y230
G0 Y200
M117 Agitating 28:02
G0 Y230
G0 Y200
M117 Agitating 28:03
G0 Y230
G0 Y200
M117 Agitating 28:04
G0 Y230
G0 Y200
M117 Agitating 28:05
G0 Y230
G0 Y200
M117 Agitating 28:06
G0 Y230
G0 Y200
M117 Agitating 28:07
G0 Y230
G0 Y200
M117 Agitating 28:08
G0 Y230
G0 Y200
M117 Agitating 28:09
G0 Y230
G0 Y200
M117 Agitating 28:10
G0 Y230
G0 Y200
M117 Agitating 28:11
G0 Y230
G0 Y200
M117 Agitating 28:12
G0 Y230
G0 Y200
M117 Agitating 28:13
G0 Y230
G0 Y200
M117 Agitating 28:14
G0 Y230
G0 Y200
M117 Agitating 28:15
G0 Y230
G0 Y200
M117 Agitating 28:16
G0 Y230
G0 Y200
M117 Agitating 28:17
G0 Y230
G0 Y200
M117 Agitating 28:18
G0 Y230
G0 Y200
M117 Agitating 28:19
G0 Y230
G0 Y200
M117 Agitating 28:20
G0 Y230
G0 Y200
M117 Agitating 28:21
G0 Y230
G0 Y200
M117 Agitating 28:22
G0 Y230
G0 Y200
M117 Agitating 28:23
G0 Y230
G0 Y200
M117 Agitating 28:24
G0 Y230
G0 Y200
M117 Agitating 28:25
G0 Y230
G0 Y200
M117 Agitating 28:26
G0 Y230
G0 Y200
M117 Agitating 28:27
G0 Y230
G0 Y200
M117 Agitating 28:28
G0 Y230
G0 Y200
M117 Agitating 28:29
G0 Y230
G0 Y200
M117 Agitating 28:30
G0 Y230
G0 Y200
M117 Agitating 28:31
G0 Y230
G0 Y200
M117 Agitating 28:32
G0 Y230
G0 Y200
M117 Agitating 28:33
G0 Y230
G0 Y200
M117 Agitating 28:34
G0 Y230
G0 Y200
M117 Agitating 28:35
G0 Y230
G0 Y200
M117 Agitating 28:36
G0 Y230
G0 Y200
M117 Agitating 28:37
G0 Y230
G0 Y200
M117 Agitating 28:38
G0 Y230
G0 Y200
M117 Agitating 28:39
G0 Y230
G0 Y200
M117 Agitating 29:00
G0 Y230
G0 Y200
M117 Agitating 29:01
G0 Y230
G0 Y200
M117 Agitating 29:02
G0 Y230
G0 Y200
M117 Agitating 29:03
G0 Y230
G0 Y200
M117 Agitating 29:04
G0 Y230
G0 Y200
M117 Agitating 29:05
G0 Y230
G0 Y200
M117 Agitating 29:06
G0 Y230
G0 Y200
M117 Agitating 29:07
G0 Y230
G0 Y200
M117 Agitating 29:08
G0 Y230
G0 Y200
M117 Agitating 29:09
G0 Y230
G0 Y200
M117 Agitating 29:10
G0 Y230
G0 Y200
M117 Agitating 29:11
G0 Y230
G0 Y200
M117 Agitating 29:12
G0 Y230
G0 Y200
M117 Agitating 29:13
G0 Y230
G0 Y200
M117 Agitating 29:14
G0 Y230
G0 Y200
M117 Agitating 29:15
G0 Y230
G0 Y200
M117 Agitating 29:16
G0 Y230
G0 Y200
M117 Agitating 29:17
G0 Y230
G0 Y200
M117 Agitating 29:18
G0 Y230
G0 Y200
M117 Agitating 29:19
G0 Y230
G0 Y200
M117 Agitating 29:20
G0 Y230
G0 Y200
M117 Agitating 29:21
G0 Y230
G0 Y200
M117 Agitating 29:22
G0 Y230
G0 Y200
M117 Agitating 29:23
G0 Y230
G0 Y200
M117 Agitating 29:24
G0 Y230
G0 Y200
M117 Agitating 29:25
G0 Y230
G0 Y200
M117 Agitating 29:26
G0 Y230
G0 Y200
M117 Agitating 29:27
G0 Y230
G0 Y200
M117 Agitating 29:28
G0 Y230
G0 Y200
M117 Agitating 29:29
G0 Y230
G0 Y200
M117 Agitating 29:30
G0 Y230
G0 Y200
M117 Agitating 29:31
G0 Y230
G0 Y200
M117 Agitating 29:32
G0 Y230
G0 Y200
M117 Agitating 29:33
G0 Y230
G0 Y200
M117 Agitating 29:34
G0 Y230
G0 Y200
M117 Agitating 29:35
G0 Y230
G0 Y200
M117 Agitating 29:36
G0 Y230
G0 Y200
M117 Agitating 29:37
G0 Y230
G0 Y200
M117 Agitating 29:38
G0 Y230
G0 Y200
M117 Agitating 29:39
G0 Y230
G0 Y200
M117 Agitating 30:00
G0 Y230
G0 Y200
M117 Agitating 30:01
G0 Y230
G0 Y200
M117 Agitating 30:02
G0 Y230
G0 Y200
M117 Agitating 30:03
G0 Y230
G0 Y200
M117 Agitating 30:04
G0 Y230
G0 Y200
M117 Agitating 30:05
G0 Y230
G0 Y200
M117 Agitating 30:06
G0 Y230
G0 Y200
M117 Agitating 30:07
G0 Y230
G0 Y200
M117 Agitating 30:08
G0 Y230
G0 Y200
M117 Agitating 30:09
G0 Y230
G0 Y200
M117 Agitating 30:10
G0 Y230
G0 Y200
M117 Agitating 30:11
G0 Y230
G0 Y200
M117 Agitating 30:12
G0 Y230
G0 Y200
M117 Agitating 30:13
G0 Y230
G0 Y200
M117 Agitating 30:14
G0 Y230
G0 Y200
M117 Agitating 30:15
G0 Y230
G0 Y200
M117 Agitating 30:16
G0 Y230
G0 Y200
M117 Agitating 30:17
G0 Y230
G0 Y200
M117 Agitating 30:18
G0 Y230
G0 Y200
M117 Agitating 30:19
G0 Y230
G0 Y200
M117 Agitating 30:20
G0 Y230
G0 Y200
M117 Agitating 30:21
G0 Y230
G0 Y200
M117 Agitating 30:22
G0 Y230
G0 Y200
M117 Agitating 30:23
G0 Y230
G0 Y200
M117 Agitating 30:24
G0 Y230
G0 Y200
M117 Agitating 30:25
G0 Y230
G0 Y200
M117 Agitating 30:26
G0 Y230
G0 Y200
M117 Agitating 30:27
G0 Y230
G0 Y200
M117 Agitating 30:28
G0 Y230
G0 Y200
M117 Agitating 30:29
G0 Y230
G0 Y200
M117 Agitating 30:30
G0 Y230
G0 Y200
M117 Agitating 30:31
G0 Y230
G0 Y200
M117 Agitating 30:32
G0 Y230
G0 Y200
M117 Agitating 30:33
G0 Y230
G0 Y200
M117 Agitating 30:34
G0 Y230
G0 Y200
M117 Agitating 30:35
G0 Y230
G0 Y200
M117 Agitating 30:36
G0 Y230
G0 Y200
M117 Agitating 30:37
G0 Y230
G0 Y200
M117 Agitating 30:38
G0 Y230
G0 Y200
M117 Agitating 30:39
G0 Y230
G0 Y200
M117 Agitating 31:00
G0 Y230
G0 Y200
M117 Agitating 31:01
G0 Y230
G0 Y200
M117 Agitating 31:02
G0 Y230
G0 Y200
M117 Agitating 31:03
G0 Y230
G0 Y200
M117 Agitating 31:04
G0 Y230
G0 Y200
M117 Agitating 31:05
G0 Y230
G0 Y200
M117 Agitating 31:06
G0 Y230
G0 Y200
M117 Agitating 31:07
G0 Y230
G0 Y200
M117 Agitating 31:08
G0 Y230
G0 Y200
M117 Agitating 31:09
G0 Y230
G0 Y200
M117 Agitating 31:10
G0 Y230
G0 Y200
M117 Agitating 31:11
G0 Y230
G0 Y200
M117 Agitating 31:12
G0 Y230
G0 Y200
M117 Agitating 31:13
G0 Y230
G0 Y200
M117 Agitating 31:14
G0 Y230
G0 Y200
M117 Agitating 31:15
G0 Y230
G0 Y200
M117 Agitating 31:16
G0 Y230
G0 Y200
M117 Agitating 31:17
G0 Y230
G0 Y200
M117 Agitating 31:18
G0 Y230
G0 Y200
M117 Agitating 31:19
G0 Y230
G0 Y200
M117 Agitating 31:20
G0 Y230
G0 Y200
M117 Agitating 31:21
G0 Y230
G0 Y200
M117 Agitating 31:22
G0 Y230
G0 Y200
M117 Agitating 31:23
G0 Y230
G0 Y200
M117 Agitating 31:24
G0 Y230
G0 Y200
M117 Agitating 31:25
G0 Y230
G0 Y200
M117 Agitating 31:26
G0 Y230
G0 Y200
M117 Agitating 31:27
G0 Y230
G0 Y200
M117 Agitating 31:28
G0 Y230
G0 Y200
M117 Agitating 31:29
G0 Y230
G0 Y200
M117 Agitating 31:30
G0 Y230
G0 Y200
M117 Agitating 31:31
G0 Y230
G0 Y200
M117 Agitating 31:32
G0 Y230
G0 Y200
M117 Agitating 31:33
G0 Y230
G0 Y200
M117 Agitating 31:34
G0 Y230
G0 Y200
M117 Agitating 31:35
G0 Y230
G0 Y200
M117 Agitating 31:36
G0 Y230
G0 Y200
M117 Agitating 31:37
G0 Y230
G0 Y200
M117 Agitating 31:38
G0 Y230
G0 Y200
M117 Agitating 31:39
G0 Y230
G0 Y200
M117 Agitating 32:00
G0 Y230
G0 Y200
M117 Agitating 32:01
G0 Y230
G0 Y200
M117 Agitating 32:02
G0 Y230
G0 Y200
M117 Agitating 32:03
G0 Y230
G0 Y200
M117 Agitating 32:04
G0 Y230
G0 Y200
M117 Agitating 32:05
G0 Y230
G0 Y200
M117 Agitating 32:06
G0 Y230
G0 Y200
M117 Agitating 32:07
G0 Y230
G0 Y200
M117 Agitating 32:08
G0 Y230
G0 Y200
M117 Agitating 32:09
G0 Y230
G0 Y200
M117 Agitating 32:10
G0 Y230
G0 Y200
M117 Agitating 32:11
G0 Y230
G0 Y200
M117 Agitating 32:12
G0 Y230
G0 Y200
M117 Agitating 32:13
G0 Y230
G0 Y200
M117 Agitating 32:14
G0 Y230
G0 Y200
M117 Agitating 32:15
G0 Y230
G0 Y200
M117 Agitating 32:16
G0 Y230
G0 Y200
M117 Agitating 32:17
G0 Y230
G0 Y200
M117 Agitating 32:18
G0 Y230
G0 Y200
M117 Agitating 32:19
G0 Y230
G0 Y200
M117 Agitating 32:20
G0 Y230
G0 Y200
M117 Agitating 32:21
G0 Y230
G0 Y200
M117 Agitating 32:22
G0 Y230
G0 Y200
M117 Agitating 32:23
G0 Y230
G0 Y200
M117 Agitating 32:24
G0 Y230
G0 Y200
M117 Agitating 32:25
G0 Y230
G0 Y200
M117 Agitating 32:26
G0 Y230
G0 Y200
M117 Agitating 32:27
G0 Y230
G0 Y200
M117 Agitating 32:28
G0 Y230
G0 Y200
M117 Agitating 32:29
G0 Y230
G0 Y200
M117 Agitating 32:30
G0 Y230
G0 Y200
M117 Agitating 32:31
G0 Y230
G0 Y200
M117 Agitating 32:32
G0 Y230
G0 Y200
M117 Agitating 32:33
G0 Y230
G0 Y200
M117 Agitating 32:34
G0 Y230
G0 Y200
M117 Agitating 32:35
G0 Y230
G0 Y200
M117 Agitating 32:36
G0 Y230
G0 Y200
M117 Agitating 32:37
G0 Y230
G0 Y200
M117 Agitating 32:38
G0 Y230
G0 Y200
M117 Agitating 32:39
G0 Y230
G0 Y200
M117 Agitating 33:00
G0 Y230
G0 Y200
M117 Agitating 33:01
G0 Y230
G0 Y200
M117 Agitating 33:02
G0 Y230
G0 Y200
M117 Agitating 33:03
G0 Y230
G0 Y200
M117 Agitating 33:04
G0 Y230
G0 Y200
M117 Agitating 33:05
G0 Y230
G0 Y200
M117 Agitating 33:06
G0 Y230
G0 Y200
M117 Agitating 33:07
G0 Y230
G0 Y200
M117 Agitating 33:08
G0 Y230
G0 Y200
M117 Agitating 33:09
G0 Y230
G0 Y200
M117 Agitating 33:10
G0 Y230
G0 Y200
M117 Agitating 33:11
G0 Y230
G0 Y200
M117 Agitating 33:12
G0 Y230
G0 Y200
M117 Agitating 33:13
G0 Y230
G0 Y200
M117 Agitating 33:14
G0 Y230
G0 Y200
M117 Agitating 33:15
G0 Y230
G0 Y200
M117 Agitating 33:16
G0 Y230
G0 Y200
M117 Agitating 33:17
G0 Y230
G0 Y200
M117 Agitating 33:18
G0 Y230
G0 Y200
M117 Agitating 33:19
G0 Y230
G0 Y200
M117 Agitating 33:20
G0 Y230
G0 Y200
M117 Agitating 33:21
G0 Y230
G0 Y200
M117 Agitating 33:22
G0 Y230
G0 Y200
M117 Agitating 33:23
G0 Y230
G0 Y200
M117 Agitating 33:24
G0 Y230
G0 Y200
M117 Agitating 33:25
G0 Y230
G0 Y200
M117 Agitating 33:26
G0 Y230
G0 Y200
M117 Agitating 33:27
G0 Y230
G0 Y200
M117 Agitating 33:28
G0 Y230
G0 Y200
M117 Agitating 33:29
G0 Y230
G0 Y200
M117 Agitating 33:30
G0 Y230
G0 Y200
M117 Agitating 33:31
G0 Y230
G0 Y200
M117 Agitating 33:32
G0 Y230
G0 Y200
M117 Agitating 33:33
G0 Y230
G0 Y200
M117 Agitating 33:34
G0 Y230
G0 Y200
M117 Agitating 33:35
G0 Y230
G0 Y200
M117 Agitating 33:36
G0 Y230
G0 Y200
M117 Agitating 33:37
G0 Y230
G0 Y200
M117 Agitating 33:38
G0 Y230
G0 Y200
M117 Agitating 33:39
G0 Y230
G0 Y200
M117 Agitating 34:00
G0 Y230
G0 Y200
M117 Agitating 34:01
G0 Y230
G0 Y200
M117 Agitating 34:02
G0 Y230
G0 Y200
M117 Agitating 34:03
G0 Y230
G0 Y200
M117 Agitating 34:04
G0 Y230
G0 Y200
M117 Agitating 34:05
G0 Y230
G0 Y200
M117 Agitating 34:06
G0 Y230
G0 Y200
M117 Agitating 34:07
G0 Y230
G0 Y200
M117 Agitating 34:08
G0 Y230
G0 Y200
M117 Agitating 34:09
G0 Y230
G0 Y200
M117 Agitating 34:10
G0 Y230
G0 Y200
M117 Agitating 34:11
G0 Y230
G0 Y200
M117 Agitating 34:12
G0 Y230
G0 Y200
M117 Agitating 34:13
G0 Y230
G0 Y200
M117 Agitating 34:14
G0 Y230
G0 Y200
M117 Agitating 34:15
G0 Y230
G0 Y200
M117 Agitating 34:16
G0 Y230
G0 Y200
M117 Agitating 34:17
G0 Y230
G0 Y200
M117 Agitating 34:18
G0 Y230
G0 Y200
M117 Agitating 34:19
G0 Y230
G0 Y200
M117 Agitating 34:20
G0 Y230
G0 Y200
M117 Agitating 34:21
G0 Y230
G0 Y200
M117 Agitating 34:22
G0 Y230
G0 Y200
M117 Agitating 34:23
G0 Y230
G0 Y200
M117 Agitating 34:24
G0 Y230
G0 Y200
M117 Agitating 34:25
G0 Y230
G0 Y200
M117 Agitating 34:26
G0 Y230
G0 Y200
M117 Agitating 34:27
G0 Y230
G0 Y200
M117 Agitating 34:28
G0 Y230
G0 Y200
M117 Agitating 34:29
G0 Y230
G0 Y200
M117 Agitating 34:30
G0 Y230
G0 Y200
M117 Agitating 34:31
G0 Y230
G0 Y200
M117 Agitating 34:32
G0 Y230
G0 Y200
M117 Agitating 34:33
G0 Y230
G0 Y200
M117 Agitating 34:34
G0 Y230
G0 Y200
M117 Agitating 34:35
G0 Y230
G0 Y200
M117 Agitating 34:36
G0 Y230
G0 Y200
M117 Agitating 34:37
G0 Y230
G0 Y200
M117 Agitating 34:38
G0 Y230
G0 Y200
M117 Agitating 34:39
G0 Y230
G0 Y200
M117 Agitating 35:00
G0 Y230
G0 Y200
M117 Agitating 35:01
G0 Y230
G0 Y200
M117 Agitating 35:02
G0 Y230
G0 Y200
M117 Agitating 35:03
G0 Y230
G0 Y200
M117 Agitating 35:04
G0 Y230
G0 Y200
M117 Agitating 35:05
G0 Y230
G0 Y200
M117 Agitating 35:06
G0 Y230
G0 Y200
M117 Agitating 35:07
G0 Y230
G0 Y200
M117 Agitating 35:08
G0 Y230
G0 Y200
M117 Agitating 35:09
G0 Y230
G0 Y200
M117 Agitating 35:10
G0 Y230
G0 Y200
M117 Agitating 35:11
G0 Y230
G0 Y200
M117 Agitating 35:12
G0 Y230
G0 Y200
M117 Agitating 35:13
G0 Y230
G0 Y200
M117 Agitating 35:14
G0 Y230
G0 Y200
M117 Agitating 35:15
G0 Y230
G0 Y200
M117 Agitating 35:16
G0 Y230
G0 Y200
M117 Agitating 35:17
G0 Y230
G0 Y200
M117 Agitating 35:18
G0 Y230
G0 Y200
M117 Agitating 35:19
G0 Y230
G0 Y200
M117 Agitating 35:20
G0 Y230
G0 Y200
M117 Agitating 35:21
G0 Y230
G0 Y200
M117 Agitating 35:22
G0 Y230
G0 Y200
M117 Agitating 35:23
G0 Y230
G0 Y200
M117 Agitating 35:24
G0 Y230
G0 Y200
M117 Agitating 35:25
G0 Y230
G0 Y200
M117 Agitating 35:26
G0 Y230
G0 Y200
M117 Agitating 35:27
G0 Y230
G0 Y200
M117 Agitating 35:28
G0 Y230
G0 Y200
M117 Agitating 35:29
G0 Y230
G0 Y200
M117 Agitating 35:30
G0 Y230
G0 Y200
M117 Agitating 35:31
G0 Y230
G0 Y200
M117 Agitating 35:32
G0 Y230
G0 Y200
M117 Agitating 35:33
G0 Y230
G0 Y200
M117 Agitating 35:34
G0 Y230
G0 Y200
M117 Agitating 35:35
G0 Y230
G0 Y200
M117 Agitating 35:36
G0 Y230
G0 Y200
M117 Agitating 35:37
G0 Y230
G0 Y200
M117 Agitating 35:38
G0 Y230
G0 Y200
M117 Agitating 35:39
G0 Y230
G0 Y200
M117 Agitating 36:00
G0 Y230
G0 Y200
M117 Agitating 36:01
G0 Y230
G0 Y200
M117 Agitating 36:02
G0 Y230
G0 Y200
M117 Agitating 36:03
G0 Y230
G0 Y200
M117 Agitating 36:04
G0 Y230
G0 Y200
M117 Agitating 36:05
G0 Y230
G0 Y200
M117 Agitating 36:06
G0 Y230
G0 Y200
M117 Agitating 36:07
G0 Y230
G0 Y200
M117 Agitating 36:08
G0 Y230
G0 Y200
M117 Agitating 36:09
G0 Y230
G0 Y200
M117 Agitating 36:10
G0 Y230
G0 Y200
M117 Agitating 36:11
G0 Y230
G0 Y200
M117 Agitating 36:12
G0 Y230
G0 Y200
M117 Agitating 36:13
G0 Y230
G0 Y200
M117 Agitating 36:14
G0 Y230
G0 Y200
M117 Agitating 36:15
G0 Y230
G0 Y200
M117 Agitating 36:16
G0 Y230
G0 Y200
M117 Agitating 36:17
G0 Y230
G0 Y200
M117 Agitating 36:18
G0 Y230
G0 Y200
M117 Agitating 36:19
G0 Y230
G0 Y200
M117 Agitating 36:20
G0 Y230
G0 Y200
M117 Agitating 36:21
G0 Y230
G0 Y200
M117 Agitating 36:22
G0 Y230
G0 Y200
M117 Agitating 36:23
G0 Y230
G0 Y200
M117 Agitating 36:24
G0 Y230
G0 Y200
M117 Agitating 36:25
G0 Y230
G0 Y200
M117 Agitating 36:26
G0 Y230
G0 Y200
M117 Agitating 36:27
G0 Y230
G0 Y200
M117 Agitating 36:28
G0 Y230
G0 Y200
M117 Agitating 36:29
G0 Y230
G0 Y200
M117 Agitating 36:30
G0 Y230
G0 Y200
M117 Agitating 36:31
G0 Y230
G0 Y200
M117 Agitating 36:32
G0 Y230
G0 Y200
M117 Agitating 36:33
G0 Y230
G0 Y200
M117 Agitating 36:34
G0 Y230
G0 Y200
M117 Agitating 36:35
G0 Y230
G0 Y200
M117 Agitating 36:36
G0 Y230
G0 Y200
M117 Agitating 36:37
G0 Y230
G0 Y200
M117 Agitating 36:38
G0 Y230
G0 Y200
M117 Agitating 36:39
G0 Y230
G0 Y200
M117 Agitating 37:00
G0 Y230
G0 Y200
M117 Agitating 37:01
G0 Y230
G0 Y200
M117 Agitating 37:02
G0 Y230
G0 Y200
M117 Agitating 37:03
G0 Y230
G0 Y200
M117 Agitating 37:04
G0 Y230
G0 Y200
M117 Agitating 37:05
G0 Y230
G0 Y200
M117 Agitating 37:06
G0 Y230
G0 Y200
M117 Agitating 37:07
G0 Y230
G0 Y200
M117 Agitating 37:08
G0 Y230
G0 Y200
M117 Agitating 37:09
G0 Y230
G0 Y200
M117 Agitating 37:10
G0 Y230
G0 Y200
M117 Agitating 37:11
G0 Y230
G0 Y200
M117 Agitating 37:12
G0 Y230
G0 Y200
M117 Agitating 37:13
G0 Y230
G0 Y200
M117 Agitating 37:14
G0 Y230
G0 Y200
M117 Agitating 37:15
G0 Y230
G0 Y200
M117 Agitating 37:16
G0 Y230
G0 Y200
M117 Agitating 37:17
G0 Y230
G0 Y200
M117 Agitating 37:18
G0 Y230
G0 Y200
M117 Agitating 37:19
G0 Y230
G0 Y200
M117 Agitating 37:20
G0 Y230
G0 Y200
M117 Agitating 37:21
G0 Y230
G0 Y200
M117 Agitating 37:22
G0 Y230
G0 Y200
M117 Agitating 37:23
G0 Y230
G0 Y200
M117 Agitating 37:24
G0 Y230
G0 Y200
M117 Agitating 37:25
G0 Y230
G0 Y200
M117 Agitating 37:26
G0 Y230
G0 Y200
M117 Agitating 37:27
G0 Y230
G0 Y200
M117 Agitating 37:28
G0 Y230
G0 Y200
M117 Agitating 37:29
G0 Y230
G0 Y200
M117 Agitating 37:30
G0 Y230
G0 Y200
M117 Agitating 37:31
G0 Y230
G0 Y200
M117 Agitating 37:32
G0 Y230
G0 Y200
M117 Agitating 37:33
G0 Y230
G0 Y200
M117 Agitating 37:34
G0 Y230
G0 Y200
M117 Agitating 37:35
G0 Y230
G0 Y200
M117 Agitating 37:36
G0 Y230
G0 Y200
M117 Agitating 37:37
G0 Y230
G0 Y200
M117 Agitating 37:38
G0 Y230
G0 Y200
M117 Agitating 37:39
G0 Y230
G0 Y200
M117 Agitating 38:00
G0 Y230
G0 Y200
M117 Agitating 38:01
G0 Y230
G0 Y200
M117 Agitating 38:02
G0 Y230
G0 Y200
M117 Agitating 38:03
G0 Y230
G0 Y200
M117 Agitating 38:04
G0 Y230
G0 Y200
M117 Agitating 38:05
G0 Y230
G0 Y200
M117 Agitating 38:06
G0 Y230
G0 Y200
M117 Agitating 38:07
G0 Y230
G0 Y200
M117 Agitating 38:08
G0 Y230
G0 Y200
M117 Agitating 38:09
G0 Y230
G0 Y200
M117 Agitating 38:10
G0 Y230
G0 Y200
M117 Agitating 38:11
G0 Y230
G0 Y200
M117 Agitating 38:12
G0 Y230
G0 Y200
M117 Agitating 38:13
G0 Y230
G0 Y200
M117 Agitating 38:14
G0 Y230
G0 Y200
M117 Agitating 38:15
G0 Y230
G0 Y200
M117 Agitating 38:16
G0 Y230
G0 Y200
M117 Agitating 38:17
G0 Y230
G0 Y200
M117 Agitating 38:18
G0 Y230
G0 Y200
M117 Agitating 38:19
G0 Y230
G0 Y200
M117 Agitating 38:20
G0 Y230
G0 Y200
M117 Agitating 38:21
G0 Y230
G0 Y200
M117 Agitating 38:22
G0 Y230
G0 Y200
M117 Agitating 38:23
G0 Y230
G0 Y200
M117 Agitating 38:24
G0 Y230
G0 Y200
M117 Agitating 38:25
G0 Y230
G0 Y200
M117 Agitating 38:26
G0 Y230
G0 Y200
M117 Agitating 38:27
G0 Y230
G0 Y200
M117 Agitating 38:28
G0 Y230
G0 Y200
M117 Agitating 38:29
G0 Y230
G0 Y200
M117 Agitating 38:30
G0 Y230
G0 Y200
M117 Agitating 38:31
G0 Y230
G0 Y200
M117 Agitating 38:32
G0 Y230
G0 Y200
M117 Agitating 38:33
G0 Y230
G0 Y200
M117 Agitating 38:34
G0 Y230
G0 Y200
M117 Agitating 38:35
G0 Y230
G0 Y200
M117 Agitating 38:36
G0 Y230
G0 Y200
M117 Agitating 38:37
G0 Y230
G0 Y200
M117 Agitating 38:38
G0 Y230
G0 Y200
M117 Agitating 38:39
G0 Y230
G0 Y200
M117 Agitating 39:00
G0 Y230
G0 Y200
M117 Agitating 39:01
G0 Y230
G0 Y200
M117 Agitating 39:02
G0 Y230
G0 Y200
M117 Agitating 39:03
G0 Y230
G0 Y200
M117 Agitating 39:04
G0 Y230
G0 Y200
M117 Agitating 39:05
G0 Y230
G0 Y200
M117 Agitating 39:06
G0 Y230
G0 Y200
M117 Agitating 39:07
G0 Y230
G0 Y200
M117 Agitating 39:08
G0 Y230
G0 Y200
M117 Agitating 39:09
G0 Y230
G0 Y200
M117 Agitating 39:10
G0 Y230
G0 Y200
M117 Agitating 39:11
G0 Y230
G0 Y200
M117 Agitating 39:12
G0 Y230
G0 Y200
M117 Agitating 39:13
G0 Y230
G0 Y200
M117 Agitating 39:14
G0 Y230
G0 Y200
M117 Agitating 39:15
G0 Y230
G0 Y200
M117 Agitating 39:16
G0 Y230
G0 Y200
M117 Agitating 39:17
G0 Y230
G0 Y200
M117 Agitating 39:18
G0 Y230
G0 Y200
M117 Agitating 39:19
G0 Y230
G0 Y200
M117 Agitating 39:20
G0 Y230
G0 Y200
M117 Agitating 39:21
G0 Y230
G0 Y200
M117 Agitating 39:22
G0 Y230
G0 Y200
M117 Agitating 39:23
G0 Y230
G0 Y200
M117 Agitating 39:24
G0 Y230
G0 Y200
M117 Agitating 39:25
G0 Y230
G0 Y200
M117 Agitating 39:26
G0 Y230
G0 Y200
M117 Agitating 39:27
G0 Y230
G0 Y200
M117 Agitating 39:28
G0 Y230
G0 Y200
M117 Agitating 39:29
G0 Y230
G0 Y200
M117 Agitating 39:30
G0 Y230
G0 Y200
M117 Agitating 39:31
G0 Y230
G0 Y200
M117 Agitating 39:32
G0 Y230
G0 Y200
M117 Agitating 39:33
G0 Y230
G0 Y200
M117 Agitating 39:34
G0 Y230
G0 Y200
M117 Agitating 39:35
G0 Y230
G0 Y200
M117 Agitating 39:36
G0 Y230
G0 Y200
M117 Agitating 39:37
G0 Y230
G0 Y200
M117 Agitating 39:38
G0 Y230
G0 Y200
M117 Agitating 39:39
G0 Y230
G0 Y200
M117 Agitating 40:00 Complete
M400                         ; wait for moves to finish
M140 S0                      ; disable bed heater
M77                          ; stop GLCD timer
G0 X0 Y250                   ; move to cooling position
M84                          ; disable steppers
G90                          ; absolute positioning
