;This Gcode has been generated specifically for the LulzBot TAZ 4
;Sliced at: Fri 12-06-2015 12:58:57
;Basic settings: Layer height: 0.4 Walls: 0.6 Fill: 0
;Filament Diameter: 2.85
;Print time: 2 minutes
M104 S205  ;E1 temperature, but continue
M190 S55   ;bed temperature and wait
M109 S205  ;E1 temperature and wait (but should already be there)
G21        ;metric values
G90        ;absolute positioning
M82        ;set extruder to absolute mode
M107       ;start with the fan off
G28 X0 Y0  ;move X/Y to min endstops
G28 Z0     ;move Z to min endstops
G1 Z15.0 F10500 ;move the platform down 15mm
G92 E0                  ;zero the extruded length
G1 F200 E0              ;extrude 3mm of feed stock
G92 E0                  ;zero the extruded length again
G1 F10500
M203 X192 Y208 Z3 ;speed limits

;Layer count: 1
;LAYER:0
M107
G0 F10500 X18.811 Y12.812 Z0.400
;TYPE:SKIRT
G1 F1800 X20.118 Y10.793 E0.09048
G1 X21.563 Y9.974 E0.15297
G1 X23.647 Y8.791 E0.24312
G1 X25.307 Y8.650 E0.30580
G1 X27.536 Y8.460 E0.38996
G1 X29.014 Y8.674 E0.44615
G1 X31.430 Y9.027 E0.53800
G1 X32.913 Y9.481 E0.59635
G1 X35.552 Y10.289 E0.70018
G1 X44.615 Y14.359 E1.07395
G1 X55.174 Y20.366 E1.53097
G1 X66.715 Y27.880 E2.04907
G1 X79.049 Y36.621 E2.61780
G1 X91.658 Y46.183 E3.21314
G1 X104.209 Y56.224 E3.81783
G1 X112.615 Y63.429 E4.23435
G1 X120.644 Y70.858 E4.64587
G1 X128.224 Y78.139 E5.04129
G1 X135.068 Y84.864 E5.40227
G1 X141.021 Y90.642 E5.71437
G1 X145.917 Y95.129 E5.96422
G1 X146.568 Y95.685 E5.99642
G1 X147.806 Y96.741 E6.05764
G1 X148.278 Y97.082 E6.07955
G1 X149.233 Y97.773 E6.12389
G1 X149.266 Y97.791 E6.12531
G1 X149.355 Y97.738 E6.12920
G1 X150.822 Y96.574 E6.19966
G1 X151.480 Y95.990 E6.23276
G1 X152.848 Y94.774 E6.30161
G1 X158.049 Y89.748 E6.57371
G1 X164.427 Y83.192 E6.91782
G1 X171.915 Y75.526 E7.32098
G1 X180.193 Y67.069 E7.76619
G1 X189.212 Y58.169 E8.24288
G1 X198.786 Y49.194 E8.73658
G1 X210.152 Y39.203 E9.30590
G1 X221.594 Y29.799 E9.86309
G1 X232.828 Y21.328 E10.39242
G1 X243.532 Y14.131 E10.87767
G1 X253.485 Y8.602 E11.30601
G1 X262.461 Y5.189 E11.66729
G1 X264.059 Y4.936 E11.72816
G1 X266.824 Y4.497 E11.83348
G1 X268.255 Y4.520 E11.88732
G1 X270.996 Y4.569 E11.99046
G1 X272.448 Y5.043 E12.04792
G1 X274.903 Y5.845 E12.14509
G1 X278.286 Y8.403 E12.30465
G1 X279.133 Y9.805 E12.36627
G1 X280.476 Y12.026 E12.46391
G1 X280.763 Y13.652 E12.52603
G1 X281.188 Y16.060 E12.61802
G1 X281.003 Y18.711 E12.71800
G1 X280.897 Y20.204 E12.77431
G1 X279.649 Y24.502 E12.94268
G1 X275.388 Y33.150 E13.30538
G1 X269.088 Y42.632 E13.73366
G1 X261.140 Y52.928 E14.22299
G1 X252.119 Y63.800 E14.75448
G1 X242.480 Y75.105 E15.31339
G1 X232.608 Y86.643 E15.88467
G1 X224.133 Y96.370 E16.37002
G1 X215.765 Y105.456 E16.83473
G1 X207.832 Y113.747 E17.26643
G1 X200.709 Y121.048 E17.65017
G1 X194.686 Y127.306 E17.97693
G1 X190.103 Y132.301 E18.23196
G1 X189.009 Y133.584 E18.29539
G1 X188.481 Y134.204 E18.32603
G1 X187.640 Y135.284 E18.37752
G1 X187.839 Y135.505 E18.38871
G1 X188.855 Y136.633 E18.44582
G1 X190.986 Y138.883 E18.56241
G1 X193.574 Y141.471 E18.70010
G1 X193.574 Y141.470 E18.70014
G1 X196.662 Y144.500 E18.86290
G1 X197.826 Y145.642 E18.92425
G1 X200.094 Y147.872 E19.04391
G1 X201.374 Y149.113 E19.11098
G1 X203.904 Y151.564 E19.24350
G1 X212.318 Y159.857 E19.68796
G1 X221.348 Y169.187 E20.17644
G1 X230.645 Y179.383 E20.69554
G1 X239.579 Y190.236 E21.22439
G1 X248.824 Y202.164 E21.79214
G1 X257.648 Y213.731 E22.33947
G1 X265.672 Y224.810 E22.85411
G1 X272.488 Y235.123 E23.31918
G1 X277.827 Y244.575 E23.72758
G1 X278.953 Y247.457 E23.84399
G1 X278.952 Y247.457 E23.84402
G1 X281.104 Y252.957 E24.06621
G1 X281.401 Y254.417 E24.12227
G1 X281.940 Y257.065 E24.22393
G1 X281.940 Y261.028 E24.37302
G1 X280.798 Y264.859 E24.52342
G1 X278.301 Y268.134 E24.67835
G1 X274.958 Y270.030 E24.82294
G1 X272.556 Y270.348 E24.91409
G1 X272.556 Y270.349 E24.91413
G1 X271.243 Y270.525 E24.96397
G1 X268.822 Y270.241 E25.05567
G1 X267.523 Y270.088 E25.10488
G1 X263.586 Y268.934 E25.25923
G1 X255.134 Y265.080 E25.60870
G1 X245.443 Y259.352 E26.03221
G1 X234.712 Y251.997 E26.52164
G1 X223.258 Y243.301 E27.06268
G1 X211.292 Y233.549 E27.64342
G1 X199.218 Y223.028 E28.24591
G1 X190.891 Y215.361 E28.67175
G1 X182.412 Y207.061 E29.11813
G1 X173.969 Y198.677 E29.56577
G1 X166.009 Y190.777 E29.98768
G1 X158.824 Y183.768 E30.36530
G1 X152.799 Y178.211 E30.67366
G1 X151.148 Y176.861 E30.75389
G1 X150.348 Y176.206 E30.79279
G1 X148.462 Y174.845 E30.88029
G1 X148.233 Y174.722 E30.89007
G1 X147.366 Y175.519 E30.93437
G1 X146.146 Y176.701 E30.99828
G1 X145.546 Y177.282 E31.02970
G1 X140.713 Y182.291 E31.29156
G1 X134.604 Y188.697 E31.62458
G1 X127.330 Y196.269 E32.01959
G1 X119.023 Y204.577 E32.46159
G1 X109.869 Y213.311 E32.93758
G1 X100.045 Y222.118 E33.43394
G1 X87.894 Y232.234 E34.02876
G1 X75.565 Y241.749 E34.61466
G1 X63.580 Y250.378 E35.17025
G1 X52.281 Y257.771 E35.67824
G1 X42.112 Y263.703 E36.12115
G1 X33.527 Y267.811 E36.47919
G1 X31.091 Y268.693 E36.57666
G1 X29.695 Y269.198 E36.63251
G1 X27.486 Y269.639 E36.71726
G1 X27.486 Y269.640 E36.71729
G1 X26.124 Y269.913 E36.76955
G1 X22.484 Y269.827 E36.90653
G1 X18.981 Y267.973 E37.05564
G1 X16.764 Y264.368 E37.21486
G1 X16.297 Y261.879 E37.31013
G1 X16.298 Y261.879 E37.31017
G1 X16.038 Y260.500 E37.36296
G1 X16.325 Y256.481 E37.51455
G1 X16.688 Y254.957 E37.57348
G1 X17.336 Y252.236 E37.67871
G1 X21.064 Y242.978 E38.05419
G1 X26.793 Y232.494 E38.50366
G1 X34.092 Y221.034 E39.01481
G1 X42.798 Y208.966 E39.57464
G1 X52.440 Y196.628 E40.16373
G1 X62.738 Y184.474 E40.76304
G1 X71.962 Y174.351 E41.27827
G1 X81.108 Y164.967 E41.77125
G1 X89.818 Y156.316 E42.23309
G1 X97.745 Y148.686 E42.64702
G1 X98.955 Y147.538 E42.70977
G1 X101.316 Y145.295 E42.83228
G1 X104.511 Y142.218 E42.99916
G1 X107.365 Y139.482 E43.14790
G1 X109.701 Y137.146 E43.27218
G1 X110.345 Y136.464 E43.30747
G1 X111.625 Y135.107 E43.37765
G1 X112.058 Y134.620 E43.40217
G1 X112.706 Y133.890 E43.43889
G1 X112.170 Y133.260 E43.47001
G1 X111.784 Y132.807 E43.49240
G1 X110.022 Y130.990 E43.58762
G1 X104.895 Y126.329 E43.84830
G1 X98.229 Y120.607 E44.17880
G1 X90.343 Y113.797 E44.57079
G1 X81.764 Y105.878 E45.01003
G1 X72.795 Y96.970 E45.48559
G1 X63.950 Y86.981 E45.98754
G1 X54.343 Y75.226 E46.55868
G1 X45.047 Y63.785 E47.11328
G1 X36.556 Y52.782 E47.63615
G1 X29.166 Y42.568 E48.11044
G1 X25.299 Y36.547 E48.37965
G1 X23.260 Y33.374 E48.52154
G1 X19.211 Y25.275 E48.86219
G1 X17.975 Y21.502 E49.01156
G1 X17.453 Y17.844 E49.15057
G1 X17.974 Y14.107 E49.29252
G1 X18.811 Y12.812 E49.35053
G1 F1500 E47.85053
G1 Z0.500
G0 F10500 X21.430 Y15.393
;TYPE:WALL-OUTER
G1 Z0.400
G1 F1500 E49.35053
G1 F1800 X22.661 Y13.490 E49.43580
G1 X24.738 Y12.311 E49.52565
G1 X27.429 Y12.082 E49.62725
G1 X30.638 Y12.550 E49.74925
G1 X34.281 Y13.665 E49.89258
G1 X42.987 Y17.574 E50.25161
G1 X53.303 Y23.443 E50.69813
G1 X64.687 Y30.855 E51.20918
G1 X76.916 Y39.522 E51.77308
G1 X89.449 Y49.026 E52.36482
G1 X101.909 Y58.994 E52.96513
G1 X110.216 Y66.114 E53.37673
G1 X118.172 Y73.475 E53.78450
G1 X125.714 Y80.720 E54.17795
G1 X132.545 Y87.433 E54.53826
G1 X138.548 Y93.258 E54.85295
G1 X143.545 Y97.838 E55.10796
G1 X145.577 Y99.572 E55.20845
G1 X147.328 Y100.839 E55.28977
G1 X148.607 Y101.510 E55.34410
G1 X149.326 Y101.797 E55.37323
G1 X150.053 Y101.507 E55.40267
G1 X151.397 Y100.713 E55.46140
G1 X153.143 Y99.328 E55.54524
G1 X155.292 Y97.418 E55.65341
G1 X160.587 Y92.302 E55.93041
G1 X182.742 Y69.612 E57.12346
G1 X191.711 Y60.762 E57.59750
G1 X201.209 Y51.857 E58.08731
G1 X212.481 Y41.950 E58.65189
G1 X223.817 Y32.632 E59.20394
G1 X234.924 Y24.257 E59.72728
G1 X245.413 Y17.205 E60.20278
G1 X255.008 Y11.874 E60.61573
G1 X263.393 Y8.686 E60.95321
G1 X267.076 Y8.101 E61.09351
G1 X270.394 Y8.159 E61.21835
G1 X273.212 Y9.079 E61.32988
G1 X275.562 Y10.856 E61.44072
G1 X277.048 Y13.315 E61.54881
G1 X277.566 Y16.250 E61.66093
G1 X277.333 Y19.567 E61.78603
G1 X276.280 Y23.195 E61.92815
G1 X272.261 Y31.351 E62.27022
G1 X266.155 Y40.541 E62.68531
G1 X258.333 Y50.674 E63.16689
G1 X249.362 Y61.484 E63.69538
G1 X229.884 Y84.289 E64.82368
G1 X221.454 Y93.965 E65.30647
G1 X213.142 Y102.990 E65.76806
G1 X205.244 Y111.245 E66.19787
G1 X198.116 Y118.551 E66.58188
G1 X192.053 Y124.851 E66.91082
G1 X187.414 Y129.906 E67.16894
G1 X185.684 Y131.935 E67.26925
G1 X184.421 Y133.559 E67.34665
G1 X183.688 Y134.780 E67.40023
G1 X183.442 Y135.354 E67.42372
G1 X184.039 Y136.362 E67.46780
G1 X184.605 Y137.294 E67.50882
G1 X186.231 Y139.099 E67.60021
G1 X188.375 Y141.362 E67.71749
G1 X191.052 Y144.039 E67.85992
G1 X197.588 Y150.456 E68.20451
G1 X201.387 Y154.138 E68.40355
G1 X209.758 Y162.389 E68.84574
G1 X218.727 Y171.656 E69.33092
G1 X227.918 Y181.736 E69.84412
G1 X236.769 Y192.487 E70.36802
G1 X245.969 Y204.358 E70.93304
G1 X254.760 Y215.882 E71.47833
G1 X262.715 Y226.865 E71.98852
G1 X269.410 Y236.994 E72.44530
G1 X274.568 Y246.126 E72.83987
G1 X277.638 Y253.976 E73.15698
G1 X278.340 Y257.429 E73.28954
G1 X278.340 Y260.501 E73.40511
G1 X277.536 Y263.200 E73.51106
G1 X275.884 Y265.366 E73.61354
G1 X273.789 Y266.554 E73.70415
G1 X271.215 Y266.897 E73.80184
G1 X268.246 Y266.548 E73.91431
G1 X264.844 Y265.551 E74.04768
G1 X256.802 Y261.884 E74.38020
G1 X247.377 Y256.313 E74.79209
G1 X236.814 Y249.073 E75.27386
G1 X225.489 Y240.475 E75.80880
G1 X213.609 Y230.792 E76.38539
G1 X201.623 Y220.349 E76.98346
G1 X193.366 Y212.746 E77.40573
G1 X184.939 Y204.497 E77.84937
G1 X168.544 Y188.221 E78.71850
G1 X161.293 Y181.148 E79.09958
G1 X155.166 Y175.496 E79.41318
G1 X152.539 Y173.347 E79.54086
G1 X150.376 Y171.786 E79.64122
G1 X148.677 Y170.875 E79.71374
G1 X147.557 Y170.476 E79.75847
G1 X147.460 Y170.704 E79.76779
G1 X146.402 Y171.514 E79.81792
G1 X144.904 Y172.892 E79.89450
G1 X142.997 Y174.739 E79.99437
G1 X138.121 Y179.792 E80.25855
G1 X132.004 Y186.207 E80.59202
G1 X124.761 Y193.747 E80.98536
G1 X116.510 Y201.999 E81.42438
G1 X107.421 Y210.671 E81.89699
G1 X97.695 Y219.389 E82.38837
G1 X85.637 Y229.428 E82.97864
G1 X73.417 Y238.860 E83.55939
G1 X61.548 Y247.406 E84.10962
G1 X50.387 Y254.708 E84.61139
G1 X40.429 Y260.517 E85.04510
G1 X32.132 Y264.488 E85.39116
G1 X28.724 Y265.721 E85.52750
G1 X25.810 Y266.304 E85.63930
G1 X23.417 Y266.248 E85.72935
G1 X21.534 Y265.251 E85.80951
G1 X20.180 Y263.049 E85.90676
G1 X19.662 Y260.290 E86.01237
G1 X19.895 Y257.031 E86.13529
G1 X20.776 Y253.329 E86.27845
G1 X24.324 Y244.519 E86.63576
G1 X29.894 Y234.326 E87.07276
G1 X37.067 Y223.063 E87.57512
G1 X45.680 Y211.124 E88.12896
G1 X55.229 Y198.905 E88.71237
G1 X65.439 Y186.855 E89.30656
G1 X74.586 Y176.816 E89.81750
G1 X83.664 Y167.502 E90.30680
G1 X92.333 Y158.892 E90.76646
G1 X100.231 Y151.289 E91.17890
G1 X103.796 Y147.904 E91.36385
G1 X109.858 Y142.079 E91.68013
G1 X112.298 Y139.639 E91.80995
G1 X114.265 Y137.555 E91.91776
G1 X115.705 Y135.934 E91.99933
G1 X116.559 Y134.714 E92.05535
G1 X116.797 Y134.239 E92.07534
G1 X116.583 Y133.381 E92.10861
G1 X115.837 Y132.013 E92.16723
G1 X114.444 Y130.378 E92.24804
G1 X112.530 Y128.404 E92.35148
G1 X107.293 Y123.643 E92.61775
G1 X92.736 Y111.107 E93.34048
G1 X84.258 Y103.281 E93.77455
G1 X75.420 Y94.503 E94.24318
G1 X66.689 Y84.643 E94.73865
G1 X47.872 Y61.553 E95.85925
G1 X39.438 Y50.623 E96.37863
G1 X32.136 Y40.532 E96.84723
G1 X26.393 Y31.591 E97.24702
G1 X22.549 Y23.904 E97.57035
G1 X21.494 Y20.683 E97.69786
G1 X21.089 Y17.838 E97.80598
G1 X21.430 Y15.393 E97.89885
G0 F10500 X21.815 Y15.523
G0 X22.656 Y15.897
G0 X23.052 Y15.952
G1 F1800 X22.799 Y17.781 E97.96831
G1 X23.166 Y20.286 E98.06356
G1 X24.191 Y23.301 E98.18336
G1 X27.890 Y30.700 E98.49457
G1 X33.606 Y39.570 E98.89156
G1 X40.860 Y49.620 E99.35785
G1 X49.240 Y60.437 E99.87263
G1 X58.450 Y71.904 E100.42595
G1 X68.018 Y83.552 E100.99305
G1 X76.641 Y93.305 E101.48281
G1 X85.443 Y102.048 E101.94955
G1 X93.885 Y109.777 E102.38015
G1 X101.671 Y116.551 E102.76841
G1 X108.436 Y122.308 E103.10260
G1 X113.712 Y127.110 E103.37099
G1 X117.245 Y130.995 E103.56855
G1 X118.214 Y132.706 E103.64253
G1 X118.543 Y134.299 E103.70372
G1 X118.053 Y135.607 E103.75627
G1 X117.078 Y136.983 E103.81971
G1 X115.539 Y138.758 E103.90810
G1 X113.537 Y140.879 E104.01782
G1 X108.194 Y146.103 E104.29895
G1 X93.520 Y160.183 E105.06403
G1 X84.903 Y168.681 E105.51933
G1 X75.868 Y178.013 E106.00800
G1 X66.774 Y187.999 E106.51612
G1 X56.608 Y200.006 E107.10800
G1 X47.038 Y212.193 E107.69096
G1 X38.536 Y224.084 E108.24089
G1 X31.338 Y235.208 E108.73936
G1 X25.860 Y245.331 E109.17239
G1 X22.459 Y253.802 E109.51580
G1 X21.616 Y257.294 E109.65095
G1 X21.434 Y260.266 E109.76297
G1 X21.805 Y262.493 E109.84790
G1 X22.778 Y264.114 E109.91903
G1 X23.811 Y264.527 E109.96088
G1 X25.566 Y264.590 E110.02695
G1 X28.234 Y263.984 E110.12988
G1 X31.472 Y262.844 E110.25903
G1 X39.637 Y259.031 E110.59805
G1 X49.456 Y253.258 E111.02657
G1 X60.516 Y246.004 E111.52417
G1 X72.405 Y237.503 E112.07402
G1 X84.532 Y228.111 E112.65108
G1 X96.538 Y218.124 E113.23860
G1 X106.229 Y209.445 E113.72802
G1 X115.263 Y200.767 E114.19930
G1 X123.465 Y192.565 E114.63568
G1 X130.774 Y185.019 E115.03090
G1 X136.891 Y178.545 E115.36598
G1 X141.755 Y173.503 E115.62955
G1 X143.715 Y171.602 E115.73227
G1 X145.292 Y170.201 E115.81163
G1 X146.503 Y169.278 E115.86891
G1 X147.740 Y168.848 E115.91818
G1 X149.454 Y169.235 E115.98429
G1 X151.360 Y170.332 E116.06702
G1 X153.657 Y171.981 E116.17340
G1 X156.261 Y174.171 E116.30141
G1 X162.541 Y179.858 E116.62014
G1 X169.785 Y186.984 E117.00243
G1 X177.746 Y194.944 E117.42596
G1 X186.182 Y203.261 E117.87164
G1 X194.620 Y211.462 E118.31432
G1 X202.763 Y219.071 E118.73360
G1 X214.770 Y229.473 E119.33125
G1 X226.538 Y239.102 E119.90329
G1 X237.834 Y247.662 E120.43650
G1 X248.304 Y254.860 E120.91449
G1 X257.593 Y260.338 E121.32020
G1 X265.408 Y263.858 E121.64266
G1 X268.597 Y264.820 E121.76797
G1 X271.272 Y265.186 E121.86954
G1 X273.269 Y264.936 E121.94526
G1 X274.680 Y264.165 E122.00575
G1 X276.002 Y262.467 E122.08671
G1 X276.623 Y260.292 E122.17181
G1 X276.623 Y257.607 E122.27282
G1 X276.018 Y254.462 E122.39331
G1 X272.971 Y246.873 E122.70097
G1 X267.966 Y237.937 E123.08629
G1 X261.304 Y227.884 E123.54000
G1 X253.339 Y216.946 E124.04904
G1 X244.604 Y205.420 E124.59312
G1 X235.393 Y193.534 E125.15884
G1 X226.595 Y182.893 E125.67827
G1 X217.499 Y172.845 E126.18818
G1 X208.523 Y163.632 E126.67208
G1 X200.204 Y155.373 E127.11310
G1 X192.897 Y148.303 E127.49561
G1 X189.809 Y145.275 E127.65831
G1 X187.138 Y142.604 E127.80042
G1 X184.955 Y140.301 E127.91980
G1 X183.300 Y138.352 E128.01599
G1 X182.150 Y136.859 E128.08689
G1 X181.714 Y135.332 E128.14664
G1 X182.096 Y134.027 E128.19779
G1 X182.952 Y132.600 E128.26040
G1 X186.090 Y128.751 E128.44723
G1 X190.825 Y123.601 E128.71042
G1 X196.883 Y117.307 E129.03907
G1 X204.012 Y109.998 E129.42318
G1 X211.856 Y101.798 E129.85009
G1 X220.116 Y92.764 E130.31061
G1 X228.555 Y83.197 E130.79055
G1 X238.417 Y71.613 E131.36289
G1 X248.041 Y60.384 E131.91927
G1 X256.955 Y49.568 E132.44656
G1 X264.747 Y39.517 E132.92501
G1 X270.763 Y30.404 E133.33582
G1 X274.644 Y22.581 E133.66436
G1 X275.610 Y19.263 E133.79437
G1 X275.914 Y16.399 E133.90272
G1 X275.419 Y13.987 E133.99535
G1 X274.237 Y11.995 E134.08249
G1 X272.426 Y10.560 E134.16942
G1 X270.013 Y9.817 E134.26441
G1 X267.152 Y9.817 E134.37204
G1 X263.830 Y10.361 E134.49868
G1 X255.763 Y13.468 E134.82391
G1 X246.349 Y18.651 E135.22820
G1 X235.936 Y25.614 E135.69946
G1 X224.934 Y33.999 E136.21988
G1 X213.640 Y43.331 E136.77105
G1 X202.407 Y53.197 E137.33350
G1 X192.897 Y61.994 E137.82088
G1 X183.981 Y70.790 E138.29207
G1 X175.722 Y79.228 E138.73627
G1 X168.298 Y86.949 E139.13923
G1 X161.829 Y93.536 E139.48657
G1 X156.484 Y98.703 E139.76625
G1 X152.361 Y102.119 E139.96768
G1 X150.808 Y103.097 E140.03673
G1 X149.322 Y103.483 E140.09449
G1 X147.897 Y103.154 E140.14951
G1 X146.349 Y102.236 E140.21722
G1 X142.393 Y99.166 E140.40560
G1 X137.354 Y94.483 E140.66440
G1 X116.982 Y74.705 E141.73259
G1 X109.015 Y67.392 E142.13945
G1 X100.811 Y60.317 E142.54701
G1 X88.389 Y50.391 E143.14521
G1 X75.848 Y40.941 E143.73597
G1 X63.723 Y32.322 E144.29563
G1 X52.364 Y24.949 E144.80510
G1 X42.188 Y19.116 E145.24637
G1 X33.722 Y15.301 E145.59571
G1 X30.177 Y14.220 E145.73514
G1 X27.329 Y13.795 E145.84347
G1 X25.214 Y13.981 E145.92335
G1 X23.842 Y14.701 E145.98164
G1 X23.052 Y15.952 E146.03730
G1 F1500 E144.53730
G1 Z0.500
G0 F10500 X88.035 Y76.764
G1 Z0.400
G1 F1500 E146.03730
G1 F1800 X89.274 Y75.525 E146.10322
G1 X207.704 Y194.015 E152.40580
G1 X206.473 Y195.202 E152.47014
G1 X88.035 Y76.764 E158.77155
G1 F1500 E157.27155
G1 Z0.500
G0 F10500 X154.859 Y128.383
G1 Z0.400
G1 F1500 E158.77155
G1 F1800 X216.151 Y67.090 E162.03257
G1 X217.390 Y68.329 E162.09849
G1 X156.098 Y129.622 E165.35951
G1 X154.859 Y128.383 E165.42543
G1 F1500 E163.92543
G1 Z0.500
G0 F10500 X140.235 Y143.006
G1 Z0.400
G1 F1500 E165.42543
G1 F1800 X141.423 Y144.237 E165.48979
G1 X80.368 Y205.292 E168.73818
G1 X79.180 Y204.061 E168.80254
G1 X140.235 Y143.006 E172.05093
G1 F1500 E170.55093
G1 Z0.500
G0 F10500 X140.235 Y143.006 Z5.593
M400
M104 S0                                        ; Hotend off
M140 S0                                        ;heated bed heater off (if you have it)
M107                                             ; fans off
G91                                                ;relative positioning
G1 E-1 F300                                  ;retract the filament a bit before lifting the nozzle, to release some of the pressure
G1 Z+0.5 E-5 X-20 Y-20 F3000    ;move Z up a bit and retract filament even more
M84                                                 ;steppers off
G90                                                 ;absolute positioning
;CURA_PROFILE_STRING:eNrtWk1v2zgQvQrG/ggeW2zrlWQ7aWvo0K90D8kiQLLYNheBlmibW0kUSCqOE/i/7yNFK3Kidp02/bYPSTiaGQ6Hb+ZNEmV0yWQ8Z3w215HfH3oLmmWxnvPkfcGUivp7nmRa0kRzUcSsoJOMRaeyYp4SGU/jzNpf6/v9J0NvyuEjZYXiehn5Xskkz5mG3oRNhWQxL4xG7aYQl5cZixW/ZFF/5JWSFzpWJWNptOe7pWY5fFBdSRZ1yMIu4aBLOOwSjhrhhKU39lJVWQqpo79Ewbwyoxrx5zFN50whH7XY6cRpRbOYXWhZ2WcvhJ57C16yWIsFk9EBzRRrCeJzkVU5i4KRJ8QlMjDnLEudGvJDc4aQUk5t6qKw/2R0W2yOfks46BIOu4SjtnCaiUUU+H7fb195fRXhqC2juagKHQX9Dak9//rR3uaznBcxFucsu2mViHzCi1n0PMtuGPB8I5+IK2xrzEUJWeBNhNYi34Dg0LOw9OMFT/U8nsJCSHM0T0z+ZQnwxYv3xqEnzpnMaGljRy7qEN2Zg/3R2nmN8lo88L0av25t3NhaoJLRlowXimnfCYZufeHWI99LhMhsXlwJ8RoLU7ous9TV2XsOcGW8YMiVza0TzWgZDczmdrVOWMaKmZ7Dk4nBOJtWCNUVeO2+CalZxDm9iHDcJqYphCgCROQCnTOKYudT7QBaV7/GHbTXdbquMZzFLsHXpRTrZcmiQxxHNSJazNBV9q51rGm9/6gRXiyBW6VpkaAy+/uN/LItNvollzQz/cSFxvMSHSYX6VoyQT9qZzQE4ukUOaRyxoto1Hdrq6JKmhiADtbSCVVsA26DltyYWNQB504fnYVJYHDTKNy/+fTa1CDYPqRc4pZjtGQLqZbMeAhrgaqcvcGRim5Iu/ZsLDZ2nPILFJWUHNiLq8IWuuEC3FdMayx+TGXSXHtbBykRJSviCdeqSwH1bXjiHHnWXCdzk+larcwqXAZuCMU2i9aVmzCTr/giehzcEC2NqL7rI1z1CdMazlTUkh1LAWSxKIwLtHGatR4dAWySowkEMdr8b8CT1P1ZYjAzPp1zRd6Yn8mcKjJhrCAzVhiWYClBASV8yhMkYklAD0TPGTmssksQADl9fkaGvfFJxhOoUv2MXKV0uTJfNcM3U/Wr3vgFVTwhyoX8jByaqyR10cIka5H0ivyDnaBztcnUK3KAooG4Tb5wfeDaO3nlen6tsskD0Ds2DEhMPFBwHFkHdxQ89cnJVSdFrsj47wIt3O6gBaFpSpaikkQsCiQqJS1dYuBm3PlPG3fburrl5k0YEPcZ4wgS6TunWcVU7w2iXT+hE/SlSjNSCqQDcEV6e0dPwkYBKSeWYlLk22y6NjDdoodQ9xtNgwiy4HpuLxitk4jpFHE8IW998s43caDZkbd/vDOO0EQJK1KFDqms0pnvgjVKZ7dVAnIWoPGQg6s2Ca2cgdlyPX6Q1GQkGOU5zhqS181xrz/jSyaFNXKHS0nNC2afg9D3b1mNnSIZ5DkORgwBEISWvL/7JoTOKC/sVpuH6R2F/oC8DeDwXegjJwPk1TzBneZoEB7S4YruaOj7Jv9DctKxdfdnTP4U6CapvZijYOjfxRYEZ6rZYNb+KI0X8oBPDQhR97gErh+2IbFtUICKqrHyNCB3/Iwlw62jPW4gGJl9/RjZHfj+Vi7szFTDdt0NKEFHJvU8Tgyvw6/VqOfxRwag2JuB04gSOTOYsCCU6DWoQgvY3/3+CJGMyNvHIWrAfDEx+W2gV6Xbi+Ji1qE0YbBz9NIcMaAqh+TO2VGalegL6/T6d/fQ2SHG6E6WKUBKaFOzlWerP1wTwjds5x9u002jB+em7SZfj+SrvCVa1HvPWlaJULptZdZfpPkPP7/51xxyGnR5Cj/Jlf9tGen/eebeiOYTmaZ3+oHeNT5ZmLnN7GNMQ1T5mlA/h54Cv5ueAv9e+cnu9fiq+7fYFU7tb3XqKZdK/0jnvsHL4+NKE4t/QwM5+g+doeUX5PDlK6ISiYkXIA32ybHT6ff7PcPWTUt8jXt/89INTUNbUN2pGzfj1jXNOpvgjjYfJvht2XxbSv4sGv7KBNxZ1dvzcKvPfPRQH+pBjxCtDdT8xYDgFycBaLnYF3TZ+yjRb0/oWxJ3r2buwY65d8z9yzJ3+Esy925e2c0rt+aVwbecV4xNuJtxdjPOF5lxhrsZ57uaccL7m3F249LXHJcGW1HoEHH/TIPDdkPi4Cc79W5I3A2Jt4bE4Y82JBqbwW6w3A2W9z5Yulds2q9DNMLrf9bWrwhtKFlJS0MycG3C+ok6jzxcQ91qXjtoNqNr3YAmTC/MSxbm2EklpU3yGsXmCuxVQ9JIH5HFHAZNtduxIq8yzcusaRlS9Xv1yxz2XQ58x6BjgW5xZJyePige9jxkRX9PAdKpKcImvv8A1lcAVw==


