;Generated by Cura LulzBot Edition GCodeWriter Version: 3.6.21
;FLAVOR:Marlin
;TIME:16701
;Filament used: 15.4876m
;Layer height: 0.38
;Generated with Cura_SteamEngine 3.6.21
M82 ;absolute extrusion mode
;This G-Code has been generated specifically for the LulzBot TAZ 5 with standard extruder
M75			 ; start GLCD timer
M140 S110.0    ; start bed heating up
G90                      ; absolute positioning
M107                     ; disable fans
M82                      ; set extruder to absolute mode
G28 X0 Y0                ; home X and Y
G28 Z0                   ; home Z
G1 Z15.0 F175 ; move extruder up
M117 Heating...                     ; progress indicator message on LCD
M109 R245  ; wait for extruder to reach printing temp
M190 R110.0    ; wait for bed to reach printing temp
G92 E0                   ; set extruder position to 0
G1 F200 E0               ; prime the nozzle with filament
G92 E0                   ; re-set extruder position to 0
G1 F175       ; set travel speed
M203 X192 Y208 Z3        ; set limits on travel speed
M117 TAZ 5 Printing...   ; progress indicator message on LCD

M221 S100 T0
G92 E0
G1 F600 E-1
;LAYER_COUNT:277
;LAYER:0
M107
G0 F2625 X43.499 Y92.574 Z0.425
;TYPE:SKIRT
G1 F600 E0
G1 F900 X44.081 Y92.373 E0.02051
G1 X44.685 Y92.25 E0.04104
G1 X45.331 Y92.206 E0.06261
G1 X244.669 Y92.206 E6.70263
G1 X245.284 Y92.246 E6.72316
G1 X245.888 Y92.365 E6.74367
G1 X246.472 Y92.562 E6.7642
G1 X247.026 Y92.832 E6.78473
G1 X247.54 Y93.172 E6.80525
G1 X248.028 Y93.597 E6.82681
G1 X248.174 Y93.743 E6.83369
G1 X248.58 Y94.206 E6.8542
G1 X248.923 Y94.718 E6.87473
G1 X249.197 Y95.27 E6.89526
G1 X249.398 Y95.852 E6.91577
G1 X249.521 Y96.456 E6.9363
G1 X249.565 Y97.102 E6.95787
G1 X249.565 Y177.649 E9.64092
G1 X249.525 Y178.264 E9.66145
G1 X249.406 Y178.868 E9.68195
G1 X249.209 Y179.452 E9.70248
G1 X248.939 Y180.006 E9.72301
G1 X248.599 Y180.52 E9.74354
G1 X248.174 Y181.008 E9.7651
G1 X248.028 Y181.154 E9.77197
G1 X247.565 Y181.56 E9.79249
G1 X247.053 Y181.903 E9.81301
G1 X246.501 Y182.177 E9.83354
G1 X245.919 Y182.378 E9.85405
G1 X245.315 Y182.501 E9.87459
G1 X244.669 Y182.545 E9.89615
G1 X45.332 Y182.545 E16.53614
G1 X44.717 Y182.505 E16.55667
G1 X44.113 Y182.386 E16.57718
G1 X43.529 Y182.189 E16.59771
G1 X42.975 Y181.919 E16.61824
G1 X42.461 Y181.579 E16.63876
G1 X41.973 Y181.154 E16.66032
G1 X41.827 Y181.008 E16.6672
G1 X41.421 Y180.545 E16.68771
G1 X41.078 Y180.033 E16.70824
G1 X40.804 Y179.481 E16.72877
G1 X40.603 Y178.899 E16.74928
G1 X40.48 Y178.295 E16.76981
G1 X40.436 Y177.649 E16.79138
G1 X40.435 Y97.102 E19.47443
G1 X40.475 Y96.487 E19.49496
G1 X40.594 Y95.883 E19.51546
G1 X40.791 Y95.299 E19.53599
G1 X41.061 Y94.745 E19.55652
G1 X41.401 Y94.231 E19.57705
G1 X41.826 Y93.743 E19.59861
G1 X41.972 Y93.597 E19.60548
G1 X42.435 Y93.191 E19.626
G1 X42.947 Y92.848 E19.64652
G1 X43.499 Y92.574 E19.66705
G0 F2625 X43.779 Y92.999
G1 F900 X44.335 Y92.824 E19.68647
G1 X44.91 Y92.727 E19.70589
G1 X45.331 Y92.706 E19.71993
G1 X244.669 Y92.706 E26.35995
G1 X245.25 Y92.746 E26.37935
G1 X245.821 Y92.865 E26.39878
G1 X246.37 Y93.061 E26.4182
G1 X246.886 Y93.33 E26.43758
G1 X247.362 Y93.668 E26.45703
G1 X247.674 Y93.951 E26.47106
G1 X247.82 Y94.097 E26.47794
G1 X248.203 Y94.536 E26.49735
G1 X248.522 Y95.024 E26.51677
G1 X248.772 Y95.55 E26.53617
G1 X248.947 Y96.106 E26.55558
G1 X249.044 Y96.681 E26.57501
G1 X249.065 Y97.102 E26.58905
G1 X249.065 Y177.649 E29.2721
G1 X249.025 Y178.23 E29.2915
G1 X248.906 Y178.801 E29.31092
G1 X248.71 Y179.35 E29.33034
G1 X248.441 Y179.866 E29.34973
G1 X248.103 Y180.342 E29.36917
G1 X247.82 Y180.654 E29.3832
G1 X247.674 Y180.8 E29.39008
G1 X247.235 Y181.183 E29.40949
G1 X246.747 Y181.502 E29.42891
G1 X246.221 Y181.752 E29.44831
G1 X245.665 Y181.927 E29.46772
G1 X245.09 Y182.024 E29.48715
G1 X244.669 Y182.045 E29.50119
G1 X45.332 Y182.045 E36.14118
G1 X44.751 Y182.005 E36.16058
G1 X44.18 Y181.886 E36.18
G1 X43.631 Y181.69 E36.19942
G1 X43.115 Y181.421 E36.21881
G1 X42.639 Y181.083 E36.23825
G1 X42.327 Y180.8 E36.25228
G1 X42.181 Y180.654 E36.25916
G1 X41.798 Y180.215 E36.27857
G1 X41.479 Y179.727 E36.29799
G1 X41.229 Y179.201 E36.31739
G1 X41.054 Y178.645 E36.3368
G1 X40.957 Y178.07 E36.35623
G1 X40.936 Y177.649 E36.37027
G1 X40.935 Y97.102 E39.05332
G1 X40.975 Y96.521 E39.07272
G1 X41.094 Y95.95 E39.09215
G1 X41.29 Y95.401 E39.11156
G1 X41.559 Y94.885 E39.13095
G1 X41.897 Y94.409 E39.15039
G1 X42.18 Y94.097 E39.16443
G1 X42.326 Y93.951 E39.1713
G1 X42.765 Y93.568 E39.19071
G1 X43.253 Y93.249 E39.21013
G1 X43.779 Y92.999 E39.22953
G0 F2625 X44.055 Y93.43
G1 F900 X44.582 Y93.282 E39.24776
G1 X45.331 Y93.206 E39.27284
G1 X244.669 Y93.206 E45.91286
G1 X245.215 Y93.246 E45.9311
G1 X245.749 Y93.365 E45.94932
G1 X246.26 Y93.56 E45.96754
G1 X246.738 Y93.828 E45.9858
G1 X247.321 Y94.304 E46.01087
G1 X247.467 Y94.45 E46.01774
G1 X247.824 Y94.865 E46.03598
G1 X248.118 Y95.327 E46.05422
G1 X248.341 Y95.826 E46.07243
G1 X248.489 Y96.353 E46.09066
G1 X248.565 Y97.102 E46.11574
G1 X248.565 Y177.649 E48.79879
G1 X248.525 Y178.195 E48.81702
G1 X248.406 Y178.729 E48.83525
G1 X248.211 Y179.24 E48.85347
G1 X247.943 Y179.718 E48.87172
G1 X247.467 Y180.301 E48.89679
G1 X247.321 Y180.447 E48.90367
G1 X246.906 Y180.804 E48.9219
G1 X246.444 Y181.098 E48.94014
G1 X245.945 Y181.321 E48.95835
G1 X245.418 Y181.469 E48.97658
G1 X244.669 Y181.545 E49.00166
G1 X45.332 Y181.545 E55.64165
G1 X44.786 Y181.505 E55.65989
G1 X44.252 Y181.386 E55.67811
G1 X43.741 Y181.191 E55.69633
G1 X43.263 Y180.923 E55.71458
G1 X42.68 Y180.447 E55.73965
G1 X42.534 Y180.301 E55.74653
G1 X42.177 Y179.886 E55.76477
G1 X41.883 Y179.424 E55.78301
G1 X41.66 Y178.925 E55.80121
G1 X41.512 Y178.398 E55.81945
G1 X41.436 Y177.649 E55.84452
G1 X41.435 Y97.102 E58.52757
G1 X41.475 Y96.556 E58.54581
G1 X41.594 Y96.022 E58.56403
G1 X41.789 Y95.511 E58.58225
G1 X42.057 Y95.033 E58.60051
G1 X42.533 Y94.45 E58.62558
G1 X42.679 Y94.304 E58.63246
G1 X43.094 Y93.947 E58.65069
G1 X43.556 Y93.653 E58.66893
G1 X44.055 Y93.43 E58.68714
G0 F2625 X43.855 Y94.061
G1 F900 X44.325 Y93.866 E58.70409
G1 X44.821 Y93.746 E58.72109
G1 X45.331 Y93.706 E58.73813
G1 X244.669 Y93.706 E65.37815
G1 X245.177 Y93.746 E65.39512
G1 X245.672 Y93.865 E65.41208
G1 X246.143 Y94.06 E65.42906
G1 X246.578 Y94.326 E65.44605
G1 X246.967 Y94.658 E65.46308
G1 X247.113 Y94.804 E65.46996
G1 X247.444 Y95.191 E65.48692
G1 X247.71 Y95.626 E65.50391
G1 X247.905 Y96.096 E65.52086
G1 X248.025 Y96.592 E65.53785
G1 X248.065 Y97.102 E65.55489
G1 X248.065 Y177.649 E68.23794
G1 X248.025 Y178.157 E68.25492
G1 X247.906 Y178.652 E68.27188
G1 X247.711 Y179.123 E68.28886
G1 X247.445 Y179.558 E68.30584
G1 X247.113 Y179.947 E68.32288
G1 X246.967 Y180.093 E68.32976
G1 X246.58 Y180.424 E68.34672
G1 X246.145 Y180.69 E68.3637
G1 X245.675 Y180.885 E68.38065
G1 X245.179 Y181.005 E68.39765
G1 X244.669 Y181.045 E68.41469
G1 X45.332 Y181.045 E75.05468
G1 X44.824 Y181.005 E75.07165
G1 X44.329 Y180.886 E75.08861
G1 X43.858 Y180.691 E75.10559
G1 X43.423 Y180.425 E75.12258
G1 X43.034 Y180.093 E75.13961
G1 X42.888 Y179.947 E75.14649
G1 X42.557 Y179.56 E75.16345
G1 X42.291 Y179.125 E75.18044
G1 X42.096 Y178.655 E75.19739
G1 X41.976 Y178.159 E75.21439
G1 X41.936 Y177.649 E75.23143
G1 X41.935 Y97.102 E77.91448
G1 X41.975 Y96.594 E77.93145
G1 X42.094 Y96.099 E77.94841
G1 X42.289 Y95.628 E77.96539
G1 X42.555 Y95.193 E77.98237
G1 X42.887 Y94.804 E77.99941
G1 X43.033 Y94.658 E78.00629
G1 X43.42 Y94.327 E78.02325
G1 X43.855 Y94.061 E78.04023
G0 F2625 X44.149 Y94.473
G1 F900 X44.588 Y94.308 E78.05586
G1 X45.048 Y94.221 E78.07145
G1 X45.331 Y94.206 E78.08089
G1 X244.669 Y94.206 E84.72091
G1 X245.136 Y94.246 E84.73652
G1 X245.589 Y94.365 E84.75213
G1 X246.016 Y94.558 E84.76773
G1 X246.403 Y94.822 E84.78334
G1 X246.614 Y95.011 E84.79277
G1 X246.76 Y95.157 E84.79965
G1 X247.061 Y95.516 E84.81526
G1 X247.298 Y95.92 E84.83086
G1 X247.463 Y96.359 E84.84648
G1 X247.55 Y96.819 E84.86208
G1 X247.565 Y97.102 E84.87152
G1 X247.565 Y177.649 E87.55457
G1 X247.525 Y178.116 E87.57018
G1 X247.406 Y178.569 E87.58578
G1 X247.213 Y178.996 E87.60139
G1 X246.949 Y179.383 E87.61699
G1 X246.76 Y179.594 E87.62643
G1 X246.614 Y179.74 E87.63331
G1 X246.255 Y180.041 E87.64891
G1 X245.851 Y180.278 E87.66452
G1 X245.412 Y180.443 E87.68014
G1 X244.952 Y180.53 E87.69573
G1 X244.669 Y180.545 E87.70517
G1 X45.332 Y180.545 E94.34516
G1 X44.865 Y180.505 E94.36077
G1 X44.412 Y180.386 E94.37637
G1 X43.985 Y180.193 E94.39198
G1 X43.598 Y179.929 E94.40759
G1 X43.387 Y179.74 E94.41702
G1 X43.241 Y179.594 E94.4239
G1 X42.94 Y179.235 E94.43951
G1 X42.703 Y178.831 E94.45511
G1 X42.538 Y178.392 E94.47073
G1 X42.451 Y177.932 E94.48633
G1 X42.436 Y177.649 E94.49577
G1 X42.435 Y97.102 E97.17882
G1 X42.475 Y96.635 E97.19443
G1 X42.594 Y96.182 E97.21003
G1 X42.787 Y95.755 E97.22564
G1 X43.051 Y95.368 E97.24124
G1 X43.24 Y95.157 E97.25068
G1 X43.386 Y95.011 E97.25756
G1 X43.745 Y94.71 E97.27316
G1 X44.149 Y94.473 E97.28877
G0 F2625 X44.438 Y94.891
G1 F900 X44.841 Y94.76 E97.30288
G1 X45.331 Y94.706 E97.3193
G1 X244.669 Y94.706 E103.95932
G1 X245.091 Y94.746 E103.97344
G1 X245.498 Y94.864 E103.98756
G1 X245.875 Y95.057 E104.00167
G1 X246.26 Y95.365 E104.01809
G1 X246.406 Y95.511 E104.02497
G1 X246.676 Y95.838 E104.03909
G1 X246.88 Y96.209 E104.0532
G1 X247.011 Y96.612 E104.06731
G1 X247.065 Y97.102 E104.08373
G1 X247.065 Y177.649 E106.76678
G1 X247.025 Y178.071 E106.7809
G1 X246.907 Y178.478 E106.79502
G1 X246.714 Y178.855 E106.80913
G1 X246.406 Y179.24 E106.82555
G1 X246.26 Y179.386 E106.83243
G1 X245.933 Y179.656 E106.84655
G1 X245.562 Y179.86 E106.86066
G1 X245.159 Y179.991 E106.87477
G1 X244.669 Y180.045 E106.89119
G1 X45.332 Y180.045 E113.53118
G1 X44.91 Y180.005 E113.5453
G1 X44.503 Y179.887 E113.55941
G1 X44.126 Y179.694 E113.57352
G1 X43.741 Y179.386 E113.58995
G1 X43.595 Y179.24 E113.59682
G1 X43.325 Y178.913 E113.61095
G1 X43.121 Y178.542 E113.62505
G1 X42.99 Y178.139 E113.63917
G1 X42.936 Y177.649 E113.65559
G1 X42.935 Y97.102 E116.33864
G1 X42.975 Y96.68 E116.35276
G1 X43.093 Y96.273 E116.36687
G1 X43.286 Y95.896 E116.38098
G1 X43.594 Y95.511 E116.39741
G1 X43.74 Y95.365 E116.40428
G1 X44.067 Y95.095 E116.41841
G1 X44.438 Y94.891 E116.43251
G0 F2625 X44.718 Y95.317
G1 F900 X45.08 Y95.224 E116.44496
G1 X45.331 Y95.206 E116.45334
G1 X244.669 Y95.206 E123.09336
G1 X245.04 Y95.246 E123.10579
G1 X245.395 Y95.364 E123.11826
G1 X245.717 Y95.554 E123.13071
G1 X245.906 Y95.719 E123.13907
G1 X246.052 Y95.865 E123.14595
G1 X246.287 Y96.155 E123.15838
G1 X246.454 Y96.489 E123.17082
G1 X246.547 Y96.851 E123.18327
G1 X246.565 Y97.102 E123.19165
G1 X246.565 Y177.649 E125.8747
G1 X246.525 Y178.02 E125.88713
G1 X246.407 Y178.375 E125.89959
G1 X246.217 Y178.697 E125.91204
G1 X246.052 Y178.886 E125.9204
G1 X245.906 Y179.032 E125.92728
G1 X245.616 Y179.267 E125.93971
G1 X245.282 Y179.434 E125.95215
G1 X244.92 Y179.527 E125.9646
G1 X244.669 Y179.545 E125.97298
G1 X45.332 Y179.545 E132.61297
G1 X44.961 Y179.505 E132.6254
G1 X44.606 Y179.387 E132.63786
G1 X44.284 Y179.197 E132.65032
G1 X44.095 Y179.032 E132.65867
G1 X43.949 Y178.886 E132.66555
G1 X43.714 Y178.596 E132.67798
G1 X43.547 Y178.262 E132.69042
G1 X43.454 Y177.9 E132.70287
G1 X43.436 Y177.649 E132.71126
G1 X43.435 Y97.102 E135.39431
G1 X43.475 Y96.731 E135.40674
G1 X43.593 Y96.376 E135.4192
G1 X43.783 Y96.054 E135.43165
G1 X43.948 Y95.865 E135.44001
G1 X44.094 Y95.719 E135.44689
G1 X44.384 Y95.484 E135.45932
G1 X44.718 Y95.317 E135.47176
G0 F2625 X44.987 Y95.754
G1 F900 X45.331 Y95.706 E135.48333
G1 X244.669 Y95.706 E142.12335
G1 X244.982 Y95.746 E142.13386
G1 X245.275 Y95.863 E142.14437
G1 X245.553 Y96.072 E142.15595
G1 X245.699 Y96.218 E142.16283
G1 X245.892 Y96.468 E142.17335
G1 X246.017 Y96.758 E142.18387
G1 X246.065 Y97.102 E142.19544
G1 X246.065 Y177.649 E144.87849
G1 X246.025 Y177.962 E144.889
G1 X245.908 Y178.255 E144.89951
G1 X245.699 Y178.533 E144.9111
G1 X245.553 Y178.679 E144.91797
G1 X245.303 Y178.872 E144.92849
G1 X245.013 Y178.997 E144.93901
G1 X244.669 Y179.045 E144.95058
G1 X45.332 Y179.045 E151.59057
G1 X45.019 Y179.005 E151.60108
G1 X44.726 Y178.888 E151.61159
G1 X44.448 Y178.679 E151.62318
G1 X44.302 Y178.533 E151.63005
G1 X44.109 Y178.283 E151.64057
G1 X43.984 Y177.993 E151.65109
G1 X43.936 Y177.649 E151.66266
G1 X43.935 Y97.102 E154.34571
G1 X43.975 Y96.789 E154.35622
G1 X44.092 Y96.496 E154.36673
G1 X44.301 Y96.218 E154.37832
G1 X44.447 Y96.072 E154.3852
G1 X44.697 Y95.879 E154.39572
G1 X44.987 Y95.754 E154.40624
G0 F2625 X44.999 Y96.283
G1 F900 X45.331 Y96.206 E154.41759
G1 X244.669 Y96.206 E161.05761
G1 X244.91 Y96.246 E161.06575
G1 X245.199 Y96.426 E161.07709
G1 X245.345 Y96.572 E161.08397
G1 X245.488 Y96.77 E161.0921
G1 X245.565 Y97.102 E161.10345
G1 X245.565 Y177.649 E163.7865
G1 X245.525 Y177.89 E163.79464
G1 X245.345 Y178.179 E163.80598
G1 X245.199 Y178.325 E163.81286
G1 X245.001 Y178.468 E163.821
G1 X244.669 Y178.545 E163.83235
G1 X45.332 Y178.545 E170.47234
G1 X45.091 Y178.505 E170.48047
G1 X44.802 Y178.325 E170.49182
G1 X44.656 Y178.179 E170.49869
G1 X44.513 Y177.981 E170.50683
G1 X44.436 Y177.649 E170.51818
G1 X44.435 Y97.102 E173.20123
G1 X44.475 Y96.861 E173.20937
G1 X44.655 Y96.572 E173.22071
G1 X44.801 Y96.426 E173.22759
G1 X44.999 Y96.283 E173.23572
G0 F2625 X45.154 Y96.779
G1 F900 X45.331 Y96.706 E173.2421
G1 X244.669 Y96.706 E179.88212
G1 X244.846 Y96.779 E179.8885
G1 X244.992 Y96.925 E179.89538
G1 X245.065 Y97.102 E179.90175
G1 X245.065 Y177.649 E182.5848
G1 X244.992 Y177.826 E182.59118
G1 X244.846 Y177.972 E182.59806
G1 X244.669 Y178.045 E182.60444
G1 X45.332 Y178.045 E189.24442
G1 X45.155 Y177.972 E189.2508
G1 X45.009 Y177.826 E189.25768
G1 X44.936 Y177.649 E189.26406
G1 X44.935 Y97.102 E191.94711
G1 X45.008 Y96.925 E191.95349
G1 X45.154 Y96.779 E191.96036
G1 F600 E190.96036
;MESH:
G0 F2625 X45.949 Y97.72
G0 X243.995 Y176.975
G0 X244.565 Y177.545
;TYPE:WALL-OUTER
G1 F600 E191.96036
G1 F900 X45.436 Y177.545 E198.59342
G1 X45.435 Y97.456 E201.26122
G1 X45.435 Y97.206 E201.26954
G1 X45.685 Y97.206 E201.27493
G1 X244.565 Y97.206 E207.8997
G1 X244.565 Y177.545 E210.57582
G0 F2625 X244.315 Y177.545
G0 X244.065 Y177.045
;TYPE:WALL-INNER
G1 F900 X45.936 Y177.045 E217.17556
G1 X45.935 Y97.956 E219.81005
G1 X45.935 Y97.706 E219.81838
G1 X46.185 Y97.706 E219.82376
G1 X244.065 Y97.706 E226.41522
G1 X244.065 Y177.045 E229.05803
G0 F2625 X243.575 Y176.555
;TYPE:SKIN
G1 F900 X46.426 Y176.555 E235.62513
G1 X46.425 Y98.196 E238.2353
G1 X243.575 Y98.196 E244.80244
G1 X243.575 Y176.555 E247.4126
G0 F2625 X243.349 Y99.099
G1 F900 X242.67 Y98.42 E247.44459
G0 F2625 X241.963 Y98.42
G1 F900 X243.349 Y99.806 E247.50988
G0 F2625 X243.349 Y100.513
G1 F900 X241.256 Y98.42 E247.60848
G0 F2625 X240.549 Y98.42
G1 F900 X243.349 Y101.22 E247.74038
G0 F2625 X243.349 Y101.928
G1 F900 X239.842 Y98.42 E247.90561
G0 F2625 X239.135 Y98.42
G1 F900 X243.349 Y102.635 E248.10415
G0 F2625 X243.349 Y103.342
G1 F900 X238.427 Y98.42 E248.33601
G0 F2625 X237.72 Y98.42
G1 F900 X243.349 Y104.049 E248.60118
G0 F2625 X243.349 Y104.756
G1 F900 X237.013 Y98.42 E248.89966
G0 F2625 X236.306 Y98.42
G1 F900 X243.349 Y105.463 E249.23144
G0 F2625 X243.349 Y106.17
G1 F900 X235.599 Y98.42 E249.59653
G0 F2625 X234.892 Y98.42
G1 F900 X243.349 Y106.877 E249.99492
G0 F2625 X243.349 Y107.584
G1 F900 X234.185 Y98.42 E250.42662
G0 F2625 X233.478 Y98.42
G1 F900 X243.349 Y108.291 E250.89162
G0 F2625 X243.349 Y108.999
G1 F900 X232.771 Y98.42 E251.38995
G0 F2625 X232.063 Y98.42
G1 F900 X243.349 Y109.706 E251.92161
G0 F2625 X243.349 Y110.413
G1 F900 X231.356 Y98.42 E252.48658
G0 F2625 X230.649 Y98.42
G1 F900 X243.349 Y111.12 E253.08485
G0 F2625 X243.349 Y111.827
G1 F900 X229.942 Y98.42 E253.71643
G0 F2625 X229.235 Y98.42
G1 F900 X243.349 Y112.534 E254.38131
G0 F2625 X243.349 Y113.241
G1 F900 X228.528 Y98.42 E255.07949
G0 F2625 X227.821 Y98.42
G1 F900 X243.349 Y113.948 E255.81099
G0 F2625 X243.349 Y114.655
G1 F900 X227.114 Y98.42 E256.57579
G0 F2625 X226.407 Y98.42
G1 F900 X243.349 Y115.363 E257.37391
G0 F2625 X243.349 Y116.07
