;Generated by Cura LulzBot Edition GCodeWriter Version: 3.6.21
;FLAVOR:Marlin
;TIME:22897
;Filament used: 19.7299m
;Layer height: 0.38
;Generated with Cura_SteamEngine 3.6.21
M82 ;absolute extrusion mode
;This G-Code has been generated specifically for the LulzBot TAZ 5 with standard extruder
M75			 ; start GLCD timer
M140 S110.0    ; start bed heating up
G90                      ; absolute positioning
M107                     ; disable fans
M82                      ; set extruder to absolute mode
G28 X0 Y0                ; home X and Y
G28 Z0                   ; home Z
G1 Z15.0 F175 ; move extruder up
M117 Heating...                     ; progress indicator message on LCD
M109 R245  ; wait for extruder to reach printing temp
M190 R110.0    ; wait for bed to reach printing temp
G92 E0                   ; set extruder position to 0
G1 F200 E0               ; prime the nozzle with filament
G92 E0                   ; re-set extruder position to 0
G1 F175       ; set travel speed
M203 X192 Y208 Z3        ; set limits on travel speed
M117 TAZ 5 Printing...   ; progress indicator message on LCD

M221 S100 T0
G92 E0
G1 F600 E-1
;LAYER_COUNT:495
;LAYER:0
M107
G0 F2625 X52.428 Y126.693 Z0.425
;TYPE:SKIRT
G1 F600 E0
G1 F900 X52.924 Y126.574 E0.01699
G1 X53.436 Y126.533 E0.0341
G1 X123.038 Y126.524 E2.35257
G1 X128.577 Y126.367 E2.53715
G1 X134.019 Y125.905 E2.71908
G1 X139.42 Y125.135 E2.9008
G1 X144.844 Y124.047 E3.08508
G1 X147.414 Y123.417 E3.17322
G1 X150.077 Y122.685 E3.26522
G1 X155.304 Y121.004 E3.44811
G1 X160.412 Y119.037 E3.63044
G1 X165.416 Y116.775 E3.81336
G1 X167.838 Y115.556 E3.90368
G1 X172.61 Y112.892 E4.08573
G1 X177.238 Y109.954 E4.26833
G1 X181.686 Y106.763 E4.45068
G1 X185.961 Y103.314 E4.63365
G1 X190.004 Y99.658 E4.81522
G1 X193.849 Y95.76 E4.99761
G1 X197.482 Y91.638 E5.18063
G1 X199.179 Y89.537 E5.27059
G1 X202.446 Y85.125 E5.45346
G1 X205.44 Y80.564 E5.6352
G1 X208.19 Y75.808 E5.8182
G1 X210.653 Y70.932 E6.00017
G1 X212.85 Y65.89 E6.18337
G1 X213.824 Y63.37 E6.27336
G1 X215.586 Y58.16 E6.45657
G1 X216.533 Y54.873 E6.57051
G1 X216.735 Y54.348 E6.58925
G1 X217.757 Y52.254 E6.66687
G1 X218.103 Y51.696 E6.68874
G1 X219.525 Y49.849 E6.76638
G1 X219.978 Y49.371 E6.78832
G1 X221.741 Y47.851 E6.86586
G1 X222.279 Y47.474 E6.88774
G1 X224.306 Y46.343 E6.96506
G1 X224.908 Y46.083 E6.9869
G1 X227.13 Y45.379 E7.06455
G1 X227.777 Y45.244 E7.08656
G1 X230.09 Y45.004 E7.16402
G1 X230.748 Y45.003 E7.18594
G1 X233.064 Y45.234 E7.26347
G1 X233.709 Y45.365 E7.28539
G1 X235.94 Y46.061 E7.36324
G1 X236.547 Y46.321 E7.38524
G1 X238.58 Y47.447 E7.46265
G1 X239.119 Y47.821 E7.4845
G1 X240.884 Y49.332 E7.5619
G1 X241.338 Y49.808 E7.58381
G1 X242.769 Y51.652 E7.66156
G1 X243.117 Y52.209 E7.68344
G1 X244.147 Y54.301 E7.76111
G1 X244.376 Y54.918 E7.78303
G1 X244.962 Y57.168 E7.86048
G1 X245.063 Y57.817 E7.88236
G1 X245.185 Y60.153 E7.96028
G1 X245.15 Y60.823 E7.98263
G1 X244.179 Y67.067 E8.19312
G1 X243.577 Y72.522 E8.37593
G1 X243.285 Y77.981 E8.55803
G1 X243.304 Y83.463 E8.74064
G1 X243.63 Y88.918 E8.92267
G1 X244.265 Y94.349 E9.10481
G1 X245.209 Y99.753 E9.28755
G1 X246.451 Y105.069 E9.46939
G1 X247.182 Y107.694 E9.56016
G1 X248.888 Y112.94 E9.74391
G1 X249.833 Y115.473 E9.83397
G1 X251.964 Y120.521 E10.01649
G1 X254.385 Y125.459 E10.19968
G1 X255.889 Y128.217 E10.30432
G1 X256.097 Y128.682 E10.32129
G1 X256.23 Y129.174 E10.33827
G1 X256.286 Y129.773 E10.35831
G1 X256.288 Y210.607 E13.05092
G1 X256.248 Y211.115 E13.06789
G1 X256.129 Y211.61 E13.08485
G1 X255.934 Y212.081 E13.10183
G1 X255.668 Y212.516 E13.11882
G1 X255.338 Y212.903 E13.13576
G1 X254.891 Y213.277 E13.15517
G1 X252.294 Y215.08 E13.26048
G1 X251.854 Y215.337 E13.27746
G1 X251.38 Y215.521 E13.29439
G1 X250.882 Y215.63 E13.31138
G1 X250.44 Y215.66 E13.32613
G1 X245.449 Y215.658 E13.49238
G1 X244.893 Y215.61 E13.51097
G1 X241.586 Y215.035 E13.62278
G1 X236.135 Y214.338 E13.80584
G1 X230.66 Y213.951 E13.98867
G1 X226.561 Y213.864 E14.12524
G1 X53.427 Y213.854 E19.89239
G1 X52.919 Y213.814 E19.90937
G1 X52.423 Y213.695 E19.92636
G1 X51.953 Y213.5 E19.94331
G1 X51.518 Y213.234 E19.96029
G1 X51.13 Y212.904 E19.97726
G1 X50.799 Y212.516 E19.99425
G1 X50.533 Y212.082 E20.0112
G1 X50.337 Y211.612 E20.02817
G1 X50.218 Y211.116 E20.04516
G1 X50.177 Y210.604 E20.06227
G1 X50.186 Y129.783 E22.75444
G1 X50.226 Y129.275 E22.77142
G1 X50.345 Y128.779 E22.78841
G1 X50.54 Y128.308 E22.80539
G1 X50.806 Y127.874 E22.82234
G1 X51.136 Y127.486 E22.83931
G1 X51.524 Y127.155 E22.8563
G1 X51.958 Y126.889 E22.87326
G1 X52.428 Y126.693 E22.89022
G1 F600 E21.89022
;MESH:
G0 F2625 X54.183 Y129.109
G0 X54.183 Y130.538
G0 X252.228 Y209.794
G0 X252.298 Y209.864
;TYPE:WALL-INNER
G1 F600 E22.89022
G1 F900 X54.418 Y209.864 E29.48167
G1 X54.168 Y209.864 E29.49
G1 X54.168 Y209.614 E29.49539
G1 X54.169 Y130.524 E32.1299
G1 X252.298 Y130.524 E38.72965
G1 X252.298 Y209.864 E41.3725
G0 F2625 X252.798 Y210.364
;TYPE:WALL-OUTER
G1 F900 X53.918 Y210.364 E47.99726
G1 X53.668 Y210.364 E48.00559
G1 X53.668 Y210.114 E48.01098
G1 X53.669 Y130.024 E50.6788
G1 X252.798 Y130.024 E57.31186
G1 X252.798 Y210.364 E59.98802
G0 F2625 X252.548 Y210.364
G0 X252.228 Y209.794
G0 X251.808 Y209.374
;TYPE:SKIN
G1 F900 X54.658 Y209.374 E66.55515
G1 X54.659 Y131.014 E69.16535
G1 X251.808 Y131.014 E75.73246
G1 X251.808 Y209.374 E78.34266
G0 F2625 X251.582 Y131.374
G1 F900 X251.447 Y131.239 E78.34902
G0 F2625 X250.74 Y131.239
G1 F900 X251.582 Y132.081 E78.38868
G0 F2625 X251.582 Y132.788
G1 F900 X250.032 Y131.239 E78.46168
G0 F2625 X249.325 Y131.239
G1 F900 X251.582 Y133.496 E78.568
G0 F2625 X251.582 Y134.203
G1 F900 X248.618 Y131.239 E78.70763
G0 F2625 X247.911 Y131.239
G1 F900 X251.582 Y134.91 E78.88056
G0 F2625 X251.582 Y135.617
G1 F900 X247.204 Y131.239 E79.0868
G0 F2625 X246.497 Y131.239
G1 F900 X251.582 Y136.324 E79.32634
G0 F2625 X251.582 Y137.031
G1 F900 X245.79 Y131.239 E79.59919
G0 F2625 X245.083 Y131.239
G1 F900 X251.582 Y137.738 E79.90535
G0 F2625 X251.582 Y138.445
G1 F900 X244.376 Y131.239 E80.24481
G0 F2625 X243.668 Y131.239
G1 F900 X251.582 Y139.152 E80.6176
G0 F2625 X251.582 Y139.86
G1 F900 X242.961 Y131.239 E81.02371
G0 F2625 X242.254 Y131.239
G1 F900 X251.582 Y140.567 E81.46314
G0 F2625 X251.582 Y141.274
G1 F900 X241.547 Y131.239 E81.93587
G0 F2625 X240.84 Y131.239
G1 F900 X251.582 Y141.981 E82.4419
G0 F2625 X251.582 Y142.688
G1 F900 X240.133 Y131.239 E82.98124
G0 F2625 X239.426 Y131.239
G1 F900 X251.582 Y143.395 E83.55388
G0 F2625 X251.582 Y144.102
G1 F900 X238.719 Y131.239 E84.15983
G0 F2625 X238.012 Y131.239
G1 F900 X251.582 Y144.809 E84.79909
G0 F2625 X251.582 Y145.516
G1 F900 X237.305 Y131.239 E85.47165
G0 F2625 X236.597 Y131.239
G1 F900 X251.582 Y146.224 E86.17756
G0 F2625 X251.582 Y146.931
G1 F900 X235.89 Y131.239 E86.91678
G0 F2625 X235.183 Y131.239
G1 F900 X251.582 Y147.638 E87.6893
G0 F2625 X251.582 Y148.345
G1 F900 X234.476 Y131.239 E88.49513
G0 F2625 X233.769 Y131.239
G1 F900 X251.582 Y149.052 E89.33427
G0 F2625 X251.582 Y149.759
G1 F900 X233.062 Y131.239 E90.2067
G0 F2625 X232.355 Y131.239
G1 F900 X251.582 Y150.466 E91.11245
G0 F2625 X251.582 Y151.173
G1 F900 X231.648 Y131.239 E92.0515
G0 F2625 X230.941 Y131.239
G1 F900 X251.582 Y151.88 E93.02386
G0 F2625 X251.582 Y152.587
G1 F900 X230.233 Y131.239 E94.02954
G0 F2625 X229.526 Y131.239
G1 F900 X251.582 Y153.295 E95.06855
G0 F2625 X251.582 Y154.002
G1 F900 X228.819 Y131.239 E96.14087
G0 F2625 X228.112 Y131.239
G1 F900 X251.582 Y154.709 E97.2465
G0 F2625 X251.582 Y155.416
G1 F900 X227.405 Y131.239 E98.38542
G0 F2625 X226.698 Y131.239
G1 F900 X251.582 Y156.123 E99.55766
G0 F2625 X251.582 Y156.83
G1 F900 X225.991 Y131.239 E100.7632
G0 F2625 X225.284 Y131.239
G1 F900 X251.582 Y157.537 E102.00204
G0 F2625 X251.582 Y158.244
G1 F900 X224.577 Y131.239 E103.27419
G0 F2625 X223.87 Y131.239
G1 F900 X251.582 Y158.951 E104.57965
G0 F2625 X251.582 Y159.659
G1 F900 X223.162 Y131.239 E105.91846
G0 F2625 X222.455 Y131.239
G1 F900 X251.582 Y160.366 E107.29057
G0 F2625 X251.582 Y161.073
G1 F900 X221.748 Y131.239 E108.69599
G0 F2625 X221.041 Y131.239
G1 F900 X251.582 Y161.78 E110.13472
G0 F2625 X251.582 Y162.487
G1 F900 X220.334 Y131.239 E111.60675
G0 F2625 X219.627 Y131.239
G1 F900 X251.582 Y163.194 E113.11208
G0 F2625 X251.582 Y163.901
G1 F900 X218.92 Y131.239 E114.65072
G0 F2625 X218.213 Y131.239
G1 F900 X251.582 Y164.608 E116.22267
G0 F2625 X251.582 Y165.315
G1 F900 X217.506 Y131.239 E117.82792
G0 F2625 X216.798 Y131.239
G1 F900 X251.582 Y166.023 E119.46652
G0 F2625 X251.582 Y166.73
G1 F900 X216.091 Y131.239 E121.13843
G0 F2625 X215.384 Y131.239
G1 F900 X251.582 Y167.437 E122.84364
G0 F2625 X251.582 Y168.144
G1 F900 X214.677 Y131.239 E124.58216
G0 F2625 X213.97 Y131.239
G1 F900 X251.582 Y168.851 E126.35399
G0 F2625 X251.582 Y169.558
G1 F900 X213.263 Y131.239 E128.15912
G0 F2625 X212.556 Y131.239
G1 F900 X251.582 Y170.265 E129.99755
G0 F2625 X251.582 Y170.972
G1 F900 X211.849 Y131.239 E131.86929
G0 F2625 X211.142 Y131.239
G1 F900 X251.582 Y171.679 E133.77434
G0 F2625 X251.582 Y172.386
G1 F900 X210.434 Y131.239 E135.71271
G0 F2625 X209.727 Y131.239
G1 F900 X251.582 Y173.094 E137.68442
G0 F2625 X251.582 Y173.801
G1 F900 X209.02 Y131.239 E139.68943
G0 F2625 X208.313 Y131.239
G1 F900 X251.582 Y174.508 E141.72774
G0 F2625 X251.582 Y175.215
G1 F900 X207.606 Y131.239 E143.79936
G0 F2625 X206.899 Y131.239
G1 F900 X251.582 Y175.922 E145.90429
G0 F2625 X251.582 Y176.629
G1 F900 X206.192 Y131.239 E148.04252
G0 F2625 X205.485 Y131.239
G1 F900 X251.582 Y177.336 E150.21405
G0 F2625 X251.582 Y178.043
G1 F900 X204.778 Y131.239 E152.41889
G0 F2625 X204.071 Y131.239
G1 F900 X251.582 Y178.75 E154.65704
G0 F2625 X251.582 Y179.458
G1 F900 X203.363 Y131.239 E156.92854
G0 F2625 X202.656 Y131.239
G1 F900 X251.582 Y180.165 E159.23334
G0 F2625 X251.582 Y180.872
G1 F900 X201.949 Y131.239 E161.57145
G0 F2625 X201.242 Y131.239
G1 F900 X251.582 Y181.579 E163.94287
G0 F2625 X251.582 Y182.286
G1 F900 X200.535 Y131.239 E166.34759
G0 F2625 X199.828 Y131.239
G1 F900 X251.582 Y182.993 E168.78561
G0 F2625 X251.582 Y183.7
G1 F900 X199.121 Y131.239 E171.25695
G0 F2625 X198.414 Y131.239
G1 F900 X251.582 Y184.407 E173.76158
G0 F2625 X251.582 Y185.114
G1 F900 X197.707 Y131.239 E176.29952
G0 F2625 X196.999 Y131.239
G1 F900 X251.582 Y185.822 E178.87082
G0 F2625 X251.582 Y186.529
G1 F900 X196.292 Y131.239 E181.47542
G0 F2625 X195.585 Y131.239
G1 F900 X251.582 Y187.236 E184.11332
G0 F2625 X251.582 Y187.943
G1 F900 X194.878 Y131.239 E186.78453
G0 F2625 X194.171 Y131.239
G1 F900 X251.582 Y188.65 E189.48905
G0 F2625 X251.582 Y189.357
G1 F900 X193.464 Y131.239 E192.22687
G0 F2625 X192.757 Y131.239
G1 F900 X251.582 Y190.064 E194.99799
G0 F2625 X251.582 Y190.771
G1 F900 X192.05 Y131.239 E197.80242
G0 F2625 X191.343 Y131.239
G1 F900 X251.582 Y191.478 E200.64016
G0 F2625 X251.582 Y192.185
G1 F900 X190.635 Y131.239 E203.51123
G0 F2625 X189.928 Y131.239
G1 F900 X251.582 Y192.893 E206.41562
G0 F2625 X251.582 Y193.6
G1 F900 X189.221 Y131.239 E209.35332
G0 F2625 X188.514 Y131.239
G1 F900 X251.582 Y194.307 E212.32433
G0 F2625 X251.582 Y195.014
G1 F900 X187.807 Y131.239 E215.32864
G0 F2625 X187.1 Y131.239
G1 F900 X251.582 Y195.721 E218.36625
G0 F2625 X251.582 Y196.428
G1 F900 X186.393 Y131.239 E221.43717
G0 F2625 X185.686 Y131.239
G1 F900 X251.582 Y197.135 E224.5414
G0 F2625 X251.582 Y197.842
G1 F900 X184.979 Y131.239 E227.67893
G0 F2625 X184.272 Y131.239
G1 F900 X251.582 Y198.549 E230.84977
G0 F2625 X251.582 Y199.257
G1 F900 X183.564 Y131.239 E234.05396
G0 F2625 X182.857 Y131.239
G1 F900 X251.582 Y199.964 E237.29145
G0 F2625 X251.582 Y200.671
G1 F900 X182.15 Y131.239 E240.56225
G0 F2625 X181.443 Y131.239
G1 F900 X251.582 Y201.378 E243.86636
G0 F2625 X251.582 Y202.085
G1 F900 X180.736 Y131.239 E247.20377
G0 F2625 X180.029 Y131.239
G1 F900 X251.582 Y202.792 E250.57448
G0 F2625 X251.582 Y203.499
G1 F900 X179.322 Y131.239 E253.97851
G0 F2625 X178.615 Y131.239
G1 F900 X251.582 Y204.206 E257.41583
G0 F2625 X251.582 Y204.913
G1 F900 X177.908 Y131.239 E260.88646
G0 F2625 X177.2 Y131.239
G1 F900 X251.582 Y205.62 E264.39043
G0 F2625 X251.582 Y206.328
G1 F900 X176.493 Y131.239 E267.92772
G0 F2625 X175.786 Y131.239
G1 F900 X251.582 Y207.035 E271.49831
G0 F2625 X251.582 Y207.742
G1 F900 X175.079 Y131.239 E275.10221
G0 F2625 X174.372 Y131.239
G1 F900 X251.582 Y208.449 E278.73942
G0 F2625 X251.574 Y209.148
G1 F900 X173.665 Y131.239 E282.40955
G0 F2625 X172.958 Y131.239
G1 F900 X250.867 Y209.148 E286.07969
G0 F2625 X250.16 Y209.148
G1 F900 X172.251 Y131.239 E289.74982
G0 F2625 X171.544 Y131.239
G1 F900 X249.453 Y209.148 E293.41995
G0 F2625 X248.746 Y209.148
G1 F900 X170.836 Y131.239 E297.09011
G0 F2625 X170.129 Y131.239
G1 F900 X248.038 Y209.148 E300.76025
G0 F2625 X247.331 Y209.148
G1 F900 X169.422 Y131.239 E304.43038
G0 F2625 X168.715 Y131.239
G1 F900 X246.624 Y209.148 E308.10052
G0 F2625 X245.917 Y209.148
G1 F900 X168.008 Y131.239 E311.77065
G0 F2625 X167.301 Y131.239
G1 F900 X245.21 Y209.148 E315.44078
G0 F2625 X244.503 Y209.148
G1 F900 X166.594 Y131.239 E319.11092
G0 F2625 X165.887 Y131.239
G1 F900 X243.796 Y209.148 E322.78105
G0 F2625 X243.089 Y209.148
G1 F900 X165.18 Y131.239 E326.45119
G0 F2625 X164.473 Y131.239
G1 F900 X242.382 Y209.148 E330.12132
G0 F2625 X241.674 Y209.148
G1 F900 X163.765 Y131.239 E333.79146
G0 F2625 X163.058 Y131.239
G1 F900 X240.967 Y209.148 E337.46159
G0 F2625 X240.26 Y209.148
G1 F900 X162.351 Y131.239 E341.13172
G0 F2625 X161.644 Y131.239
G1 F900 X239.553 Y209.148 E344.80186
G0 F2625 X238.846 Y209.148
G1 F900 X160.937 Y131.239 E348.47199
G0 F2625 X160.23 Y131.239
G1 F900 X238.139 Y209.148 E352.14213
G0 F2625 X237.432 Y209.148
G1 F900 X159.523 Y131.239 E355.81226
G0 F2625 X158.816 Y131.239
G1 F900 X236.725 Y209.148 E359.4824
G0 F2625 X236.018 Y209.148
G1 F900 X158.109 Y131.239 E363.15253
G0 F2625 X157.401 Y131.239
G1 F900 X235.31 Y209.148 E366.82266
G0 F2625 X234.603 Y209.148
G1 F900 X156.694 Y131.239 E370.4928
G0 F2625 X155.987 Y131.239
G1 F900 X233.896 Y209.148 E374.16293
G0 F2625 X233.189 Y209.148
G1 F900 X155.28 Y131.239 E377.83307
G0 F2625 X154.573 Y131.239
G1 F900 X232.482 Y209.148 E381.5032
G0 F2625 X231.775 Y209.148
G1 F900 X153.866 Y131.239 E385.17334
G0 F2625 X153.159 Y131.239
G1 F900 X231.068 Y209.148 E388.84347
G0 F2625 X230.361 Y209.148
G1 F900 X152.452 Y131.239 E392.51361
G0 F2625 X151.745 Y131.239
G1 F900 X229.654 Y209.148 E396.18374
G0 F2625 X228.947 Y209.148
G1 F900 X151.038 Y131.239 E399.85387
G0 F2625 X150.33 Y131.239
G1 F900 X228.239 Y209.148 E403.52401
G0 F2625 X227.532 Y209.148
G1 F900 X149.623 Y131.239 E407.19414
G0 F2625 X148.916 Y131.239
G1 F900 X226.825 Y209.148 E410.86428
G0 F2625 X226.118 Y209.148
G1 F900 X148.209 Y131.239 E414.53441
G0 F2625 X147.502 Y131.239
G1 F900 X225.411 Y209.148 E418.20455
G0 F2625 X224.704 Y209.148
G1 F900 X146.795 Y131.239 E421.87468
G0 F2625 X146.088 Y131.239
G1 F900 X223.997 Y209.148 E425.54481
G0 F2625 X223.29 Y209.148
G1 F900 X145.381 Y131.239 E429.21495
G0 F2625 X144.674 Y131.239
G1 F900 X222.583 Y209.148 E432.88508
G0 F2625 X221.875 Y209.148
G1 F900 X143.966 Y131.239 E436.55522
G0 F2625 X143.259 Y131.239
G1 F900 X221.168 Y209.148 E440.22535
G0 F2625 X220.461 Y209.148
G1 F900 X142.552 Y131.239 E443.89549
G0 F2625 X141.845 Y131.239
G1 F900 X219.754 Y209.148 E447.56562
G0 F2625 X219.047 Y209.148
G1 F900 X141.138 Y131.239 E451.23575
G0 F2625 X140.431 Y131.239
G1 F900 X218.34 Y209.148 E454.90589
G0 F2625 X217.633 Y209.148
G1 F900 X139.724 Y131.239 E458.57602
G0 F2625 X139.017 Y131.239
G1 F900 X216.926 Y209.148 E462.24616
G0 F2625 X216.219 Y209.148
G1 F900 X138.31 Y131.239 E465.91629
G0 F2625 X137.602 Y131.239
G1 F900 X215.512 Y209.148 E469.58645
G0 F2625 X214.804 Y209.148
G1 F900 X136.895 Y131.239 E473.25658
G0 F2625 X136.188 Y131.239
G1 F900 X214.097 Y209.148 E476.92672
G0 F2625 X213.39 Y209.148
G1 F900 X135.481 Y131.239 E480.59685
G0 F2625 X134.774 Y131.239
G1 F900 X212.683 Y209.148 E484.26699
G0 F2625 X211.976 Y209.148
G1 F900 X134.067 Y131.239 E487.93712
G0 F2625 X133.36 Y131.239
G1 F900 X211.269 Y209.148 E491.60726
