;Generated by Cura LulzBot Edition GCodeWriter Version: 3.6.21
;FLAVOR:Marlin
;TIME:1734
;Filament used: 0.417666m
;Layer height: 0.18
;Generated with Cura_SteamEngine 3.6.21
M82 ;absolute extrusion mode
;This G-Code has been generated specifically for the LulzBot TAZ 5 with standard extruder
M75			 ; start GLCD timer
M140 S110.0    ; start bed heating up
G90                      ; absolute positioning
M107                     ; disable fans
M82                      ; set extruder to absolute mode
G28 X0 Y0                ; home X and Y
G28 Z0                   ; home Z
G1 Z15.0 F175 ; move extruder up
M117 Heating...                     ; progress indicator message on LCD
M109 R245  ; wait for extruder to reach printing temp
M190 R110.0    ; wait for bed to reach printing temp
G92 E0                   ; set extruder position to 0
G1 F200 E0               ; prime the nozzle with filament
G92 E0                   ; re-set extruder position to 0
G1 F175       ; set travel speed
M203 X192 Y208 Z3        ; set limits on travel speed
M117 TAZ 5 Printing...   ; progress indicator message on LCD

M221 S100 T0
G92 E0
G1 F600 E-1
;LAYER_COUNT:43
;LAYER:0
M107
G0 F2625 X133.063 Y126.099 Z0.425
;TYPE:SKIRT
G1 F600 E0
G1 F900 X133.44 Y125.702 E0.01824
G1 X133.87 Y125.364 E0.03646
G1 X134.346 Y125.093 E0.0547
G1 X134.855 Y124.893 E0.07292
G1 X135.53 Y124.751 E0.09589
G1 X136.175 Y124.676 E0.11752
G1 X136.61 Y124.651 E0.13204
G1 X153.911 Y124.661 E0.70834
G1 X154.457 Y124.701 E0.72658
G1 X154.991 Y124.821 E0.74481
G1 X155.502 Y125.016 E0.76303
G1 X155.98 Y125.284 E0.78128
G1 X156.413 Y125.619 E0.79952
G1 X156.638 Y125.839 E0.81
G1 X156.818 Y126.03 E0.81874
G1 X157.163 Y126.455 E0.83698
G1 X157.443 Y126.925 E0.8552
G1 X157.652 Y127.431 E0.87344
G1 X157.784 Y127.962 E0.89166
G1 X157.839 Y128.61 E0.91333
G1 X157.802 Y146.521 E1.50995
G1 X157.761 Y147.067 E1.52819
G1 X157.641 Y147.601 E1.54642
G1 X157.444 Y148.111 E1.56463
G1 X157.175 Y148.588 E1.58287
G1 X156.888 Y148.967 E1.59871
G1 X153.697 Y152.654 E1.76113
G1 X150.362 Y156.942 E1.94208
G1 X147.258 Y161.437 E2.12404
G1 X144.433 Y166.065 E2.30465
G1 X141.857 Y170.881 E2.48658
G1 X139.554 Y175.839 E2.66868
G1 X138.512 Y178.358 E2.75949
G1 X137.567 Y180.842 E2.84802
G1 X135.834 Y186.042 E3.0306
G1 X134.406 Y191.306 E3.21228
G1 X133.803 Y193.974 E3.30339
G1 X132.905 Y198.661 E3.46236
G1 X132.763 Y199.19 E3.4806
G1 X132.546 Y199.692 E3.49882
G1 X132.345 Y200.031 E3.51195
G1 X132.139 Y200.341 E3.52435
G1 X131.804 Y200.774 E3.54258
G1 X131.409 Y201.153 E3.56082
G1 X130.963 Y201.471 E3.57906
G1 X130.476 Y201.72 E3.59728
G1 X130.181 Y201.83 E3.60777
G1 X129.661 Y202 E3.62599
G1 X129.13 Y202.132 E3.64422
G1 X128.386 Y202.184 E3.66906
G1 X121.019 Y201.968 E3.91457
G1 X114.846 Y202.134 E4.12027
G1 X114.299 Y202.108 E4.13851
G1 X113.761 Y202.004 E4.15676
G1 X113.245 Y201.822 E4.17499
G1 X112.897 Y201.648 E4.18795
G1 X112.528 Y201.439 E4.20207
G1 X112.073 Y201.135 E4.2203
G1 X111.666 Y200.768 E4.23856
G1 X111.318 Y200.346 E4.25678
G1 X111.034 Y199.878 E4.27501
G1 X110.865 Y199.494 E4.28899
G1 X110.689 Y199.025 E4.30567
G1 X110.535 Y198.499 E4.32393
G1 X110.458 Y197.957 E4.34216
G1 X110.454 Y197.53 E4.35639
G1 X110.633 Y193.742 E4.48271
G1 X110.641 Y188.265 E4.66515
G1 X110.468 Y184.162 E4.80194
G1 X110.485 Y183.615 E4.82017
G1 X110.582 Y183.076 E4.83842
G1 X110.676 Y182.765 E4.84924
G1 X110.801 Y182.408 E4.86184
G1 X111.019 Y181.906 E4.88007
G1 X111.336 Y181.403 E4.89987
G1 X114.891 Y176.643 E5.09777
G1 X117.901 Y172.097 E5.27938
G1 X120.642 Y167.401 E5.46051
G1 X123.12 Y162.543 E5.64217
G1 X125.326 Y157.538 E5.82436
G1 X126.307 Y155.028 E5.91413
G1 X128.074 Y149.869 E6.09578
G1 X129.541 Y144.646 E6.27649
G1 X130.73 Y139.261 E6.46019
G1 X131.186 Y136.67 E6.54782
G1 X131.915 Y131.189 E6.732
G1 X132.233 Y128.093 E6.83567
G1 X132.328 Y127.554 E6.8539
G1 X132.501 Y127.035 E6.87213
G1 X132.748 Y126.546 E6.89038
G1 X133.063 Y126.099 E6.90859
G0 F2625 X133.541 Y126.309
G1 F900 X133.91 Y125.957 E6.92558
G1 X134.329 Y125.667 E6.94255
G1 X134.788 Y125.446 E6.95952
G1 X135.276 Y125.3 E6.97649
G1 X135.588 Y125.248 E6.98702
G1 X136.233 Y125.173 E7.00865
G1 X136.61 Y125.151 E7.02123
G1 X153.911 Y125.161 E7.59754
G1 X154.419 Y125.201 E7.61451
G1 X154.914 Y125.32 E7.63147
G1 X155.385 Y125.515 E7.64845
G1 X155.819 Y125.782 E7.66542
G1 X156.274 Y126.182 E7.6856
G1 X156.454 Y126.373 E7.69435
G1 X156.773 Y126.77 E7.71131
G1 X157.027 Y127.212 E7.72829
G1 X157.208 Y127.688 E7.74525
G1 X157.312 Y128.187 E7.76223
G1 X157.339 Y128.609 E7.77632
G1 X157.302 Y146.52 E8.37294
G1 X157.261 Y147.028 E8.38992
G1 X157.141 Y147.523 E8.40689
G1 X156.945 Y147.993 E8.42385
G1 X156.678 Y148.427 E8.44082
G1 X156.509 Y148.64 E8.44988
G1 X153.314 Y152.332 E8.61252
G1 X149.957 Y156.648 E8.79465
G1 X146.843 Y161.157 E8.97719
G1 X143.997 Y165.821 E9.15919
G1 X141.413 Y170.65 E9.34162
G1 X139.094 Y175.643 E9.525
G1 X138.049 Y178.168 E9.61603
G1 X137.089 Y180.692 E9.70598
G1 X135.361 Y185.879 E9.8881
G1 X133.916 Y191.203 E10.07186
G1 X133.315 Y193.862 E10.16267
G1 X132.414 Y198.567 E10.32224
G1 X132.279 Y199.059 E10.33923
G1 X132.069 Y199.523 E10.3562
G1 X131.929 Y199.755 E10.36523
G1 X131.723 Y200.065 E10.37762
G1 X131.408 Y200.466 E10.39461
G1 X131.035 Y200.813 E10.41158
G1 X130.612 Y201.097 E10.42855
G1 X130.026 Y201.355 E10.44988
G1 X129.506 Y201.525 E10.4681
G1 X129.011 Y201.645 E10.48507
G1 X128.401 Y201.685 E10.50543
G1 X121.002 Y201.469 E10.752
G1 X114.832 Y201.634 E10.9576
G1 X114.323 Y201.608 E10.97458
G1 X113.825 Y201.502 E10.99154
G1 X113.143 Y201.213 E11.01621
G1 X112.774 Y201.004 E11.03034
G1 X112.352 Y200.719 E11.0473
G1 X111.979 Y200.371 E11.06429
G1 X111.666 Y199.97 E11.08124
G1 X111.333 Y199.318 E11.10562
G1 X111.157 Y198.849 E11.12231
G1 X111.016 Y198.359 E11.13929
G1 X110.953 Y197.854 E11.15624
G1 X110.954 Y197.553 E11.16627
G1 X111.133 Y193.766 E11.29256
G1 X111.141 Y188.245 E11.47647
G1 X110.968 Y184.141 E11.61329
G1 X110.986 Y183.632 E11.63026
G1 X111.148 Y182.93 E11.65426
G1 X111.273 Y182.573 E11.66686
G1 X111.478 Y182.107 E11.68381
G1 X111.736 Y181.702 E11.69981
G1 X115.307 Y176.921 E11.89859
G1 X118.327 Y172.361 E12.08077
G1 X121.084 Y167.636 E12.263
G1 X123.57 Y162.762 E12.44525
G1 X125.789 Y157.728 E12.62851
G1 X126.774 Y155.207 E12.71866
G1 X128.551 Y150.02 E12.9013
G1 X130.03 Y144.752 E13.08357
G1 X131.216 Y139.385 E13.26665
G1 X131.679 Y136.752 E13.35571
G1 X132.412 Y131.239 E13.54096
G1 X132.73 Y128.144 E13.6446
G1 X132.822 Y127.643 E13.66157
G1 X132.99 Y127.162 E13.67854
G1 X133.232 Y126.714 E13.6955
G1 X133.541 Y126.309 E13.71247
G1 F600 E12.71247
G0 F2625 X135.435 Y128.122
G0 X135.466 Y128.152
G0 X138.372 Y130.931
G0 X138.404 Y130.962
G0 X139.697 Y132.197
;TYPE:SUPPORT
G1 F600 E13.71247
G1 F900 X150.303 Y132.197 E14.06576
G1 X150.303 Y142.803 E14.41905
G1 X139.697 Y142.803 E14.77234
G1 X139.697 Y132.197 E15.12563
G1 F600 E14.12563
G0 F2625 X141.87 Y134.182
G1 F600 E15.12563
G1 F900 X141.46 Y134.631 E15.14588
G1 X141.163 Y135.041 E15.16275
G1 X140.98 Y135.354 E15.17482
G1 X140.766 Y135.813 E15.19169
G1 X140.593 Y136.334 E15.20998
G1 X140.481 Y136.911 E15.22956
G1 X140.442 Y137.486 E15.24876
G1 X140.473 Y138.031 E15.26694
G1 X140.576 Y138.598 E15.28614
G1 X140.617 Y138.726 E15.29061
G1 X140.617 Y139.246 E15.30793
G1 X140.972 Y139.602 E15.32468
G1 X141.108 Y139.874 E15.33481
G1 X141.444 Y140.352 E15.35427
G1 X141.817 Y140.764 E15.37279
G1 X142.251 Y141.134 E15.39178
G1 X142.704 Y141.438 E15.40996
G1 X143.201 Y141.687 E15.42847
G1 X143.529 Y141.813 E15.44018
G1 X144.257 Y141.999 E15.46521
G1 X144.85 Y142.055 E15.48505
G1 X145.415 Y142.039 E15.50387
G1 X145.989 Y141.951 E15.52322
G1 X146.724 Y141.723 E15.54885
G1 X147.231 Y141.472 E15.5677
G1 X147.537 Y141.287 E15.57961
G1 X148.129 Y140.819 E15.60475
G1 X148.544 Y140.367 E15.62519
G1 X148.841 Y139.95 E15.64224
G1 X149.02 Y139.646 E15.65399
G1 X149.236 Y139.18 E15.6711
G1 X149.408 Y138.659 E15.68938
G1 X149.519 Y138.089 E15.70872
G1 X149.558 Y137.516 E15.72785
G1 X149.526 Y136.953 E15.74663
G1 X149.422 Y136.396 E15.76551
G1 X149.383 Y136.274 E15.76977
G1 X149.383 Y135.754 E15.7871
G1 X149.028 Y135.398 E15.80384
G1 X148.89 Y135.123 E15.81409
G1 X148.553 Y134.644 E15.8336
G1 X148.182 Y134.236 E15.85197
G1 X147.744 Y133.862 E15.87116
G1 X147.295 Y133.562 E15.88914
G1 X146.799 Y133.313 E15.90763
G1 X146.471 Y133.187 E15.91933
G1 X145.72 Y132.994 E15.94516
G1 X144.935 Y132.943 E15.97137
G1 X144.559 Y132.965 E15.98391
G1 X144.011 Y133.049 E16.00238
G1 X143.276 Y133.277 E16.02801
G1 X142.769 Y133.528 E16.04686
G1 X142.463 Y133.713 E16.05877
G1 X141.87 Y134.182 E16.08395
G0 F2625 X141.695 Y134.077
G1 F900 X141.695 Y132.397 E16.13992
G1 F600 E15.13992
G0 F2625 X140.028 Y132.397
G1 F600 E16.13992
G1 F900 X140.028 Y142.603 E16.47988
G1 F600 E15.47988
G0 F2625 X141.695 Y142.603
G1 F600 E16.47988
G1 F900 X141.695 Y140.923 E16.53584
G1 F600 E15.53584
G0 F2625 X140.973 Y140.028
G1 F600 E16.53584
G1 F900 X139.897 Y140.028 E16.57168
G1 F600 E15.57168
G0 F2625 X139.897 Y141.695
G1 F600 E16.57168
G1 F900 X142.772 Y141.695 E16.66745
G0 F2625 X143.362 Y141.964
G1 F900 X143.362 Y142.603 E16.68874
G1 F600 E15.68874
G0 F2625 X145.029 Y142.603
G1 F600 E16.68874
G1 F900 X145.029 Y142.249 E16.70053
G1 F600 E15.70053
G0 F2625 X146.696 Y141.94
G1 F600 E16.70053
G1 F900 X146.696 Y142.603 E16.72261
G1 F600 E15.72261
G0 F2625 X147.231 Y141.695
G1 F600 E16.72261
G1 F900 X150.103 Y141.695 E16.81828
G1 F600 E15.81828
G0 F2625 X150.103 Y140.028
G1 F600 E16.81828
G1 F900 X149.028 Y140.028 E16.85409
G1 F600 E15.85409
G0 F2625 X148.363 Y140.86
G1 F600 E16.85409
G1 F900 X148.363 Y142.603 E16.91215
G1 F600 E15.91215
G0 F2625 X150.03 Y142.603
G1 F600 E16.91215
G1 F900 X150.03 Y132.397 E17.25212
G0 F2625 X150.103 Y133.36
G1 F900 X147.337 Y133.36 E17.34425
G0 F2625 X146.696 Y133.059
G1 F900 X146.696 Y132.397 E17.3663
G1 F600 E16.3663
G0 F2625 X145.029 Y132.397
G1 F600 E17.3663
G1 F900 X145.029 Y132.749 E17.37803
G1 F600 E16.37803
G0 F2625 X143.362 Y133.042
G1 F600 E17.37803
G1 F900 X143.362 Y132.397 E17.39951
G1 F600 E16.39951
G0 F2625 X142.661 Y133.36
G1 F600 E17.39951
G1 F900 X139.897 Y133.36 E17.49158
G1 F600 E16.49158
G0 F2625 X139.897 Y135.027
G1 F600 E17.49158
G1 F900 X140.938 Y135.027 E17.52626
G1 F600 E16.52626
G0 F2625 X140.319 Y136.694
G1 F600 E17.52626
G1 F900 X139.897 Y136.694 E17.54032
G1 F600 E16.54032
G0 F2625 X139.897 Y138.361
G1 F600 E17.54032
G1 F900 X140.33 Y138.361 E17.55474
G1 F600 E16.55474
G0 F2625 X142.303 Y135.318
G0 X142.612 Y134.98
G0 X143.292 Y134.479
G0 X144.256 Y134.11
G0 X144.802 Y134.046
G0 X148.363 Y134.138
G1 F600 E17.55474
G1 F900 X148.363 Y132.397 E17.61273
G1 F600 E16.61273
G0 F2625 X149.065 Y135.027
G1 F600 E17.61273
G1 F900 X150.103 Y135.027 E17.64731
G1 F600 E16.64731
G0 F2625 X150.103 Y136.694
G1 F600 E17.64731
G1 F900 X149.681 Y136.694 E17.66137
G1 F600 E16.66137
G0 F2625 X149.67 Y138.361
G1 F600 E17.66137
G1 F900 X150.103 Y138.361 E17.67579
G1 F600 E16.67579
G0 F2625 X147.427 Y144.093
G0 X147.409 Y144.133
G0 X145.984 Y147.187
G0 X145.966 Y147.226
G0 X129.005 Y183.579
G1 F600 E17.67579
G1 F900 X129.045 Y183.618 E17.67765
G1 X129.113 Y183.747 E17.68251
G1 X129.151 Y183.949 E17.68936
G1 X128.738 Y184.766 E17.71985
G1 X128.38 Y184.292 E17.73964
G1 X127.925 Y183.928 E17.75905
G1 X128.305 Y183.692 E17.77395
G1 X128.357 Y183.704 E17.77572
G1 X128.783 Y183.495 E17.79153
G1 X128.84 Y183.505 E17.79346
G1 X129.005 Y183.579 E17.79948
G0 F2625 X128.359 Y183.91
G1 F900 X128.359 Y184.018 E17.80308
G1 F600 E16.80308
G0 F2625 X127.461 Y184.991
G0 X127.431 Y185.023
G0 X125.464 Y187.157
G0 X125.434 Y187.189
G0 X123.973 Y188.776
G1 F600 E17.80308
G1 F900 X124.428 Y189.407 E17.82899
G1 X124.568 Y189.704 E17.83993
G1 X124.674 Y189.984 E17.8499
G1 X124.789 Y190.593 E17.87055
G1 X124.789 Y191.181 E17.89013
G1 X124.671 Y191.795 E17.91096
G1 X124.574 Y192.055 E17.9202
G1 X124.426 Y192.369 E17.93177
G1 X123.972 Y192.999 E17.95763
G1 X123.365 Y193.5 E17.98385
G1 X123.262 Y193.56 E17.98782
G1 X122.777 Y193.773 E18.00547
G1 X122.191 Y193.921 E18.0256
G1 X121.585 Y193.947 E18.0458
G1 X120.993 Y193.859 E18.06574
G1 X120.393 Y193.65 E18.0869
G1 X120.25 Y193.571 E18.09235
G1 X119.799 Y193.258 E18.11063
G1 X119.487 Y192.969 E18.1248
G1 X119.207 Y192.62 E18.1397
G1 X119.057 Y192.38 E18.14913
G1 X118.805 Y191.771 E18.17108
G1 X118.679 Y191.186 E18.19102
G1 X118.679 Y190.588 E18.21094
G1 X118.806 Y190 E18.23098
G1 X119.058 Y189.394 E18.25284
G1 X119.203 Y189.163 E18.26192
G1 X119.497 Y188.797 E18.27756
G1 X119.805 Y188.511 E18.29156
G1 X120.237 Y188.211 E18.30908
G1 X120.396 Y188.123 E18.31513
G1 X120.993 Y187.915 E18.33619
G1 X121.585 Y187.827 E18.35613
G1 X122.191 Y187.853 E18.37633
G1 X122.777 Y188.001 E18.39647
G1 X123.264 Y188.214 E18.41417
G1 X123.363 Y188.272 E18.41799
G1 X123.973 Y188.776 E18.44435
G0 F2625 X123.358 Y188.528
G1 F900 X123.358 Y193.247 E18.60154
G0 F2625 X123.187 Y193.372
G1 F900 X120.314 Y193.372 E18.69724
G0 F2625 X120.024 Y193.17
G1 F900 X120.024 Y188.602 E18.84941
G0 F2625 X120.362 Y188.371
G1 F900 X123.126 Y188.371 E18.94148
G1 F600 E17.94148
G0 F2625 X121.691 Y188.033
G1 F600 E18.94148
G1 F900 X121.691 Y193.742 E19.13164
G1 F600 E18.13164
G0 F2625 X118.994 Y191.705
G1 F600 E19.13164
G1 F900 X124.482 Y191.705 E19.31445
G1 F600 E18.31445
G0 F2625 X124.479 Y190.038
G1 F600 E19.31445
G1 F900 X119.006 Y190.038 E19.49676
G1 F600 E18.49676
G0 F2625 X117.361 Y188.042
G0 X117.333 Y188.008
G0 X115.54 Y185.833
G0 X115.512 Y185.799
G0 X114.713 Y184.831
G1 F600 E19.49676
G1 F900 X114.452 Y184.048 E19.52425
G1 X114.486 Y183.884 E19.52983
G1 X114.563 Y183.735 E19.53542
G1 X114.642 Y183.673 E19.53876
G1 X114.758 Y183.628 E19.54291
G1 X114.909 Y183.597 E19.54804
G1 X115.751 Y183.824 E19.57709
G1 X115.308 Y184.095 E19.59439
G1 X114.892 Y184.531 E19.61446
G1 X114.713 Y184.831 E19.6261
G0 F2625 X115.023 Y184.105
G1 F900 X115.023 Y183.835 E19.63509
G1 F600 E18.63509
G0 F2625 X114.75 Y189.893
G0 X114.668 Y196.863
G1 F600 E19.63509
G1 F900 X114.937 Y197.304 E19.6523
G1 X115.379 Y197.733 E19.67282
G1 X115.601 Y197.865 E19.68142
G1 X114.968 Y198.188 E19.70509
G1 X114.782 Y198.154 E19.71139
G1 X114.677 Y198.118 E19.71509
G1 X114.604 Y198.076 E19.7179
G1 X114.562 Y198.033 E19.7199
G1 X114.496 Y197.92 E19.72426
G1 X114.467 Y197.83 E19.72741
G1 X114.445 Y197.717 E19.73124
G1 X114.668 Y196.863 E19.76064
G0 F2625 X115.023 Y197.667
G1 F900 X115.023 Y197.936 E19.7696
G1 F600 E18.7696
G0 F2625 X127.84 Y197.886
G1 F600 E19.7696
G1 F900 X128.081 Y197.745 E19.7789
G1 X128.5 Y197.348 E19.79813
G1 X128.725 Y197.012 E19.8116
G1 X129.049 Y197.622 E19.83461
G1 X128.992 Y197.893 E19.84383
G1 X128.926 Y198.024 E19.84872
G1 X128.888 Y198.063 E19.85053
G1 X128.764 Y198.132 E19.85526
G1 X128.673 Y198.158 E19.85841
G1 X128.526 Y198.186 E19.8634
G1 X127.84 Y197.886 E19.88834
G0 F2625 X128.359 Y197.895
G1 F900 X128.359 Y197.755 E19.893
G1 F600 E18.893
;MESH:
G0 F2625 X140.858 Y147.227
G0 X140.868 Y147.184
G0 X141.622 Y144.136
G0 X141.633 Y144.092
G0 X142.638 Y140.037
G0 X143.582 Y138.985
;TYPE:WALL-INNER
G1 F600 E19.893
G1 F900 X143.549 Y138.951 E19.89458
G1 X143.518 Y138.918 E19.89609
G1 X143.582 Y138.918 E19.89663
G1 X143.582 Y138.985 E19.89718
G0 F2625 X143.546 Y138.968
G0 X144.052 Y139.643
G0 X144.055 Y139.91
G0 X145.946 Y139.911
G0 X146.418 Y139.641
G0 X146.453 Y138.953
G0 X146.452 Y138.948
G1 F900 X146.418 Y138.985 E19.89885
G1 X146.418 Y138.918 E19.89935
G1 X146.479 Y138.918 E19.89988
G1 X146.452 Y138.948
G0 F2625 X146.453 Y138.953
G0 X147.139 Y138.918
G0 X147.41 Y138.445
G0 X146.883 Y136.588
G0 X147.403 Y136.55
G0 X147.134 Y136.082
G0 X146.453 Y136.047
G0 X146.451 Y136.049
G1 F900 X146.482 Y136.082 E19.90139
G1 X146.418 Y136.082 E19.90193
G1 X146.418 Y136.015 E19.90262
G1 X146.451 Y136.049
G0 F2625 X146.453 Y136.047
G0 X145.947 Y135.361
G0 X145.945 Y135.09
G0 X144.054 Y135.089
G0 X143.582 Y135.367
G0 X143.589 Y136.081
G0 X143.582 Y136.082
G1 F900 X143.521 Y136.082 E19.90465
G1 X143.548 Y136.052
G1 X143.582 Y136.015 E19.90482
G1 X143.582 Y136.082 E19.90532
G0 F2625 X142.87 Y136.095
