;FLAVOR:Marlin
;TIME:3826
;Filament used: 0.410364m
;Layer height: 0.06
;MINX:35.85
;MINY:101.875
;MINZ:0.3
;MAXX:96.432
;MAXY:143.459
;MAXZ:8.46
;Generated with Cura_SteamEngine 4.6.1
M82 ;absolute extrusion mode
;This G-Code has been generated specifically for the LulzBot TAZ 5 with standard extruder
M75			 ; start GLCD timer
M140 S110.0    ; start bed heating up
G90                      ; absolute positioning
M107                     ; disable fans
M82                      ; set extruder to absolute mode
G28 X0 Y0                ; home X and Y
G28 Z0                   ; home Z
G1 Z15.0 F120 ; move extruder up
M117 Heating...          ; progress indicator message on LCD
M109 R240.0  ; wait for extruder to reach printing temp
M190 R110.0    ; wait for bed to reach printing temp
G92 E0                   ; set extruder position to 0
G1 F200 E0               ; prime the nozzle with filament
G92 E0                   ; re-set extruder position to 0
G1 F120       ; set travel speed
M203 X192 Y208 Z3        ; set limits on travel speed
M117 TAZ 5 Printing...   ; progress indicator message on LCD
G92 E0
G92 E0
G1 F1500 E-6.5
;LAYER_COUNT:137
;LAYER:0
M107
G0 F3600 X43.429 Y102.709 Z0.3
;TYPE:SKIRT
G1 F1500 E0
G1 F1800 X44.344 Y102.39 E0.02278
G1 X45.283 Y102.148 E0.04558
G1 X46.238 Y101.984 E0.06837
G1 X47.204 Y101.9 E0.09117
G1 X47.742 Y101.887 E0.10382
G1 X84.527 Y101.875 E0.96875
G1 X85.496 Y101.915 E0.99156
G1 X86.458 Y102.034 E1.01435
G1 X87.406 Y102.232 E1.03712
G1 X88.336 Y102.508 E1.05993
G1 X89.239 Y102.859 E1.08271
G1 X90.11 Y103.284 E1.1055
G1 X90.944 Y103.779 E1.1283
G1 X91.734 Y104.341 E1.1511
G1 X92.811 Y105.288 E1.18482
G1 X93.617 Y106.145 E1.21248
G1 X94.215 Y106.908 E1.23528
G1 X94.749 Y107.717 E1.25807
G1 X95.213 Y108.568 E1.28086
G1 X95.606 Y109.454 E1.30365
G1 X95.925 Y110.369 E1.32644
G1 X96.167 Y111.308 E1.34924
G1 X96.331 Y112.263 E1.37202
G1 X96.415 Y113.229 E1.39482
G1 X96.428 Y113.768 E1.4075
G1 X96.432 Y131.547 E1.82554
G1 X96.392 Y132.516 E1.84834
G1 X96.273 Y133.478 E1.87113
G1 X96.074 Y134.427 E1.89393
G1 X95.799 Y135.356 E1.91671
G1 X95.447 Y136.259 E1.9395
G1 X95.022 Y137.131 E1.96231
G1 X94.527 Y137.964 E1.9851
G1 X93.965 Y138.753 E2.00787
G1 X93.019 Y139.83 E2.04158
G1 X92.162 Y140.636 E2.06924
G1 X91.399 Y141.234 E2.09203
G1 X90.59 Y141.768 E2.11483
G1 X89.739 Y142.232 E2.13762
G1 X88.853 Y142.625 E2.16041
G1 X87.938 Y142.944 E2.18319
G1 X86.999 Y143.186 E2.20599
G1 X86.044 Y143.35 E2.22878
G1 X85.078 Y143.434 E2.25158
G1 X84.54 Y143.447 E2.26423
G1 X47.755 Y143.459 E3.12916
G1 X46.786 Y143.419 E3.15197
G1 X45.824 Y143.3 E3.17476
G1 X44.876 Y143.102 E3.19753
G1 X43.946 Y142.826 E3.22034
G1 X43.043 Y142.475 E3.24312
G1 X42.172 Y142.05 E3.26591
G1 X41.338 Y141.555 E3.28871
G1 X40.548 Y140.993 E3.31151
G1 X39.471 Y140.046 E3.34523
G1 X38.665 Y139.189 E3.37289
G1 X38.067 Y138.426 E3.39569
G1 X37.533 Y137.617 E3.41848
G1 X37.069 Y136.766 E3.44127
G1 X36.676 Y135.88 E3.46406
G1 X36.357 Y134.965 E3.48684
G1 X36.115 Y134.026 E3.50964
G1 X35.951 Y133.071 E3.53243
G1 X35.867 Y132.105 E3.55523
G1 X35.854 Y131.566 E3.56791
G1 X35.85 Y113.787 E3.98595
G1 X35.89 Y112.818 E4.00875
G1 X36.009 Y111.856 E4.03154
G1 X36.208 Y110.907 E4.05434
G1 X36.483 Y109.978 E4.07712
G1 X36.835 Y109.075 E4.09991
G1 X37.26 Y108.203 E4.12272
G1 X37.755 Y107.37 E4.1455
G1 X38.317 Y106.581 E4.16828
G1 X39.263 Y105.504 E4.20199
G1 X40.12 Y104.698 E4.22965
G1 X40.883 Y104.1 E4.25244
G1 X41.692 Y103.566 E4.27524
G1 X42.543 Y103.102 E4.29803
G1 X43.429 Y102.709 E4.32082
G0 F3600 X43.708 Y103.137
G1 F1800 X44.607 Y102.834 E4.34312
G1 X45.528 Y102.608 E4.36542
G1 X46.465 Y102.46 E4.38773
G1 X47.742 Y102.387 E4.4178
G1 X84.527 Y102.375 E5.28273
G1 X85.475 Y102.415 E5.30504
G1 X86.416 Y102.534 E5.32735
G1 X87.343 Y102.732 E5.34964
G1 X88.251 Y103.008 E5.37195
G1 X89.132 Y103.359 E5.39425
G1 X89.98 Y103.783 E5.41654
G1 X90.79 Y104.277 E5.43885
G1 X91.555 Y104.837 E5.46114
G1 X92.459 Y105.643 E5.48962
G1 X93.25 Y106.485 E5.51678
G1 X93.833 Y107.233 E5.53908
G1 X94.351 Y108.027 E5.56137
G1 X94.801 Y108.863 E5.5837
G1 X95.178 Y109.733 E5.60599
G1 X95.481 Y110.632 E5.6283
G1 X95.707 Y111.553 E5.6506
G1 X95.855 Y112.49 E5.6729
G1 X95.928 Y113.768 E5.703
G1 X95.932 Y131.547 E6.12104
G1 X95.892 Y132.495 E6.14335
G1 X95.773 Y133.436 E6.16565
G1 X95.574 Y134.364 E6.18797
G1 X95.299 Y135.271 E6.21026
G1 X94.948 Y136.152 E6.23255
G1 X94.523 Y137 E6.25486
G1 X94.029 Y137.81 E6.27717
G1 X93.469 Y138.575 E6.29946
G1 X92.664 Y139.478 E6.3279
G1 X91.822 Y140.269 E6.35507
G1 X91.074 Y140.852 E6.37737
G1 X90.28 Y141.37 E6.39966
G1 X89.444 Y141.82 E6.42198
G1 X88.574 Y142.197 E6.44427
G1 X87.675 Y142.5 E6.46658
G1 X86.754 Y142.726 E6.48888
G1 X85.817 Y142.874 E6.51118
G1 X84.54 Y142.947 E6.54126
G1 X47.755 Y142.959 E7.40619
G1 X46.807 Y142.919 E7.4285
G1 X45.866 Y142.8 E7.45081
G1 X44.939 Y142.602 E7.47309
G1 X44.031 Y142.326 E7.49541
G1 X43.15 Y141.975 E7.51771
G1 X42.302 Y141.551 E7.54
G1 X41.492 Y141.057 E7.56231
G1 X40.727 Y140.497 E7.5846
G1 X39.823 Y139.691 E7.61308
G1 X39.032 Y138.849 E7.64024
G1 X38.449 Y138.101 E7.66254
G1 X37.931 Y137.307 E7.68483
G1 X37.481 Y136.471 E7.70716
G1 X37.104 Y135.601 E7.72945
G1 X36.801 Y134.702 E7.75176
G1 X36.575 Y133.781 E7.77406
G1 X36.427 Y132.844 E7.79636
G1 X36.354 Y131.566 E7.82646
G1 X36.35 Y113.787 E8.2445
G1 X36.39 Y112.839 E8.26681
G1 X36.509 Y111.898 E8.28911
G1 X36.708 Y110.97 E8.31143
G1 X36.983 Y110.063 E8.33371
G1 X37.334 Y109.182 E8.35601
G1 X37.759 Y108.334 E8.37832
G1 X38.253 Y107.524 E8.40062
G1 X38.813 Y106.759 E8.42292
G1 X39.618 Y105.856 E8.45136
G1 X40.46 Y105.065 E8.47852
G1 X41.208 Y104.482 E8.50082
G1 X42.002 Y103.964 E8.52312
G1 X42.838 Y103.514 E8.54544
G1 X43.708 Y103.137 E8.56773
G0 F3600 X43.985 Y103.566
G1 F1800 X44.866 Y103.28 E8.58951
G1 X45.77 Y103.07 E8.61133
G1 X46.687 Y102.939 E8.63312
G1 X47.742 Y102.887 E8.65795
G1 X84.527 Y102.875 E9.52288
G1 X85.454 Y102.915 E9.5447
G1 X86.373 Y103.034 E9.56649
G1 X87.279 Y103.232 E9.5883
G1 X88.164 Y103.508 E9.61009
G1 X89.023 Y103.858 E9.6319
G1 X89.847 Y104.282 E9.65369
G1 X90.633 Y104.774 E9.6755
G1 X91.373 Y105.333 E9.6973
G1 X92.106 Y105.998 E9.72057
G1 X92.882 Y106.825 E9.74724
G1 X93.45 Y107.558 E9.76904
G1 X93.953 Y108.337 E9.79085
G1 X94.387 Y109.156 E9.81264
G1 X94.749 Y110.01 E9.83445
G1 X95.035 Y110.891 E9.85623
G1 X95.245 Y111.795 E9.87805
G1 X95.376 Y112.712 E9.89983
G1 X95.428 Y113.769 E9.92472
G1 X95.432 Y131.548 E10.34276
G1 X95.392 Y132.474 E10.36455
G1 X95.273 Y133.393 E10.38634
G1 X95.075 Y134.299 E10.40815
G1 X94.799 Y135.184 E10.42994
G1 X94.448 Y136.042 E10.45174
G1 X94.025 Y136.867 E10.47354
G1 X93.532 Y137.653 E10.49536
G1 X92.973 Y138.392 E10.51714
G1 X92.309 Y139.125 E10.5404
G1 X91.482 Y139.901 E10.56706
G1 X90.749 Y140.469 E10.58887
G1 X89.97 Y140.972 E10.61067
G1 X89.151 Y141.406 E10.63247
G1 X88.297 Y141.768 E10.65428
G1 X87.416 Y142.054 E10.67606
G1 X86.512 Y142.264 E10.69788
G1 X85.595 Y142.395 E10.71966
G1 X84.54 Y142.447 E10.74449
G1 X47.755 Y142.459 E11.60943
G1 X46.828 Y142.419 E11.63124
G1 X45.909 Y142.3 E11.65303
G1 X45.003 Y142.102 E11.67484
G1 X44.118 Y141.826 E11.69664
G1 X43.259 Y141.476 E11.71845
G1 X42.435 Y141.052 E11.74024
G1 X41.649 Y140.56 E11.76204
G1 X40.909 Y140.001 E11.78385
G1 X40.176 Y139.336 E11.80712
G1 X39.4 Y138.509 E11.83378
G1 X38.832 Y137.776 E11.85559
G1 X38.329 Y136.997 E11.87739
G1 X37.895 Y136.178 E11.89918
G1 X37.533 Y135.324 E11.92099
G1 X37.247 Y134.443 E11.94277
G1 X37.037 Y133.539 E11.9646
G1 X36.906 Y132.622 E11.98638
G1 X36.854 Y131.565 E12.01126
G1 X36.85 Y113.786 E12.4293
G1 X36.89 Y112.86 E12.45109
G1 X37.009 Y111.941 E12.47288
G1 X37.207 Y111.035 E12.49469
G1 X37.483 Y110.15 E12.51649
G1 X37.834 Y109.292 E12.53828
G1 X38.257 Y108.467 E12.56008
G1 X38.75 Y107.681 E12.5819
G1 X39.309 Y106.942 E12.60369
G1 X39.973 Y106.209 E12.62694
G1 X40.8 Y105.433 E12.65361
G1 X41.533 Y104.865 E12.67541
G1 X42.312 Y104.362 E12.69721
G1 X43.131 Y103.928 E12.71901
G1 X43.985 Y103.566 E12.74082
G0 F3600 X44.26 Y103.998
G1 F1800 X45.124 Y103.728 E12.7621
G1 X46.008 Y103.535 E12.78338
G1 X46.907 Y103.421 E12.80469
G1 X47.743 Y103.387 E12.82436
G1 X84.528 Y103.375 E13.68929
G1 X85.432 Y103.415 E13.71057
G1 X86.33 Y103.534 E13.73187
G1 X87.213 Y103.732 E13.75315
G1 X88.075 Y104.007 E13.77442
G1 X88.91 Y104.358 E13.79572
G1 X89.711 Y104.78 E13.81701
G1 X90.471 Y105.272 E13.83829
G1 X91.185 Y105.828 E13.85957
G1 X91.754 Y106.352 E13.87776
G1 X92.515 Y107.164 E13.90393
G1 X93.067 Y107.881 E13.9252
G1 X93.554 Y108.645 E13.94651
G1 X93.972 Y109.448 E13.96779
G1 X94.317 Y110.285 E13.98908
G1 X94.587 Y111.149 E14.01036
G1 X94.78 Y112.033 E14.03164
G1 X94.894 Y112.932 E14.05295
G1 X94.928 Y113.769 E14.07264
G1 X94.932 Y131.548 E14.49069
G1 X94.892 Y132.452 E14.51196
G1 X94.773 Y133.35 E14.53326
G1 X94.575 Y134.233 E14.55454
G1 X94.299 Y135.095 E14.57582
G1 X93.949 Y135.93 E14.59711
G1 X93.526 Y136.731 E14.61841
G1 X93.035 Y137.491 E14.63968
G1 X92.478 Y138.205 E14.66098
G1 X91.955 Y138.773 E14.67913
G1 X91.143 Y139.534 E14.7053
G1 X90.426 Y140.086 E14.72657
G1 X89.662 Y140.573 E14.74788
G1 X88.859 Y140.991 E14.76916
G1 X88.022 Y141.336 E14.79045
G1 X87.158 Y141.606 E14.81173
G1 X86.274 Y141.799 E14.83301
G1 X85.375 Y141.913 E14.85432
G1 X84.539 Y141.947 E14.87399
G1 X47.754 Y141.959 E15.73892
G1 X46.85 Y141.919 E15.7602
G1 X45.952 Y141.8 E15.7815
G1 X45.069 Y141.602 E15.80278
G1 X44.207 Y141.327 E15.82405
G1 X43.372 Y140.976 E15.84535
G1 X42.571 Y140.554 E15.86664
G1 X41.811 Y140.062 E15.88793
G1 X41.097 Y139.506 E15.9092
G1 X40.528 Y138.982 E15.92739
G1 X39.767 Y138.17 E15.95356
G1 X39.215 Y137.453 E15.97484
G1 X38.728 Y136.689 E15.99614
G1 X38.31 Y135.886 E16.01742
G1 X37.965 Y135.049 E16.03871
G1 X37.695 Y134.185 E16.06
G1 X37.502 Y133.301 E16.08127
G1 X37.388 Y132.402 E16.10258
G1 X37.354 Y131.565 E16.12228
G1 X37.35 Y113.786 E16.54032
G1 X37.39 Y112.882 E16.56159
G1 X37.509 Y111.984 E16.58289
G1 X37.707 Y111.101 E16.60417
G1 X37.983 Y110.239 E16.62545
G1 X38.333 Y109.404 E16.64674
G1 X38.756 Y108.603 E16.66804
G1 X39.247 Y107.843 E16.68932
G1 X39.804 Y107.129 E16.71061
G1 X40.327 Y106.561 E16.72876
G1 X41.139 Y105.8 E16.75493
G1 X41.856 Y105.248 E16.77621
G1 X42.62 Y104.761 E16.79751
G1 X43.423 Y104.343 E16.8188
G1 X44.26 Y103.998 E16.84008
G0 F3600 X44.533 Y104.432
G1 F1800 X45.379 Y104.179 E16.86084
G1 X46.244 Y104.003 E16.8816
G1 X47.122 Y103.907 E16.90237
G1 X47.743 Y103.887 E16.91698
G1 X84.528 Y103.875 E17.78191
G1 X85.41 Y103.915 E17.80267
G1 X86.285 Y104.034 E17.82343
G1 X87.145 Y104.232 E17.84418
G1 X87.984 Y104.507 E17.86494
G1 X88.795 Y104.857 E17.88571
G1 X89.571 Y105.278 E17.90647
G1 X90.305 Y105.769 E17.92724
G1 X90.992 Y106.323 E17.94799
G1 X91.402 Y106.707 E17.9612
G1 X92.146 Y107.503 E17.98682
G1 X92.683 Y108.204 E18.00758
G1 X93.154 Y108.951 E18.02834
G1 X93.555 Y109.738 E18.04911
G1 X93.883 Y110.558 E18.06988
G1 X94.136 Y111.404 E18.09064
G1 X94.312 Y112.269 E18.1114
G1 X94.408 Y113.147 E18.13216
G1 X94.428 Y113.769 E18.1468
G1 X94.432 Y131.548 E18.56484
G1 X94.392 Y132.43 E18.5856
G1 X94.273 Y133.305 E18.60636
G1 X94.075 Y134.165 E18.62711
G1 X93.8 Y135.004 E18.64787
G1 X93.45 Y135.815 E18.66864
G1 X93.028 Y136.591 E18.68941
G1 X92.538 Y137.325 E18.71016
G1 X91.983 Y138.012 E18.73093
G1 X91.6 Y138.421 E18.7441
G1 X90.804 Y139.165 E18.76972
G1 X90.103 Y139.702 E18.79049
G1 X89.356 Y140.173 E18.81125
G1 X88.569 Y140.574 E18.83202
G1 X87.749 Y140.902 E18.85278
G1 X86.903 Y141.155 E18.87355
G1 X86.038 Y141.331 E18.8943
G1 X85.16 Y141.427 E18.91507
G1 X84.539 Y141.447 E18.92968
G1 X47.754 Y141.459 E19.79461
G1 X46.872 Y141.419 E19.81537
G1 X45.997 Y141.3 E19.83614
G1 X45.137 Y141.102 E19.85689
G1 X44.298 Y140.827 E19.87765
G1 X43.487 Y140.477 E19.89842
G1 X42.711 Y140.056 E19.91917
G1 X41.977 Y139.565 E19.93994
G1 X41.29 Y139.011 E19.96069
G1 X40.88 Y138.627 E19.9739
G1 X40.136 Y137.831 E19.99952
G1 X39.599 Y137.13 E20.02028
G1 X39.128 Y136.383 E20.04104
G1 X38.727 Y135.596 E20.06181
G1 X38.399 Y134.776 E20.08258
G1 X38.146 Y133.93 E20.10334
G1 X37.97 Y133.065 E20.1241
G1 X37.874 Y132.187 E20.14487
G1 X37.854 Y131.565 E20.1595
G1 X37.85 Y113.786 E20.57754
G1 X37.89 Y112.904 E20.5983
G1 X38.009 Y112.029 E20.61906
G1 X38.207 Y111.169 E20.63981
G1 X38.482 Y110.33 E20.66057
G1 X38.832 Y109.519 E20.68134
G1 X39.254 Y108.743 E20.70211
G1 X39.744 Y108.009 E20.72286
G1 X40.299 Y107.322 E20.74363
G1 X40.682 Y106.913 E20.7568
G1 X41.478 Y106.169 E20.78242
G1 X42.179 Y105.632 E20.80319
G1 X42.926 Y105.161 E20.82395
G1 X43.713 Y104.76 E20.84472
G1 X44.533 Y104.432 E20.86549
G0 F3600 X44.001 Y105.179
G1 F1800 X44.803 Y104.868 E20.88571
G1 X45.63 Y104.632 E20.90593
G1 X46.476 Y104.475 E20.92616
G1 X47.743 Y104.387 E20.95603
G1 X84.528 Y104.375 E21.82096
G1 X85.387 Y104.415 E21.84118
G1 X86.239 Y104.534 E21.86141
G1 X87.076 Y104.732 E21.88163
G1 X87.891 Y105.007 E21.90186
G1 X88.676 Y105.356 E21.92206
G1 X89.427 Y105.777 E21.9423
G1 X90.134 Y106.265 E21.9625
G1 X91.049 Y107.062 E21.99103
G1 X91.778 Y107.842 E22.01614
G1 X92.298 Y108.527 E22.03636
G1 X92.752 Y109.257 E22.05657
G1 X93.136 Y110.026 E22.07678
G1 X93.447 Y110.828 E22.09701
G1 X93.683 Y111.655 E22.11723
G1 X93.84 Y112.501 E22.13746
G1 X93.928 Y113.769 E22.16735
G1 X93.932 Y131.548 E22.58539
G1 X93.892 Y132.407 E22.60561
G1 X93.773 Y133.259 E22.62584
G1 X93.575 Y134.096 E22.64606
G1 X93.3 Y134.91 E22.66626
G1 X92.951 Y135.696 E22.68648
G1 X92.53 Y136.446 E22.70671
G1 X92.041 Y137.154 E22.72694
G1 X91.245 Y138.068 E22.75544
G1 X90.465 Y138.797 E22.78054
G1 X89.78 Y139.317 E22.80076
G1 X89.05 Y139.771 E22.82098
G1 X88.281 Y140.155 E22.84119
G1 X87.479 Y140.466 E22.86141
G1 X86.652 Y140.702 E22.88163
G1 X85.806 Y140.859 E22.90187
G1 X84.539 Y140.947 E22.93173
G1 X47.754 Y140.959 E23.79666
G1 X46.895 Y140.919 E23.81688
G1 X46.043 Y140.8 E23.83711
G1 X45.206 Y140.602 E23.85733
G1 X44.391 Y140.327 E23.87756
G1 X43.606 Y139.978 E23.89776
G1 X42.855 Y139.557 E23.918
G1 X42.148 Y139.069 E23.9382
G1 X41.233 Y138.272 E23.96673
G1 X40.504 Y137.492 E23.99184
G1 X39.984 Y136.807 E24.01206
G1 X39.53 Y136.077 E24.03227
G1 X39.146 Y135.308 E24.05248
G1 X38.835 Y134.506 E24.07271
G1 X38.599 Y133.679 E24.09293
G1 X38.442 Y132.833 E24.11316
G1 X38.354 Y131.565 E24.14305
G1 X38.35 Y113.786 E24.56109
G1 X38.39 Y112.927 E24.58131
G1 X38.509 Y112.075 E24.60154
G1 X38.707 Y111.238 E24.62176
G1 X38.982 Y110.424 E24.64196
G1 X39.331 Y109.638 E24.66218
G1 X39.752 Y108.888 E24.68241
G1 X40.241 Y108.18 E24.70264
G1 X41.037 Y107.266 E24.73114
G1 X41.817 Y106.537 E24.75624
G1 X42.502 Y106.017 E24.77646
G1 X43.232 Y105.563 E24.79668
G1 X44.001 Y105.179 E24.81689
G0 F3600 X44.288 Y105.599
G1 F1800 X45.071 Y105.306 E24.83654
G1 X45.879 Y105.089 E24.85622
G1 X46.704 Y104.949 E24.87589
G1 X47.743 Y104.887 E24.90036
G1 X84.528 Y104.875 E25.7653
G1 X85.364 Y104.915 E25.78498
G1 X86.191 Y105.034 E25.80462
G1 X87.004 Y105.232 E25.8243
G1 X87.794 Y105.506 E25.84396
G1 X88.555 Y105.855 E25.86364
G1 X89.278 Y106.275 E25.8833
G1 X89.958 Y106.761 E25.90296
G1 X90.697 Y107.417 E25.92619
G1 X91.409 Y108.18 E25.95073
G1 X91.912 Y108.848 E25.97039
G1 X92.349 Y109.561 E25.99006
G1 X92.716 Y110.313 E26.00973
G1 X93.009 Y111.096 E26.02939
G1 X93.226 Y111.904 E26.04906
G1 X93.366 Y112.729 E26.06874
G1 X93.428 Y113.769 E26.09323
G1 X93.432 Y131.548 E26.51127
G1 X93.392 Y132.384 E26.53095
G1 X93.273 Y133.211 E26.5506
G1 X93.075 Y134.024 E26.57027
G1 X92.8 Y134.814 E26.58994
G1 X92.452 Y135.574 E26.6096
G1 X92.032 Y136.298 E26.62928
G1 X91.545 Y136.978 E26.64894
G1 X90.89 Y137.716 E26.67215
G1 X90.127 Y138.428 E26.69668
G1 X89.459 Y138.931 E26.71635
G1 X88.746 Y139.368 E26.73601
G1 X87.994 Y139.735 E26.75569
G1 X87.211 Y140.028 E26.77534
G1 X86.403 Y140.245 E26.79501
G1 X85.578 Y140.385 E26.81469
G1 X84.539 Y140.447 E26.83916
G1 X47.754 Y140.459 E27.7041
G1 X46.918 Y140.419 E27.72378
G1 X46.091 Y140.3 E27.74342
G1 X45.278 Y140.102 E27.7631
G1 X44.488 Y139.828 E27.78276
G1 X43.727 Y139.479 E27.80244
G1 X43.004 Y139.059 E27.8221
G1 X42.324 Y138.573 E27.84176
